(G-CODE GENERATED BY FLATCAM v8.994 - www.flatcam.org - Version Date: 2020/11/7)

(Name: Commande Aspi_drill.txt_cnc)
(Type: G-code from Geometry)
(Units: MM)

(Created on Monday, 22 March 2021 at 23:21)

(This preprocessor is the default preprocessor used by FlatCAM.)
(It is made to work with MACH3 compatible motion controllers.)


(TOOLS DIAMETER: )
(Tool: 1 -> Dia: 0.8000237999999998)
(Tool: 2 -> Dia: 0.889)
(Tool: 3 -> Dia: 0.9143999999999999)
(Tool: 4 -> Dia: 0.9652)
(Tool: 5 -> Dia: 1.0498582)
(Tool: 6 -> Dia: 1.0505694)
(Tool: 7 -> Dia: 1.0731753999999998)
(Tool: 8 -> Dia: 2.2442424)
(Tool: 9 -> Dia: 2.999994)

(FEEDRATE Z: )
(Tool: 1 -> Feedrate: 200.0)
(Tool: 2 -> Feedrate: 200.0)
(Tool: 3 -> Feedrate: 200.0)
(Tool: 4 -> Feedrate: 200.0)
(Tool: 5 -> Feedrate: 200.0)
(Tool: 6 -> Feedrate: 200.0)
(Tool: 7 -> Feedrate: 200.0)
(Tool: 8 -> Feedrate: 200.0)
(Tool: 9 -> Feedrate: 200.0)

(FEEDRATE RAPIDS: )
(Tool: 1 -> Feedrate Rapids: 1500)
(Tool: 2 -> Feedrate Rapids: 1500)
(Tool: 3 -> Feedrate Rapids: 1500)
(Tool: 4 -> Feedrate Rapids: 1500)
(Tool: 5 -> Feedrate Rapids: 1500)
(Tool: 6 -> Feedrate Rapids: 1500)
(Tool: 7 -> Feedrate Rapids: 1500)
(Tool: 8 -> Feedrate Rapids: 1500)
(Tool: 9 -> Feedrate Rapids: 1500)

(Z_CUT: )
(Tool: 1 -> Z_Cut: -1.8)
(Tool: 2 -> Z_Cut: -1.8)
(Tool: 3 -> Z_Cut: -1.8)
(Tool: 4 -> Z_Cut: -1.8)
(Tool: 5 -> Z_Cut: -1.8)
(Tool: 6 -> Z_Cut: -1.8)
(Tool: 7 -> Z_Cut: -1.8)
(Tool: 8 -> Z_Cut: -1.8)
(Tool: 9 -> Z_Cut: -1.8)

(Tools Offset: )
(Tool: 1 -> Offset Z: 0.0)
(Tool: 2 -> Offset Z: 0.0)
(Tool: 3 -> Offset Z: 0.0)
(Tool: 4 -> Offset Z: 0.0)
(Tool: 5 -> Offset Z: 0.0)
(Tool: 6 -> Offset Z: 0.0)
(Tool: 7 -> Offset Z: 0.0)
(Tool: 8 -> Offset Z: 0.0)
(Tool: 9 -> Offset Z: 0.0)

(Z_MOVE: )
(Tool: 1 -> Z_Move: 2)
(Tool: 2 -> Z_Move: 2)
(Tool: 3 -> Z_Move: 2)
(Tool: 4 -> Z_Move: 2)
(Tool: 5 -> Z_Move: 2)
(Tool: 6 -> Z_Move: 2)
(Tool: 7 -> Z_Move: 2)
(Tool: 8 -> Z_Move: 2)
(Tool: 9 -> Z_Move: 2)

(Z Toolchange: 15 mm)
(X,Y Toolchange: 0.0000, 0.0000 mm)
(Z Start: None mm)
(Z End: 0.5 mm)
(X,Y End: None mm)
(Steps per circle: 64)
(Preprocessor Excellon: default)

(X range:    7.3544 ...  122.1144  mm)
(Y range:    5.4266 ...   84.6266  mm)

(Spindle Speed: 10000 RPM)
G21
G90
G94

G01 F200.00

M5
G00 Z15.0000
T1
G00 X0.0000 Y0.0000                
M6
(MSG, Change to Tool Dia = 0.8000 ||| Total drills for tool T1 = 112)
M0
G00 Z15.0000

G01 F200.00
M03 S10000
G00 X105.3744 Y65.3847
G01 Z-1.8000
G01 Z0
G00 Z2.0000
G00 X110.4544 Y65.3466
G01 Z-1.8000
G01 Z0
G00 Z2.0000
G00 X115.5344 Y69.3064
G01 Z-1.8000
G01 Z0
G00 Z2.0000
G00 X120.6144 Y83.1266
G01 Z-1.8000
G01 Z0
G00 Z2.0000
G00 X120.0353 Y69.3064
G01 Z-1.8000
G01 Z0
G00 Z2.0000
G00 X120.0353 Y62.8066
G01 Z-1.8000
G01 Z0
G00 Z2.0000
G00 X115.5344 Y62.8066
G01 Z-1.8000
G01 Z0
G00 Z2.0000
G00 X110.4544 Y55.1866
G01 Z-1.8000
G01 Z0
G00 Z2.0000
G00 X97.7544 Y55.1866
G01 Z-1.8000
G01 Z0
G00 Z2.0000
G00 X97.7544 Y65.3466
G01 Z-1.8000
G01 Z0
G00 Z2.0000
G00 X92.6744 Y67.8866
G01 Z-1.8000
G01 Z0
G00 Z2.0000
G00 X92.6744 Y65.3847
G01 Z-1.8000
G01 Z0
G00 Z2.0000
G00 X85.0544 Y65.3466
G01 Z-1.8000
G01 Z0
G00 Z2.0000
G00 X79.9744 Y67.8866
G01 Z-1.8000
G01 Z0
G00 Z2.0000
G00 X79.9744 Y65.3847
G01 Z-1.8000
G01 Z0
G00 Z2.0000
G00 X85.0544 Y55.1866
G01 Z-1.8000
G01 Z0
G00 Z2.0000
G00 X87.5944 Y45.0266
G01 Z-1.8000
G01 Z0
G00 Z2.0000
G00 X100.2944 Y47.5666
G01 Z-1.8000
G01 Z0
G00 Z2.0000
G00 X102.8344 Y42.4866
G01 Z-1.8000
G01 Z0
G00 Z2.0000
G00 X112.9944 Y42.4866
G01 Z-1.8000
G01 Z0
G00 Z2.0000
G00 X115.5344 Y47.5666
G01 Z-1.8000
G01 Z0
G00 Z2.0000
G00 X120.6144 Y50.1066
G01 Z-1.8000
G01 Z0
G00 Z2.0000
G00 X120.6144 Y47.5666
G01 Z-1.8000
G01 Z0
G00 Z2.0000
G00 X120.6144 Y45.0266
G01 Z-1.8000
G01 Z0
G00 Z2.0000
G00 X120.6144 Y42.4866
G01 Z-1.8000
G01 Z0
G00 Z2.0000
G00 X115.5344 Y39.9466
G01 Z-1.8000
G01 Z0
G00 Z2.0000
G00 X112.9944 Y37.4066
G01 Z-1.8000
G01 Z0
G00 Z2.0000
G00 X118.0744 Y32.3266
G01 Z-1.8000
G01 Z0
G00 Z2.0000
G00 X115.5344 Y32.3266
G01 Z-1.8000
G01 Z0
G00 Z2.0000
G00 X112.9944 Y32.3266
G01 Z-1.8000
G01 Z0
G00 Z2.0000
G00 X110.4544 Y32.3266
G01 Z-1.8000
G01 Z0
G00 Z2.0000
G00 X107.9144 Y32.3266
G01 Z-1.8000
G01 Z0
G00 Z2.0000
G00 X105.3744 Y32.3266
G01 Z-1.8000
G01 Z0
G00 Z2.0000
G00 X102.8344 Y32.3266
G01 Z-1.8000
G01 Z0
G00 Z2.0000
G00 X100.2944 Y32.3266
G01 Z-1.8000
G01 Z0
G00 Z2.0000
G00 X97.7544 Y32.3266
G01 Z-1.8000
G01 Z0
G00 Z2.0000
G00 X95.2144 Y32.3266
G01 Z-1.8000
G01 Z0
G00 Z2.0000
G00 X92.6744 Y32.3266
G01 Z-1.8000
G01 Z0
G00 Z2.0000
G00 X90.1344 Y32.3266
G01 Z-1.8000
G01 Z0
G00 Z2.0000
G00 X87.5944 Y32.3266
G01 Z-1.8000
G01 Z0
G00 Z2.0000
G00 X85.0544 Y32.3266
G01 Z-1.8000
G01 Z0
G00 Z2.0000
G00 X82.5144 Y32.3266
G01 Z-1.8000
G01 Z0
G00 Z2.0000
G00 X82.6262 Y27.2390
G01 Z-1.8000
G01 Z0
G00 Z2.0000
G00 X80.0862 Y27.2390
G01 Z-1.8000
G01 Z0
G00 Z2.0000
G00 X80.0862 Y24.6990
G01 Z-1.8000
G01 Z0
G00 Z2.0000
G00 X82.6262 Y24.6990
G01 Z-1.8000
G01 Z0
G00 Z2.0000
G00 X82.6262 Y22.1539
G01 Z-1.8000
G01 Z0
G00 Z2.0000
G00 X80.0862 Y22.1539
G01 Z-1.8000
G01 Z0
G00 Z2.0000
G00 X82.5144 Y17.0866
G01 Z-1.8000
G01 Z0
G00 Z2.0000
G00 X85.0544 Y17.0866
G01 Z-1.8000
G01 Z0
G00 Z2.0000
G00 X87.5944 Y17.0866
G01 Z-1.8000
G01 Z0
G00 Z2.0000
G00 X90.1344 Y17.0866
G01 Z-1.8000
G01 Z0
G00 Z2.0000
G00 X92.6744 Y17.0866
G01 Z-1.8000
G01 Z0
G00 Z2.0000
G00 X95.2144 Y17.0866
G01 Z-1.8000
G01 Z0
G00 Z2.0000
G00 X97.7544 Y17.0866
G01 Z-1.8000
G01 Z0
G00 Z2.0000
G00 X100.2944 Y17.0866
G01 Z-1.8000
G01 Z0
G00 Z2.0000
G00 X102.8344 Y17.0866
G01 Z-1.8000
G01 Z0
G00 Z2.0000
G00 X105.3744 Y17.0866
G01 Z-1.8000
G01 Z0
G00 Z2.0000
G00 X107.9144 Y17.0866
G01 Z-1.8000
G01 Z0
G00 Z2.0000
G00 X110.4544 Y17.0866
G01 Z-1.8000
G01 Z0
G00 Z2.0000
G00 X112.9944 Y17.0866
G01 Z-1.8000
G01 Z0
G00 Z2.0000
G00 X115.5344 Y17.0866
G01 Z-1.8000
G01 Z0
G00 Z2.0000
G00 X118.0744 Y17.0866
G01 Z-1.8000
G01 Z0
G00 Z2.0000
G00 X120.6144 Y6.9266
G01 Z-1.8000
G01 Z0
G00 Z2.0000
G00 X100.2944 Y9.4666
G01 Z-1.8000
G01 Z0
G00 Z2.0000
G00 X97.7544 Y12.0066
G01 Z-1.8000
G01 Z0
G00 Z2.0000
G00 X90.1344 Y12.0066
G01 Z-1.8000
G01 Z0
G00 Z2.0000
G00 X87.5944 Y12.0066
G01 Z-1.8000
G01 Z0
G00 Z2.0000
G00 X69.8144 Y9.4666
G01 Z-1.8000
G01 Z0
G00 Z2.0000
G00 X67.2744 Y17.0866
G01 Z-1.8000
G01 Z0
G00 Z2.0000
G00 X71.7753 Y17.0866
G01 Z-1.8000
G01 Z0
G00 Z2.0000
G00 X71.7753 Y23.5864
G01 Z-1.8000
G01 Z0
G00 Z2.0000
G00 X67.2744 Y23.5864
G01 Z-1.8000
G01 Z0
G00 Z2.0000
G00 X57.1144 Y24.7066
G01 Z-1.8000
G01 Z0
G00 Z2.0000
G00 X41.8744 Y12.0066
G01 Z-1.8000
G01 Z0
G00 Z2.0000
G00 X41.8744 Y17.0866
G01 Z-1.8000
G01 Z0
G00 Z2.0000
G00 X39.3344 Y22.1666
G01 Z-1.8000
G01 Z0
G00 Z2.0000
G00 X31.7144 Y17.0866
G01 Z-1.8000
G01 Z0
G00 Z2.0000
G00 X26.6344 Y17.1247
G01 Z-1.8000
G01 Z0
G00 Z2.0000
G00 X26.6344 Y19.6266
G01 Z-1.8000
G01 Z0
G00 Z2.0000
G00 X24.0944 Y22.1666
G01 Z-1.8000
G01 Z0
G00 Z2.0000
G00 X19.0144 Y22.1666
G01 Z-1.8000
G01 Z0
G00 Z2.0000
G00 X8.8544 Y6.9266
G01 Z-1.8000
G01 Z0
G00 Z2.0000
G00 X8.8544 Y42.4866
G01 Z-1.8000
G01 Z0
G00 Z2.0000
G00 X19.0144 Y34.8666
G01 Z-1.8000
G01 Z0
G00 Z2.0000
G00 X19.0144 Y32.3647
G01 Z-1.8000
G01 Z0
G00 Z2.0000
G00 X24.0944 Y32.3266
G01 Z-1.8000
G01 Z0
G00 Z2.0000
G00 X34.2544 Y32.3647
G01 Z-1.8000
G01 Z0
G00 Z2.0000
G00 X34.2544 Y34.8666
G01 Z-1.8000
G01 Z0
G00 Z2.0000
G00 X39.3344 Y32.3266
G01 Z-1.8000
G01 Z0
G00 Z2.0000
G00 X44.4144 Y42.4866
G01 Z-1.8000
G01 Z0
G00 Z2.0000
G00 X57.1144 Y45.0266
G01 Z-1.8000
G01 Z0
G00 Z2.0000
G00 X57.1144 Y42.4866
G01 Z-1.8000
G01 Z0
G00 Z2.0000
G00 X57.1144 Y38.8264
G01 Z-1.8000
G01 Z0
G00 Z2.0000
G00 X57.1144 Y32.3266
G01 Z-1.8000
G01 Z0
G00 Z2.0000
G00 X61.6153 Y32.3266
G01 Z-1.8000
G01 Z0
G00 Z2.0000
G00 X69.8144 Y34.8666
G01 Z-1.8000
G01 Z0
G00 Z2.0000
G00 X61.6153 Y38.8264
G01 Z-1.8000
G01 Z0
G00 Z2.0000
G00 X61.6153 Y45.0266
G01 Z-1.8000
G01 Z0
G00 Z2.0000
G00 X61.6153 Y51.5264
G01 Z-1.8000
G01 Z0
G00 Z2.0000
G00 X57.1144 Y51.5264
G01 Z-1.8000
G01 Z0
G00 Z2.0000
G00 X54.7218 Y62.9260
G01 Z-1.8000
G01 Z0
G00 Z2.0000
G00 X64.5846 Y62.9260
G01 Z-1.8000
G01 Z0
G00 Z2.0000
G00 X62.1944 Y70.4266
G01 Z-1.8000
G01 Z0
G00 Z2.0000
G00 X59.6544 Y70.4266
G01 Z-1.8000
G01 Z0
G00 Z2.0000
G00 X57.1144 Y70.4266
G01 Z-1.8000
G01 Z0
G00 Z2.0000
G00 X44.4144 Y83.1266
G01 Z-1.8000
G01 Z0
G00 Z2.0000
G00 X69.6087 Y82.4205
G01 Z-1.8000
G01 Z0
G00 Z2.0000
G00 X72.1487 Y82.4205
G01 Z-1.8000
G01 Z0
G00 Z2.0000
G00 X74.6887 Y82.4205
G01 Z-1.8000
G01 Z0
G00 Z2.0000
G00 X87.5944 Y80.5866
G01 Z-1.8000
G01 Z0
G00 Z2.0000
G00 X105.3744 Y67.8866
G01 Z-1.8000
G01 Z0
G00 Z2.0000
M05
G00 Z0.50


