(G-CODE GENERATED BY FLATCAM v8.994 - www.flatcam.org - Version Date: 2020/11/7)

(Name: Commande Aspi_copperBottom.gbl_iso_combined_cnc)
(Type: G-code from Geometry)
(Units: MM)

(Created on Monday, 22 March 2021 at 23:20)

(This preprocessor is the default preprocessor used by FlatCAM.)
(It is made to work with MACH3 compatible motion controllers.)

(TOOL DIAMETER: 0.1 mm)
(Feedrate_XY: 200.0 mm/min)
(Feedrate_Z: 150.0 mm/min)
(Feedrate rapids 1500.0 mm/min)

(Z_Cut: 0.0 mm)
(Z_Move: 2.0 mm)
(Z Start: None mm)
(Z End: 5.0 mm)
(X,Y End: None mm)
(Steps per circle: 64)
(Preprocessor Geometry: default)

(X range:   18.0221 ...  128.6504  mm)
(Y range:    6.4522 ...   86.1054  mm)

(Spindle Speed: 10000.0 RPM)
G21
G90
G94

G01 F200.00

M5
G00 Z15.0000
G00 X0.0000 Y0.0000
T1
M6    
(MSG, Change to Tool Dia = 0.1000)
M0
G00 Z15.0000

M03 S10000.0
G01 F200.00
G00 X23.2129 Y21.7176
G01 F150.00
G01 Z0.0000
G01 F200.00
G01 X23.2211 Y21.7006
G01 X23.2711 Y21.6172
G01 X23.3297 Y21.5382
G01 X23.3957 Y21.4653
G01 X23.4686 Y21.3993
G01 X23.5476 Y21.3407
G01 X23.6320 Y21.2901
G01 X23.7210 Y21.2480
G01 X23.8136 Y21.2149
G01 X23.9090 Y21.1910
G01 X24.0063 Y21.1765
G01 X24.1046 Y21.1717
G01 X24.2029 Y21.1765
G01 X24.3002 Y21.1910
G01 X24.3956 Y21.2149
G01 X24.4882 Y21.2480
G01 X24.5772 Y21.2901
G01 X24.6616 Y21.3407
G01 X24.7406 Y21.3993
G01 X24.8135 Y21.4653
G01 X24.8795 Y21.5382
G01 X24.9381 Y21.6172
G01 X24.9887 Y21.7016
G01 X25.0308 Y21.7906
G01 X25.0639 Y21.8832
G01 X25.0878 Y21.9786
G01 X25.1023 Y22.0759
G01 X25.1071 Y22.1742
G01 X25.1023 Y22.2725
G01 X25.0878 Y22.3698
G01 X25.0639 Y22.4652
G01 X25.0308 Y22.5578
G01 X24.9887 Y22.6468
G01 X24.9381 Y22.7312
G01 X24.8779 Y22.8120
G01 X24.8135 Y22.8831
G01 X24.7424 Y22.9475
G01 X24.6616 Y23.0077
G01 X24.5772 Y23.0583
G01 X24.4859 Y23.1013
G01 X24.3956 Y23.1335
G01 X24.3026 Y23.1569
G01 X24.2029 Y23.1719
G01 X24.1021 Y23.1766
G01 X24.0063 Y23.1719
G01 X23.9090 Y23.1574
G01 X23.8113 Y23.1328
G01 X23.7210 Y23.1004
G01 X23.6320 Y23.0583
G01 X23.5476 Y23.0077
G01 X23.4706 Y22.9507
G01 X23.3957 Y22.8831
G01 X23.3297 Y22.8102
G01 X23.2725 Y22.7332
G01 X23.2211 Y22.6478
G01 X23.2129 Y22.6308
G01 X19.9163 Y22.6308
G01 X19.9081 Y22.6478
G01 X19.8567 Y22.7332
G01 X19.7995 Y22.8102
G01 X19.7335 Y22.8831
G01 X19.6586 Y22.9507
G01 X19.5816 Y23.0077
G01 X19.4972 Y23.0583
G01 X19.4082 Y23.1004
G01 X19.3179 Y23.1328
G01 X19.2202 Y23.1574
G01 X19.1204 Y23.1721
G01 X19.0246 Y23.1767
G01 X18.9288 Y23.1721
G01 X18.8290 Y23.1574
G01 X18.7360 Y23.1342
G01 X18.6387 Y23.0994
G01 X18.5520 Y23.0583
G01 X18.4676 Y23.0077
G01 X18.3886 Y22.9491
G01 X18.3157 Y22.8831
G01 X18.2497 Y22.8102
G01 X18.1925 Y22.7332
G01 X18.1394 Y22.6446
G01 X18.0984 Y22.5578
G01 X18.0653 Y22.4652
G01 X18.0414 Y22.3698
G01 X18.0269 Y22.2725
G01 X18.0221 Y22.1742
G01 X18.0269 Y22.0759
G01 X18.0414 Y21.9786
G01 X18.0653 Y21.8832
G01 X18.0984 Y21.7906
G01 X18.1405 Y21.7016
G01 X18.1911 Y21.6172
G01 X18.2497 Y21.5382
G01 X18.3157 Y21.4653
G01 X18.3886 Y21.3993
G01 X18.4676 Y21.3407
G01 X18.5520 Y21.2901
G01 X18.6410 Y21.2480
G01 X18.7336 Y21.2149
G01 X18.8290 Y21.1910
G01 X18.9263 Y21.1765
G01 X19.0271 Y21.1718
G01 X19.1229 Y21.1765
G01 X19.2202 Y21.1910
G01 X19.3179 Y21.2156
G01 X19.4082 Y21.2480
G01 X19.4972 Y21.2901
G01 X19.5836 Y21.3421
G01 X19.6606 Y21.3993
G01 X19.7335 Y21.4653
G01 X19.7995 Y21.5382
G01 X19.8567 Y21.6152
G01 X19.9081 Y21.7006
G01 X19.9163 Y21.7176
G01 X23.2129 Y21.7176
G00 Z2.0000
G00 X30.8334 Y17.5519
G01 F150.00
G01 Z0.0000
G01 F200.00
G01 X27.4946 Y17.5749
G01 X27.4944 Y17.9245
G01 X27.4928 Y17.9329
G01 X27.4903 Y17.9399
G01 X27.4862 Y17.9474
G01 X27.4816 Y17.9532
G01 X27.4763 Y17.9582
G01 X27.4703 Y17.9625
G01 X27.4637 Y17.9658
G01 X27.4556 Y17.9684
G01 X27.4495 Y17.9694
G01 X27.4446 Y17.9696
G01 X25.8446 Y17.9696
G01 X25.8385 Y17.9692
G01 X25.8325 Y17.9681
G01 X25.8255 Y17.9658
G01 X25.8179 Y17.9618
G01 X25.8110 Y17.9566
G01 X25.8052 Y17.9504
G01 X25.8005 Y17.9432
G01 X25.7975 Y17.9364
G01 X25.7953 Y17.9281
G01 X25.7946 Y17.9208
G01 X25.7946 Y16.3196
G01 X25.7950 Y16.3135
G01 X25.7961 Y16.3075
G01 X25.7989 Y16.2993
G01 X25.8024 Y16.2929
G01 X25.8067 Y16.2869
G01 X25.8129 Y16.2810
G01 X25.8200 Y16.2761
G01 X25.8278 Y16.2725
G01 X25.8361 Y16.2703
G01 X25.8434 Y16.2696
G01 X27.4446 Y16.2696
G01 X27.4544 Y16.2706
G01 X27.4614 Y16.2725
G01 X27.4692 Y16.2761
G01 X27.4763 Y16.2810
G01 X27.4816 Y16.2860
G01 X27.4868 Y16.2929
G01 X27.4903 Y16.2993
G01 X27.4931 Y16.3075
G01 X27.4944 Y16.3147
G01 X27.4946 Y16.6617
G01 X30.8324 Y16.6387
G01 X30.8411 Y16.6206
G01 X30.8911 Y16.5372
G01 X30.9513 Y16.4564
G01 X31.0157 Y16.3853
G01 X31.0868 Y16.3209
G01 X31.1697 Y16.2593
G01 X31.2520 Y16.2101
G01 X31.3387 Y16.1690
G01 X31.4336 Y16.1349
G01 X31.5290 Y16.1110
G01 X31.6239 Y16.0968
G01 X31.7271 Y16.0918
G01 X31.8229 Y16.0965
G01 X31.9178 Y16.1105
G01 X32.0156 Y16.1349
G01 X32.1105 Y16.1690
G01 X32.1972 Y16.2101
G01 X32.2795 Y16.2593
G01 X32.3606 Y16.3193
G01 X32.4352 Y16.3871
G01 X32.4995 Y16.4582
G01 X32.5567 Y16.5352
G01 X32.6087 Y16.6216
G01 X32.6508 Y16.7106
G01 X32.6839 Y16.8032
G01 X32.7078 Y16.8986
G01 X32.7223 Y16.9959
G01 X32.7271 Y17.0942
G01 X32.7223 Y17.1925
G01 X32.7078 Y17.2898
G01 X32.6839 Y17.3852
G01 X32.6508 Y17.4778
G01 X32.6087 Y17.5668
G01 X32.5581 Y17.6512
G01 X32.4995 Y17.7302
G01 X32.4335 Y17.8031
G01 X32.3606 Y17.8691
G01 X32.2816 Y17.9277
G01 X32.1972 Y17.9783
G01 X32.1082 Y18.0204
G01 X32.0156 Y18.0535
G01 X31.9202 Y18.0774
G01 X31.8229 Y18.0919
G01 X31.7246 Y18.0967
G01 X31.6263 Y18.0919
G01 X31.5290 Y18.0774
G01 X31.4336 Y18.0535
G01 X31.3410 Y18.0204
G01 X31.2520 Y17.9783
G01 X31.1676 Y17.9277
G01 X31.0886 Y17.8691
G01 X31.0157 Y17.8031
G01 X30.9497 Y17.7302
G01 X30.8911 Y17.6512
G01 X30.8411 Y17.5678
G01 X30.8334 Y17.5519
G00 Z2.0000
G00 X42.3412 Y12.9059
G01 F150.00
G01 Z0.0000
G01 F200.00
G01 X42.3412 Y16.2025
G01 X42.3582 Y16.2107
G01 X42.4436 Y16.2621
G01 X42.5206 Y16.3193
G01 X42.5935 Y16.3853
G01 X42.6611 Y16.4602
G01 X42.7181 Y16.5372
G01 X42.7687 Y16.6216
G01 X42.8117 Y16.7129
G01 X42.8439 Y16.8032
G01 X42.8678 Y16.8986
G01 X42.8823 Y16.9959
G01 X42.8870 Y17.0917
G01 X42.8823 Y17.1925
G01 X42.8678 Y17.2898
G01 X42.8439 Y17.3852
G01 X42.8108 Y17.4778
G01 X42.7687 Y17.5668
G01 X42.7181 Y17.6512
G01 X42.6595 Y17.7302
G01 X42.5935 Y17.8031
G01 X42.5206 Y17.8691
G01 X42.4416 Y17.9277
G01 X42.3572 Y17.9783
G01 X42.2682 Y18.0204
G01 X42.1756 Y18.0535
G01 X42.0802 Y18.0774
G01 X41.9829 Y18.0919
G01 X41.8846 Y18.0967
G01 X41.7863 Y18.0919
G01 X41.6890 Y18.0774
G01 X41.5936 Y18.0535
G01 X41.5010 Y18.0204
G01 X41.4142 Y17.9794
G01 X41.3256 Y17.9263
G01 X41.2486 Y17.8691
G01 X41.1757 Y17.8031
G01 X41.1097 Y17.7302
G01 X41.0511 Y17.6512
G01 X41.0005 Y17.5668
G01 X40.9594 Y17.4801
G01 X40.9253 Y17.3852
G01 X40.9019 Y17.2922
G01 X40.8867 Y17.1900
G01 X40.8821 Y17.0942
G01 X40.8867 Y16.9984
G01 X40.9014 Y16.8986
G01 X40.9253 Y16.8032
G01 X40.9575 Y16.7129
G01 X41.0005 Y16.6216
G01 X41.0525 Y16.5352
G01 X41.1097 Y16.4582
G01 X41.1757 Y16.3853
G01 X41.2486 Y16.3193
G01 X41.3256 Y16.2621
G01 X41.4110 Y16.2107
G01 X41.4280 Y16.2025
G01 X41.4280 Y12.9059
G01 X41.4110 Y12.8977
G01 X41.3256 Y12.8463
G01 X41.2486 Y12.7891
G01 X41.1757 Y12.7231
G01 X41.1097 Y12.6502
G01 X41.0525 Y12.5732
G01 X41.0005 Y12.4868
G01 X40.9575 Y12.3955
G01 X40.9253 Y12.3052
G01 X40.9014 Y12.2098
G01 X40.8869 Y12.1125
G01 X40.8822 Y12.0167
G01 X40.8869 Y11.9159
G01 X40.9019 Y11.8162
G01 X40.9253 Y11.7232
G01 X40.9575 Y11.6329
G01 X41.0005 Y11.5416
G01 X41.0511 Y11.4572
G01 X41.1113 Y11.3764
G01 X41.1757 Y11.3053
G01 X41.2468 Y11.2409
G01 X41.3276 Y11.1807
G01 X41.4120 Y11.1301
G01 X41.5010 Y11.0880
G01 X41.5936 Y11.0549
G01 X41.6890 Y11.0310
G01 X41.7863 Y11.0165
G01 X41.8846 Y11.0117
G01 X41.9829 Y11.0165
G01 X42.0802 Y11.0310
G01 X42.1756 Y11.0549
G01 X42.2682 Y11.0880
G01 X42.3572 Y11.1301
G01 X42.4416 Y11.1807
G01 X42.5206 Y11.2393
G01 X42.5935 Y11.3053
G01 X42.6595 Y11.3782
G01 X42.7181 Y11.4572
G01 X42.7687 Y11.5416
G01 X42.8108 Y11.6306
G01 X42.8439 Y11.7232
G01 X42.8678 Y11.8186
G01 X42.8823 Y11.9159
G01 X42.8871 Y12.0142
G01 X42.8823 Y12.1125
G01 X42.8678 Y12.2098
G01 X42.8439 Y12.3052
G01 X42.8108 Y12.3978
G01 X42.7687 Y12.4868
G01 X42.7181 Y12.5712
G01 X42.6595 Y12.6502
G01 X42.5935 Y12.7231
G01 X42.5206 Y12.7891
G01 X42.4416 Y12.8477
G01 X42.3582 Y12.8977
G01 X42.3412 Y12.9059
G00 Z2.0000
G00 X57.5812 Y25.6059
G01 F150.00
G01 Z0.0000
G01 F200.00
G01 X57.5812 Y31.4425
G01 X57.5982 Y31.4507
G01 X57.6836 Y31.5021
G01 X57.7606 Y31.5593
G01 X57.8335 Y31.6253
G01 X57.9011 Y31.7002
G01 X57.9581 Y31.7772
G01 X58.0087 Y31.8616
G01 X58.0517 Y31.9529
G01 X58.0839 Y32.0432
G01 X58.1078 Y32.1386
G01 X58.1225 Y32.2384
G01 X58.1271 Y32.3342
G01 X58.1224 Y32.4312
G01 X58.1078 Y32.5298
G01 X58.0839 Y32.6252
G01 X58.0508 Y32.7178
G01 X58.0087 Y32.8068
G01 X57.9581 Y32.8912
G01 X57.8995 Y32.9702
G01 X57.8335 Y33.0431
G01 X57.7606 Y33.1091
G01 X57.6816 Y33.1677
G01 X57.5972 Y33.2183
G01 X57.5082 Y33.2604
G01 X57.4156 Y33.2935
G01 X57.3202 Y33.3174
G01 X57.2229 Y33.3319
G01 X57.1246 Y33.3367
G01 X57.0276 Y33.3320
G01 X56.9290 Y33.3174
G01 X56.8336 Y33.2935
G01 X56.7410 Y33.2604
G01 X56.6542 Y33.2194
G01 X56.5676 Y33.1677
G01 X56.4906 Y33.1107
G01 X56.4140 Y33.0413
G01 X56.3497 Y32.9702
G01 X56.2911 Y32.8912
G01 X56.2405 Y32.8068
G01 X56.1984 Y32.7178
G01 X56.1653 Y32.6252
G01 X56.1414 Y32.5298
G01 X56.1269 Y32.4325
G01 X56.1222 Y32.3367
G01 X56.1272 Y32.2335
G01 X56.1414 Y32.1386
G01 X56.1653 Y32.0432
G01 X56.1994 Y31.9483
G01 X56.2405 Y31.8616
G01 X56.2897 Y31.7793
G01 X56.3513 Y31.6964
G01 X56.4157 Y31.6253
G01 X56.4868 Y31.5609
G01 X56.5676 Y31.5007
G01 X56.6510 Y31.4507
G01 X56.6680 Y31.4425
G01 X56.6680 Y25.6059
G01 X56.6510 Y25.5977
G01 X56.5676 Y25.5477
G01 X56.4868 Y25.4875
G01 X56.4157 Y25.4231
G01 X56.3513 Y25.3520
G01 X56.2897 Y25.2691
G01 X56.2405 Y25.1868
G01 X56.1994 Y25.1001
G01 X56.1653 Y25.0052
G01 X56.1414 Y24.9098
G01 X56.1272 Y24.8149
G01 X56.1221 Y24.7142
G01 X56.1269 Y24.6159
G01 X56.1409 Y24.5210
G01 X56.1653 Y24.4232
G01 X56.1994 Y24.3283
G01 X56.2405 Y24.2416
G01 X56.2897 Y24.1593
G01 X56.3497 Y24.0782
G01 X56.4175 Y24.0036
G01 X56.4886 Y23.9393
G01 X56.5656 Y23.8821
G01 X56.6520 Y23.8301
G01 X56.7410 Y23.7880
G01 X56.8336 Y23.7549
G01 X56.9290 Y23.7310
G01 X57.0263 Y23.7165
G01 X57.1246 Y23.7117
G01 X57.2229 Y23.7165
G01 X57.3202 Y23.7310
G01 X57.4156 Y23.7549
G01 X57.5082 Y23.7880
G01 X57.5972 Y23.8301
G01 X57.6816 Y23.8807
G01 X57.7606 Y23.9393
G01 X57.8335 Y24.0053
G01 X57.8995 Y24.0782
G01 X57.9581 Y24.1572
G01 X58.0087 Y24.2416
G01 X58.0508 Y24.3306
G01 X58.0839 Y24.4232
G01 X58.1078 Y24.5186
G01 X58.1223 Y24.6159
G01 X58.1271 Y24.7142
G01 X58.1223 Y24.8125
G01 X58.1078 Y24.9098
G01 X58.0839 Y25.0052
G01 X58.0508 Y25.0978
G01 X58.0087 Y25.1868
G01 X57.9581 Y25.2712
G01 X57.8995 Y25.3502
G01 X57.8335 Y25.4231
G01 X57.7606 Y25.4891
G01 X57.6816 Y25.5477
G01 X57.5982 Y25.5977
G01 X57.5812 Y25.6059
G00 Z2.0000
G00 X66.2822 Y17.0967
G01 F150.00
G01 Z0.0000
G01 F200.00
G01 X66.2869 Y16.9959
G01 X66.3014 Y16.8986
G01 X66.3253 Y16.8032
G01 X66.3584 Y16.7106
G01 X66.4005 Y16.6216
G01 X66.4511 Y16.5372
G01 X66.5097 Y16.4582
G01 X66.5757 Y16.3853
G01 X66.6486 Y16.3193
G01 X66.7276 Y16.2607
G01 X66.8120 Y16.2101
G01 X66.9010 Y16.1680
G01 X66.9936 Y16.1349
G01 X67.0890 Y16.1110
G01 X67.1863 Y16.0965
G01 X67.2846 Y16.0917
G01 X67.3829 Y16.0965
G01 X67.4802 Y16.1110
G01 X67.5756 Y16.1349
G01 X67.6682 Y16.1680
G01 X67.7572 Y16.2101
G01 X67.8416 Y16.2607
G01 X67.9206 Y16.3193
G01 X67.9935 Y16.3853
G01 X68.0595 Y16.4582
G01 X68.1181 Y16.5372
G01 X68.1687 Y16.6216
G01 X68.2108 Y16.7106
G01 X68.2439 Y16.8032
G01 X68.2678 Y16.8986
G01 X68.2823 Y16.9959
G01 X68.2871 Y17.0942
G01 X68.2823 Y17.1925
G01 X68.2678 Y17.2898
G01 X68.2439 Y17.3852
G01 X68.2108 Y17.4778
G01 X68.1687 Y17.5668
G01 X68.1181 Y17.6512
G01 X68.0595 Y17.7302
G01 X67.9935 Y17.8031
G01 X67.9206 Y17.8691
G01 X67.8416 Y17.9277
G01 X67.7572 Y17.9783
G01 X67.6682 Y18.0204
G01 X67.5756 Y18.0535
G01 X67.4802 Y18.0774
G01 X67.3829 Y18.0919
G01 X67.2846 Y18.0967
G01 X67.1863 Y18.0919
G01 X67.0890 Y18.0774
G01 X66.9936 Y18.0535
G01 X66.9010 Y18.0204
G01 X66.8120 Y17.9783
G01 X66.7276 Y17.9277
G01 X66.6486 Y17.8691
G01 X66.5757 Y17.8031
G01 X66.5097 Y17.7302
G01 X66.4511 Y17.6512
G01 X66.4005 Y17.5668
G01 X66.3584 Y17.4778
G01 X66.3253 Y17.3852
G01 X66.3014 Y17.2898
G01 X66.2869 Y17.1925
G01 X66.2822 Y17.0967
G00 Z2.0000
G00 X70.7780 Y17.0967
G01 F150.00
G01 Z0.0000
G01 F200.00
G01 X70.7827 Y16.9959
G01 X70.7972 Y16.8986
G01 X70.8211 Y16.8032
G01 X70.8542 Y16.7106
G01 X70.8963 Y16.6216
G01 X70.9469 Y16.5372
G01 X71.0055 Y16.4582
G01 X71.0715 Y16.3853
G01 X71.1444 Y16.3193
G01 X71.2234 Y16.2607
G01 X71.3078 Y16.2101
G01 X71.3968 Y16.1680
G01 X71.4894 Y16.1349
G01 X71.5848 Y16.1110
G01 X71.6821 Y16.0965
G01 X71.7804 Y16.0917
G01 X71.8787 Y16.0965
G01 X71.9760 Y16.1110
G01 X72.0714 Y16.1349
G01 X72.1640 Y16.1680
G01 X72.2530 Y16.2101
G01 X72.3374 Y16.2607
G01 X72.4164 Y16.3193
G01 X72.4893 Y16.3853
G01 X72.5553 Y16.4582
G01 X72.6139 Y16.5372
G01 X72.6645 Y16.6216
G01 X72.7066 Y16.7106
G01 X72.7397 Y16.8032
G01 X72.7636 Y16.8986
G01 X72.7781 Y16.9959
G01 X72.7829 Y17.0942
G01 X72.7781 Y17.1925
G01 X72.7636 Y17.2898
G01 X72.7397 Y17.3852
G01 X72.7066 Y17.4778
G01 X72.6645 Y17.5668
G01 X72.6139 Y17.6512
G01 X72.5553 Y17.7302
G01 X72.4893 Y17.8031
G01 X72.4164 Y17.8691
G01 X72.3374 Y17.9277
G01 X72.2530 Y17.9783
G01 X72.1640 Y18.0204
G01 X72.0714 Y18.0535
G01 X71.9760 Y18.0774
G01 X71.8787 Y18.0919
G01 X71.7804 Y18.0967
G01 X71.6821 Y18.0919
G01 X71.5848 Y18.0774
G01 X71.4894 Y18.0535
G01 X71.3968 Y18.0204
G01 X71.3078 Y17.9783
G01 X71.2234 Y17.9277
G01 X71.1444 Y17.8691
G01 X71.0715 Y17.8031
G01 X71.0055 Y17.7302
G01 X70.9469 Y17.6512
G01 X70.8963 Y17.5668
G01 X70.8542 Y17.4778
G01 X70.8211 Y17.3852
G01 X70.7972 Y17.2898
G01 X70.7827 Y17.1925
G01 X70.7780 Y17.0967
G00 Z2.0000
G00 X72.3593 Y24.4140
G01 F150.00
G01 Z0.0000
G01 F200.00
G01 X72.7079 Y26.7722
G01 X79.2664 Y26.7722
G01 X79.3055 Y26.7071
G01 X79.3588 Y26.6350
G01 X79.4222 Y26.5648
G01 X79.4905 Y26.5029
G01 X79.5625 Y26.4495
G01 X79.6436 Y26.4007
G01 X79.7269 Y26.3613
G01 X79.8113 Y26.3310
G01 X79.9030 Y26.3078
G01 X79.9966 Y26.2941
G01 X80.0862 Y26.2898
G01 X80.1782 Y26.2943
G01 X80.2694 Y26.3078
G01 X80.3611 Y26.3310
G01 X80.4455 Y26.3613
G01 X80.5266 Y26.3996
G01 X80.6058 Y26.4467
G01 X80.6819 Y26.5029
G01 X80.7502 Y26.5648
G01 X80.8121 Y26.6331
G01 X80.8683 Y26.7092
G01 X80.9154 Y26.7884
G01 X80.9537 Y26.8695
G01 X80.9840 Y26.9539
G01 X81.0072 Y27.0456
G01 X81.0207 Y27.1368
G01 X81.0252 Y27.2288
G01 X81.0204 Y27.3233
G01 X81.0072 Y27.4120
G01 X80.9854 Y27.4990
G01 X80.9546 Y27.5858
G01 X80.9131 Y27.6736
G01 X80.8669 Y27.7505
G01 X80.8121 Y27.8245
G01 X80.7484 Y27.8945
G01 X80.6819 Y27.9547
G01 X80.6079 Y28.0095
G01 X80.5288 Y28.0569
G01 X80.4478 Y28.0953
G01 X80.3588 Y28.1274
G01 X80.2694 Y28.1498
G01 X80.1807 Y28.1630
G01 X80.0862 Y28.1678
G01 X79.9917 Y28.1630
G01 X79.9030 Y28.1498
G01 X79.8160 Y28.1280
G01 X79.7269 Y28.0963
G01 X79.6414 Y28.0557
G01 X79.5645 Y28.0095
G01 X79.4924 Y27.9562
G01 X79.4222 Y27.8928
G01 X79.3588 Y27.8226
G01 X79.3055 Y27.7505
G01 X79.2664 Y27.6854
G01 X72.3138 Y27.6854
G01 X72.2912 Y27.6848
G01 X72.2703 Y27.6833
G01 X72.2454 Y27.6802
G01 X72.2247 Y27.6766
G01 X72.2026 Y27.6717
G01 X72.1813 Y27.6657
G01 X72.1598 Y27.6586
G01 X72.1379 Y27.6502
G01 X72.1184 Y27.6415
G01 X72.0996 Y27.6321
G01 X72.0789 Y27.6203
G01 X72.0601 Y27.6084
G01 X72.0406 Y27.5947
G01 X72.0241 Y27.5818
G01 X72.0079 Y27.5678
G01 X71.9909 Y27.5517
G01 X71.9753 Y27.5353
G01 X71.9601 Y27.5175
G01 X71.9469 Y27.5006
G01 X71.9348 Y27.4835
G01 X71.9220 Y27.4633
G01 X71.9111 Y27.4440
G01 X71.9004 Y27.4227
G01 X71.8920 Y27.4035
G01 X71.8842 Y27.3836
G01 X71.8769 Y27.3613
G01 X71.8705 Y27.3383
G01 X71.8660 Y27.3179
G01 X71.8621 Y27.2956
G01 X71.4553 Y24.5438
G01 X71.3968 Y24.5228
G01 X71.3089 Y24.4813
G01 X71.2224 Y24.4295
G01 X71.1444 Y24.3715
G01 X71.0733 Y24.3072
G01 X71.0062 Y24.2335
G01 X70.9469 Y24.1536
G01 X70.8952 Y24.0670
G01 X70.8542 Y23.9802
G01 X70.8218 Y23.8899
G01 X70.7972 Y23.7922
G01 X70.7827 Y23.6949
G01 X70.7780 Y23.5991
G01 X70.7827 Y23.4983
G01 X70.7972 Y23.4010
G01 X70.8204 Y23.3080
G01 X70.8542 Y23.2130
G01 X70.8963 Y23.1240
G01 X70.9455 Y23.0417
G01 X71.0055 Y22.9606
G01 X71.0733 Y22.8860
G01 X71.1444 Y22.8217
G01 X71.2224 Y22.7637
G01 X71.3078 Y22.7125
G01 X71.3968 Y22.6704
G01 X71.4894 Y22.6373
G01 X71.5848 Y22.6134
G01 X71.6821 Y22.5989
G01 X71.7804 Y22.5941
G01 X71.8787 Y22.5989
G01 X71.9760 Y22.6134
G01 X72.0714 Y22.6373
G01 X72.1640 Y22.6704
G01 X72.2530 Y22.7125
G01 X72.3374 Y22.7631
G01 X72.4164 Y22.8217
G01 X72.4893 Y22.8877
G01 X72.5553 Y22.9606
G01 X72.6133 Y23.0386
G01 X72.6645 Y23.1240
G01 X72.7066 Y23.2130
G01 X72.7397 Y23.3056
G01 X72.7636 Y23.4010
G01 X72.7781 Y23.4983
G01 X72.7829 Y23.5966
G01 X72.7781 Y23.6949
G01 X72.7639 Y23.7910
G01 X72.7397 Y23.8876
G01 X72.7066 Y23.9802
G01 X72.6645 Y24.0692
G01 X72.6146 Y24.1525
G01 X72.5553 Y24.2326
G01 X72.4893 Y24.3055
G01 X72.4164 Y24.3715
G01 X72.3593 Y24.4140
G00 Z2.0000
G00 X79.1473 Y24.6913
G01 F150.00
G01 Z0.0000
G01 F200.00
G01 X79.1517 Y24.5968
G01 X79.1652 Y24.5056
G01 X79.1876 Y24.4162
G01 X79.2187 Y24.3295
G01 X79.2581 Y24.2462
G01 X79.3055 Y24.1671
G01 X79.3603 Y24.0931
G01 X79.4222 Y24.0248
G01 X79.4905 Y23.9629
G01 X79.5645 Y23.9081
G01 X79.6436 Y23.8607
G01 X79.7269 Y23.8213
G01 X79.8136 Y23.7902
G01 X79.9030 Y23.7678
G01 X79.9942 Y23.7543
G01 X80.0862 Y23.7498
G01 X80.1782 Y23.7543
G01 X80.2694 Y23.7678
G01 X80.3588 Y23.7902
G01 X80.4455 Y23.8213
G01 X80.5288 Y23.8607
G01 X80.6079 Y23.9081
G01 X80.6819 Y23.9629
G01 X80.7502 Y24.0248
G01 X80.8121 Y24.0931
G01 X80.8669 Y24.1671
G01 X80.9143 Y24.2462
G01 X80.9537 Y24.3295
G01 X80.9848 Y24.4162
G01 X81.0072 Y24.5056
G01 X81.0207 Y24.5968
G01 X81.0252 Y24.6888
G01 X81.0207 Y24.7808
G01 X81.0072 Y24.8720
G01 X80.9848 Y24.9614
G01 X80.9537 Y25.0481
G01 X80.9143 Y25.1314
G01 X80.8669 Y25.2105
G01 X80.8121 Y25.2845
G01 X80.7502 Y25.3528
G01 X80.6819 Y25.4147
G01 X80.6079 Y25.4695
G01 X80.5288 Y25.5169
G01 X80.4455 Y25.5563
G01 X80.3588 Y25.5874
G01 X80.2694 Y25.6098
G01 X80.1782 Y25.6233
G01 X80.0862 Y25.6278
G01 X79.9942 Y25.6233
G01 X79.9030 Y25.6098
G01 X79.8136 Y25.5874
G01 X79.7269 Y25.5563
G01 X79.6436 Y25.5169
G01 X79.5645 Y25.4695
G01 X79.4905 Y25.4147
G01 X79.4222 Y25.3528
G01 X79.3603 Y25.2845
G01 X79.3055 Y25.2105
G01 X79.2581 Y25.1314
G01 X79.2187 Y25.0481
G01 X79.1876 Y24.9614
G01 X79.1652 Y24.8720
G01 X79.1517 Y24.7808
G01 X79.1473 Y24.6913
G00 Z2.0000
G00 X81.6873 Y24.6913
G01 F150.00
G01 Z0.0000
G01 F200.00
G01 X81.6917 Y24.5968
G01 X81.7052 Y24.5056
G01 X81.7276 Y24.4162
G01 X81.7587 Y24.3295
G01 X81.7981 Y24.2462
G01 X81.8455 Y24.1671
G01 X81.9003 Y24.0931
G01 X81.9622 Y24.0248
G01 X82.0305 Y23.9629
G01 X82.1045 Y23.9081
G01 X82.1836 Y23.8607
G01 X82.2669 Y23.8213
G01 X82.3536 Y23.7902
G01 X82.4430 Y23.7678
G01 X82.5342 Y23.7543
G01 X82.6262 Y23.7498
G01 X82.7182 Y23.7543
G01 X82.8094 Y23.7678
G01 X82.8988 Y23.7902
G01 X82.9855 Y23.8213
G01 X83.0688 Y23.8607
G01 X83.1479 Y23.9081
G01 X83.2219 Y23.9629
G01 X83.2902 Y24.0248
G01 X83.3521 Y24.0931
G01 X83.4069 Y24.1671
G01 X83.4543 Y24.2462
G01 X83.4937 Y24.3295
G01 X83.5248 Y24.4162
G01 X83.5472 Y24.5056
G01 X83.5607 Y24.5968
G01 X83.5652 Y24.6888
G01 X83.5607 Y24.7808
G01 X83.5472 Y24.8720
G01 X83.5248 Y24.9614
G01 X83.4937 Y25.0481
G01 X83.4543 Y25.1314
G01 X83.4069 Y25.2105
G01 X83.3521 Y25.2845
G01 X83.2902 Y25.3528
G01 X83.2219 Y25.4147
G01 X83.1479 Y25.4695
G01 X83.0688 Y25.5169
G01 X82.9855 Y25.5563
G01 X82.8988 Y25.5874
G01 X82.8094 Y25.6098
G01 X82.7182 Y25.6233
G01 X82.6262 Y25.6278
G01 X82.5342 Y25.6233
G01 X82.4430 Y25.6098
G01 X82.3536 Y25.5874
G01 X82.2669 Y25.5563
G01 X82.1836 Y25.5169
G01 X82.1045 Y25.4695
G01 X82.0305 Y25.4147
G01 X81.9622 Y25.3528
G01 X81.9003 Y25.2845
G01 X81.8455 Y25.2105
G01 X81.7981 Y25.1314
G01 X81.7587 Y25.0481
G01 X81.7276 Y24.9614
G01 X81.7052 Y24.8720
G01 X81.6917 Y24.7808
G01 X81.6873 Y24.6913
G00 Z2.0000
G00 X81.6873 Y22.1513
G01 F150.00
G01 Z0.0000
G01 F200.00
G01 X81.6917 Y22.0568
G01 X81.7052 Y21.9656
G01 X81.7276 Y21.8762
G01 X81.7587 Y21.7895
G01 X81.7981 Y21.7062
G01 X81.8455 Y21.6271
G01 X81.9003 Y21.5531
G01 X81.9622 Y21.4848
G01 X82.0305 Y21.4229
G01 X82.1045 Y21.3681
G01 X82.1836 Y21.3207
G01 X82.2669 Y21.2813
G01 X82.3536 Y21.2502
G01 X82.4430 Y21.2278
G01 X82.5342 Y21.2143
G01 X82.6262 Y21.2098
G01 X82.7182 Y21.2143
G01 X82.8094 Y21.2278
G01 X82.8988 Y21.2502
G01 X82.9855 Y21.2813
G01 X83.0688 Y21.3207
G01 X83.1479 Y21.3681
G01 X83.2219 Y21.4229
G01 X83.2902 Y21.4848
G01 X83.3521 Y21.5531
G01 X83.4069 Y21.6271
G01 X83.4543 Y21.7062
G01 X83.4937 Y21.7895
G01 X83.5248 Y21.8762
G01 X83.5472 Y21.9656
G01 X83.5607 Y22.0568
G01 X83.5652 Y22.1488
G01 X83.5607 Y22.2408
G01 X83.5472 Y22.3320
G01 X83.5248 Y22.4214
G01 X83.4937 Y22.5081
G01 X83.4543 Y22.5914
G01 X83.4069 Y22.6705
G01 X83.3521 Y22.7445
G01 X83.2902 Y22.8128
G01 X83.2219 Y22.8747
G01 X83.1479 Y22.9295
G01 X83.0688 Y22.9769
G01 X82.9855 Y23.0163
G01 X82.8988 Y23.0474
G01 X82.8094 Y23.0698
G01 X82.7182 Y23.0833
G01 X82.6262 Y23.0878
G01 X82.5342 Y23.0833
G01 X82.4430 Y23.0698
G01 X82.3536 Y23.0474
G01 X82.2669 Y23.0163
G01 X82.1836 Y22.9769
G01 X82.1045 Y22.9295
G01 X82.0305 Y22.8747
G01 X81.9622 Y22.8128
G01 X81.9003 Y22.7445
G01 X81.8455 Y22.6705
G01 X81.7981 Y22.5914
G01 X81.7587 Y22.5081
G01 X81.7276 Y22.4214
G01 X81.7052 Y22.3320
G01 X81.6917 Y22.2408
G01 X81.6873 Y22.1513
G00 Z2.0000
G00 X79.5356 Y21.3894
G01 F150.00
G01 Z0.0000
G01 F200.00
G01 X79.5655 Y21.3674
G01 X79.6425 Y21.3213
G01 X79.7257 Y21.2818
G01 X79.8136 Y21.2502
G01 X79.9018 Y21.2281
G01 X79.9942 Y21.2143
G01 X80.0862 Y21.2098
G01 X80.1782 Y21.2143
G01 X80.2682 Y21.2276
G01 X80.3588 Y21.2502
G01 X80.4455 Y21.2813
G01 X80.5288 Y21.3207
G01 X80.6079 Y21.3681
G01 X80.6819 Y21.4229
G01 X80.7502 Y21.4848
G01 X80.8121 Y21.5531
G01 X80.8663 Y21.6261
G01 X80.9143 Y21.7062
G01 X80.9537 Y21.7895
G01 X80.9848 Y21.8762
G01 X81.0072 Y21.9656
G01 X81.0207 Y22.0568
G01 X81.0252 Y22.1488
G01 X81.0207 Y22.2408
G01 X81.0072 Y22.3320
G01 X80.9848 Y22.4214
G01 X80.9537 Y22.5081
G01 X80.9143 Y22.5914
G01 X80.8669 Y22.6705
G01 X80.8121 Y22.7445
G01 X80.7502 Y22.8128
G01 X80.6819 Y22.8747
G01 X80.6089 Y22.9289
G01 X80.5266 Y22.9780
G01 X80.4455 Y23.0163
G01 X80.3611 Y23.0466
G01 X80.2694 Y23.0698
G01 X80.1758 Y23.0835
G01 X80.0862 Y23.0878
G01 X79.9966 Y23.0835
G01 X79.9030 Y23.0698
G01 X79.8113 Y23.0466
G01 X79.7269 Y23.0163
G01 X79.6446 Y22.9775
G01 X79.5645 Y22.9295
G01 X79.4886 Y22.8731
G01 X79.4222 Y22.8128
G01 X79.3619 Y22.7464
G01 X79.3048 Y22.6695
G01 X79.2570 Y22.5892
G01 X79.2187 Y22.5081
G01 X79.1880 Y22.4225
G01 X79.1650 Y22.3308
G01 X79.1519 Y22.2421
G01 X79.1505 Y22.2177
G01 X74.7990 Y20.0908
G01 X52.0643 Y20.0908
G01 X40.3112 Y22.4364
G01 X40.3036 Y22.4664
G01 X40.2712 Y22.5567
G01 X40.2281 Y22.6478
G01 X40.1781 Y22.7312
G01 X40.1211 Y22.8082
G01 X40.0526 Y22.8839
G01 X39.9806 Y22.9491
G01 X39.9036 Y23.0063
G01 X39.8172 Y23.0583
G01 X39.7282 Y23.1004
G01 X39.6379 Y23.1328
G01 X39.5378 Y23.1579
G01 X39.4404 Y23.1721
G01 X39.3446 Y23.1767
G01 X39.2488 Y23.1721
G01 X39.1490 Y23.1574
G01 X39.0560 Y23.1342
G01 X38.9610 Y23.1004
G01 X38.8720 Y23.0583
G01 X38.7876 Y23.0077
G01 X38.7086 Y22.9491
G01 X38.6357 Y22.8831
G01 X38.5697 Y22.8102
G01 X38.5111 Y22.7312
G01 X38.4594 Y22.6446
G01 X38.4175 Y22.5555
G01 X38.3853 Y22.4652
G01 X38.3619 Y22.3722
G01 X38.3469 Y22.2725
G01 X38.3421 Y22.1754
G01 X38.3469 Y22.0759
G01 X38.3609 Y21.9810
G01 X38.3860 Y21.8809
G01 X38.4184 Y21.7906
G01 X38.4605 Y21.7016
G01 X38.5111 Y21.6172
G01 X38.5697 Y21.5382
G01 X38.6357 Y21.4653
G01 X38.7068 Y21.4009
G01 X38.7897 Y21.3393
G01 X38.8720 Y21.2901
G01 X38.9610 Y21.2480
G01 X39.0536 Y21.2149
G01 X39.1478 Y21.1912
G01 X39.2488 Y21.1763
G01 X39.3446 Y21.1717
G01 X39.4429 Y21.1765
G01 X39.5426 Y21.1915
G01 X39.6356 Y21.2149
G01 X39.7259 Y21.2471
G01 X39.8193 Y21.2913
G01 X39.9016 Y21.3407
G01 X39.9786 Y21.3977
G01 X40.0535 Y21.4653
G01 X40.1179 Y21.5364
G01 X40.1230 Y21.5428
G01 X51.9301 Y19.1864
G01 X51.9742 Y19.1798
G01 X52.0177 Y19.1776
G01 X74.9046 Y19.1776
G01 X74.9316 Y19.1784
G01 X74.9481 Y19.1797
G01 X74.9762 Y19.1833
G01 X74.9925 Y19.1861
G01 X75.0224 Y19.1931
G01 X75.0383 Y19.1976
G01 X75.0639 Y19.2063
G01 X75.0805 Y19.2128
G01 X75.1051 Y19.2240
G01 X79.5356 Y21.3894
G00 Z2.0000
G00 X81.5857 Y17.0967
G01 F150.00
G01 Z0.0000
G01 F200.00
G01 X81.5901 Y17.0022
G01 X81.6036 Y16.9110
G01 X81.6260 Y16.8216
G01 X81.6571 Y16.7349
G01 X81.6965 Y16.6516
G01 X81.7439 Y16.5725
G01 X81.7987 Y16.4985
G01 X81.8606 Y16.4302
G01 X81.9289 Y16.3683
G01 X82.0029 Y16.3135
G01 X82.0820 Y16.2661
G01 X82.1653 Y16.2267
G01 X82.2520 Y16.1956
G01 X82.3414 Y16.1732
G01 X82.4326 Y16.1597
G01 X82.5246 Y16.1552
G01 X82.6166 Y16.1597
G01 X82.7078 Y16.1732
G01 X82.7972 Y16.1956
G01 X82.8839 Y16.2267
G01 X82.9672 Y16.2661
G01 X83.0463 Y16.3135
G01 X83.1203 Y16.3683
G01 X83.1886 Y16.4302
G01 X83.2505 Y16.4985
G01 X83.3053 Y16.5725
G01 X83.3527 Y16.6516
G01 X83.3921 Y16.7349
G01 X83.4232 Y16.8216
G01 X83.4456 Y16.9110
G01 X83.4591 Y17.0022
G01 X83.4636 Y17.0942
G01 X83.4591 Y17.1862
G01 X83.4456 Y17.2774
G01 X83.4232 Y17.3668
G01 X83.3921 Y17.4535
G01 X83.3527 Y17.5368
G01 X83.3053 Y17.6159
G01 X83.2505 Y17.6899
G01 X83.1886 Y17.7582
G01 X83.1203 Y17.8201
G01 X83.0463 Y17.8749
G01 X82.9672 Y17.9223
G01 X82.8839 Y17.9617
G01 X82.7972 Y17.9928
G01 X82.7078 Y18.0152
G01 X82.6166 Y18.0287
G01 X82.5246 Y18.0332
G01 X82.4326 Y18.0287
G01 X82.3414 Y18.0152
G01 X82.2520 Y17.9928
G01 X82.1653 Y17.9617
G01 X82.0820 Y17.9223
G01 X82.0029 Y17.8749
G01 X81.9289 Y17.8201
G01 X81.8606 Y17.7582
G01 X81.7987 Y17.6899
G01 X81.7439 Y17.6159
G01 X81.6965 Y17.5368
G01 X81.6571 Y17.4535
G01 X81.6260 Y17.3668
G01 X81.6036 Y17.2774
G01 X81.5901 Y17.1862
G01 X81.5857 Y17.0967
G00 Z2.0000
G00 X86.6657 Y17.0967
G01 F150.00
G01 Z0.0000
G01 F200.00
G01 X86.6701 Y17.0022
G01 X86.6836 Y16.9110
G01 X86.7060 Y16.8216
G01 X86.7371 Y16.7349
G01 X86.7765 Y16.6516
G01 X86.8239 Y16.5725
G01 X86.8787 Y16.4985
G01 X86.9406 Y16.4302
G01 X87.0089 Y16.3683
G01 X87.0829 Y16.3135
G01 X87.1620 Y16.2661
G01 X87.2453 Y16.2267
G01 X87.3320 Y16.1956
G01 X87.4214 Y16.1732
G01 X87.5126 Y16.1597
G01 X87.6046 Y16.1552
G01 X87.6966 Y16.1597
G01 X87.7878 Y16.1732
G01 X87.8772 Y16.1956
G01 X87.9639 Y16.2267
G01 X88.0472 Y16.2661
G01 X88.1263 Y16.3135
G01 X88.2003 Y16.3683
G01 X88.2686 Y16.4302
G01 X88.3305 Y16.4985
G01 X88.3853 Y16.5725
G01 X88.4327 Y16.6516
G01 X88.4721 Y16.7349
G01 X88.5032 Y16.8216
G01 X88.5256 Y16.9110
G01 X88.5391 Y17.0022
G01 X88.5436 Y17.0942
G01 X88.5391 Y17.1862
G01 X88.5256 Y17.2774
G01 X88.5032 Y17.3668
G01 X88.4721 Y17.4535
G01 X88.4327 Y17.5368
G01 X88.3853 Y17.6159
G01 X88.3305 Y17.6899
G01 X88.2686 Y17.7582
G01 X88.2003 Y17.8201
G01 X88.1263 Y17.8749
G01 X88.0472 Y17.9223
G01 X87.9639 Y17.9617
G01 X87.8772 Y17.9928
G01 X87.7878 Y18.0152
G01 X87.6966 Y18.0287
G01 X87.6046 Y18.0332
G01 X87.5126 Y18.0287
G01 X87.4214 Y18.0152
G01 X87.3320 Y17.9928
G01 X87.2453 Y17.9617
G01 X87.1620 Y17.9223
G01 X87.0829 Y17.8749
G01 X87.0089 Y17.8201
G01 X86.9406 Y17.7582
G01 X86.8787 Y17.6899
G01 X86.8239 Y17.6159
G01 X86.7765 Y17.5368
G01 X86.7371 Y17.4535
G01 X86.7060 Y17.3668
G01 X86.6836 Y17.2774
G01 X86.6701 Y17.1862
G01 X86.6657 Y17.0967
G00 Z2.0000
G00 X89.6880 Y16.2744
G01 F150.00
G01 Z0.0000
G01 F200.00
G01 X89.6880 Y12.9480
G01 X89.6530 Y12.9313
G01 X89.5675 Y12.8801
G01 X89.4835 Y12.8178
G01 X89.4088 Y12.7500
G01 X89.3418 Y12.6762
G01 X89.2787 Y12.5913
G01 X89.2269 Y12.5047
G01 X89.1842 Y12.4147
G01 X89.1488 Y12.3163
G01 X89.1240 Y12.2172
G01 X89.1093 Y12.1186
G01 X89.1040 Y12.0142
G01 X89.1090 Y11.9122
G01 X89.1236 Y11.8136
G01 X89.1488 Y11.7121
G01 X89.1842 Y11.6137
G01 X89.2269 Y11.5237
G01 X89.2781 Y11.4381
G01 X89.3418 Y11.3522
G01 X89.4088 Y11.2784
G01 X89.4826 Y11.2114
G01 X89.5665 Y11.1490
G01 X89.6519 Y11.0977
G01 X89.6626 Y11.0924
G01 X89.6626 Y9.9308
G01 X70.7163 Y9.9308
G01 X70.7081 Y9.9478
G01 X70.6581 Y10.0312
G01 X70.5979 Y10.1120
G01 X70.5335 Y10.1831
G01 X70.4624 Y10.2475
G01 X70.3795 Y10.3091
G01 X70.2972 Y10.3583
G01 X70.2105 Y10.3994
G01 X70.1156 Y10.4335
G01 X70.0202 Y10.4574
G01 X69.9253 Y10.4716
G01 X69.8234 Y10.4767
G01 X69.7239 Y10.4716
G01 X69.6290 Y10.4574
G01 X69.5360 Y10.4342
G01 X69.4410 Y10.4004
G01 X69.3520 Y10.3583
G01 X69.2676 Y10.3077
G01 X69.1868 Y10.2475
G01 X69.1157 Y10.1831
G01 X69.0513 Y10.1120
G01 X68.9925 Y10.0332
G01 X68.9405 Y9.9468
G01 X68.8984 Y9.8578
G01 X68.8653 Y9.7652
G01 X68.8409 Y9.6674
G01 X68.8269 Y9.5725
G01 X68.8222 Y9.4767
G01 X68.8267 Y9.3784
G01 X68.8414 Y9.2786
G01 X68.8656 Y9.1820
G01 X68.8984 Y9.0906
G01 X68.9394 Y9.0038
G01 X68.9925 Y8.9152
G01 X69.0497 Y8.8382
G01 X69.1157 Y8.7653
G01 X69.1886 Y8.6993
G01 X69.2656 Y8.6421
G01 X69.3542 Y8.5890
G01 X69.4410 Y8.5480
G01 X69.5336 Y8.5149
G01 X69.6290 Y8.4910
G01 X69.7239 Y8.4768
G01 X69.8246 Y8.4717
G01 X69.9229 Y8.4765
G01 X70.0178 Y8.4905
G01 X70.1156 Y8.5149
G01 X70.2105 Y8.5490
G01 X70.2972 Y8.5901
G01 X70.3795 Y8.6393
G01 X70.4624 Y8.7009
G01 X70.5335 Y8.7653
G01 X70.5979 Y8.8364
G01 X70.6581 Y8.9172
G01 X70.7081 Y9.0006
G01 X70.7163 Y9.0176
G01 X90.1192 Y9.0176
G01 X90.1640 Y9.0198
G01 X90.2059 Y9.0260
G01 X90.2529 Y9.0376
G01 X90.2939 Y9.0524
G01 X90.3322 Y9.0704
G01 X90.3729 Y9.0946
G01 X90.4107 Y9.1228
G01 X90.4421 Y9.1513
G01 X90.4706 Y9.1827
G01 X90.5002 Y9.2226
G01 X90.5219 Y9.2590
G01 X90.5400 Y9.2972
G01 X90.5561 Y9.3417
G01 X90.5674 Y9.3875
G01 X90.5736 Y9.4294
G01 X90.5758 Y9.4742
G01 X90.5758 Y11.0683
G01 X90.6351 Y11.0965
G01 X90.7217 Y11.1483
G01 X90.8057 Y11.2106
G01 X90.8804 Y11.2784
G01 X90.9474 Y11.3522
G01 X91.0105 Y11.4371
G01 X91.0623 Y11.5237
G01 X91.1050 Y11.6137
G01 X91.1404 Y11.7121
G01 X91.1656 Y11.8136
G01 X91.1802 Y11.9122
G01 X91.1851 Y12.0117
G01 X91.1799 Y12.1186
G01 X91.1652 Y12.2172
G01 X91.1404 Y12.3163
G01 X91.1050 Y12.4147
G01 X91.0623 Y12.5047
G01 X91.0105 Y12.5913
G01 X90.9474 Y12.6762
G01 X90.8804 Y12.7500
G01 X90.8057 Y12.8178
G01 X90.7217 Y12.8801
G01 X90.6362 Y12.9313
G01 X90.6012 Y12.9480
G01 X90.6012 Y16.2744
G01 X90.6663 Y16.3135
G01 X90.7384 Y16.3668
G01 X90.8086 Y16.4302
G01 X90.8720 Y16.5004
G01 X90.9253 Y16.5725
G01 X90.9715 Y16.6494
G01 X91.0121 Y16.7349
G01 X91.0438 Y16.8240
G01 X91.0656 Y16.9110
G01 X91.0788 Y16.9997
G01 X91.0836 Y17.0942
G01 X91.0788 Y17.1887
G01 X91.0656 Y17.2774
G01 X91.0432 Y17.3668
G01 X91.0111 Y17.4558
G01 X90.9727 Y17.5368
G01 X90.9267 Y17.6138
G01 X90.8705 Y17.6899
G01 X90.8068 Y17.7599
G01 X90.7403 Y17.8201
G01 X90.6683 Y17.8735
G01 X90.5872 Y17.9223
G01 X90.5039 Y17.9617
G01 X90.4172 Y17.9928
G01 X90.3278 Y18.0152
G01 X90.2366 Y18.0287
G01 X90.1446 Y18.0332
G01 X90.0526 Y18.0287
G01 X89.9614 Y18.0152
G01 X89.8720 Y17.9928
G01 X89.7853 Y17.9617
G01 X89.7020 Y17.9223
G01 X89.6229 Y17.8749
G01 X89.5489 Y17.8201
G01 X89.4806 Y17.7582
G01 X89.4187 Y17.6899
G01 X89.3639 Y17.6159
G01 X89.3165 Y17.5368
G01 X89.2771 Y17.4535
G01 X89.2460 Y17.3668
G01 X89.2236 Y17.2774
G01 X89.2101 Y17.1862
G01 X89.2056 Y17.0942
G01 X89.2101 Y17.0022
G01 X89.2236 Y16.9110
G01 X89.2460 Y16.8216
G01 X89.2771 Y16.7349
G01 X89.3165 Y16.6516
G01 X89.3639 Y16.5725
G01 X89.4187 Y16.4985
G01 X89.4806 Y16.4302
G01 X89.5489 Y16.3683
G01 X89.6229 Y16.3135
G01 X89.6880 Y16.2744
G00 Z2.0000
G00 X91.7457 Y17.0967
G01 F150.00
G01 Z0.0000
G01 F200.00
G01 X91.7501 Y17.0022
G01 X91.7636 Y16.9110
G01 X91.7860 Y16.8216
G01 X91.8171 Y16.7349
G01 X91.8565 Y16.6516
G01 X91.9039 Y16.5725
G01 X91.9587 Y16.4985
G01 X92.0206 Y16.4302
G01 X92.0889 Y16.3683
G01 X92.1629 Y16.3135
G01 X92.2420 Y16.2661
G01 X92.3253 Y16.2267
G01 X92.4120 Y16.1956
G01 X92.5014 Y16.1732
G01 X92.5926 Y16.1597
G01 X92.6846 Y16.1552
G01 X92.7766 Y16.1597
G01 X92.8678 Y16.1732
G01 X92.9572 Y16.1956
G01 X93.0439 Y16.2267
G01 X93.1272 Y16.2661
G01 X93.2063 Y16.3135
G01 X93.2803 Y16.3683
G01 X93.3486 Y16.4302
G01 X93.4105 Y16.4985
G01 X93.4653 Y16.5725
G01 X93.5127 Y16.6516
G01 X93.5521 Y16.7349
G01 X93.5832 Y16.8216
G01 X93.6056 Y16.9110
G01 X93.6191 Y17.0022
G01 X93.6236 Y17.0942
G01 X93.6191 Y17.1862
G01 X93.6056 Y17.2774
G01 X93.5832 Y17.3668
G01 X93.5521 Y17.4535
G01 X93.5127 Y17.5368
G01 X93.4653 Y17.6159
G01 X93.4105 Y17.6899
G01 X93.3486 Y17.7582
G01 X93.2803 Y17.8201
G01 X93.2063 Y17.8749
G01 X93.1272 Y17.9223
G01 X93.0439 Y17.9617
G01 X92.9572 Y17.9928
G01 X92.8678 Y18.0152
G01 X92.7766 Y18.0287
G01 X92.6846 Y18.0332
G01 X92.5926 Y18.0287
G01 X92.5014 Y18.0152
G01 X92.4120 Y17.9928
G01 X92.3253 Y17.9617
G01 X92.2420 Y17.9223
G01 X92.1629 Y17.8749
G01 X92.0889 Y17.8201
G01 X92.0206 Y17.7582
G01 X91.9587 Y17.6899
G01 X91.9039 Y17.6159
G01 X91.8565 Y17.5368
G01 X91.8171 Y17.4535
G01 X91.7860 Y17.3668
G01 X91.7636 Y17.2774
G01 X91.7501 Y17.1862
G01 X91.7457 Y17.0967
G00 Z2.0000
G00 X94.2857 Y17.0967
G01 F150.00
G01 Z0.0000
G01 F200.00
G01 X94.2901 Y17.0022
G01 X94.3036 Y16.9110
G01 X94.3260 Y16.8216
G01 X94.3571 Y16.7349
G01 X94.3965 Y16.6516
G01 X94.4439 Y16.5725
G01 X94.4987 Y16.4985
G01 X94.5606 Y16.4302
G01 X94.6289 Y16.3683
G01 X94.7029 Y16.3135
G01 X94.7820 Y16.2661
G01 X94.8653 Y16.2267
G01 X94.9520 Y16.1956
G01 X95.0414 Y16.1732
G01 X95.1326 Y16.1597
G01 X95.2246 Y16.1552
G01 X95.3166 Y16.1597
G01 X95.4078 Y16.1732
G01 X95.4972 Y16.1956
G01 X95.5839 Y16.2267
G01 X95.6672 Y16.2661
G01 X95.7463 Y16.3135
G01 X95.8203 Y16.3683
G01 X95.8886 Y16.4302
G01 X95.9505 Y16.4985
G01 X96.0053 Y16.5725
G01 X96.0527 Y16.6516
G01 X96.0921 Y16.7349
G01 X96.1232 Y16.8216
G01 X96.1456 Y16.9110
G01 X96.1591 Y17.0022
G01 X96.1636 Y17.0942
G01 X96.1591 Y17.1862
G01 X96.1456 Y17.2774
G01 X96.1232 Y17.3668
G01 X96.0921 Y17.4535
G01 X96.0527 Y17.5368
G01 X96.0053 Y17.6159
G01 X95.9505 Y17.6899
G01 X95.8886 Y17.7582
G01 X95.8203 Y17.8201
G01 X95.7463 Y17.8749
G01 X95.6672 Y17.9223
G01 X95.5839 Y17.9617
G01 X95.4972 Y17.9928
G01 X95.4078 Y18.0152
G01 X95.3166 Y18.0287
G01 X95.2246 Y18.0332
G01 X95.1326 Y18.0287
G01 X95.0414 Y18.0152
G01 X94.9520 Y17.9928
G01 X94.8653 Y17.9617
G01 X94.7820 Y17.9223
G01 X94.7029 Y17.8749
G01 X94.6289 Y17.8201
G01 X94.5606 Y17.7582
G01 X94.4987 Y17.6899
G01 X94.4439 Y17.6159
G01 X94.3965 Y17.5368
G01 X94.3571 Y17.4535
G01 X94.3260 Y17.3668
G01 X94.3036 Y17.2774
G01 X94.2901 Y17.1862
G01 X94.2857 Y17.0967
G00 Z2.0000
G00 X97.3080 Y16.2744
G01 F150.00
G01 Z0.0000
G01 F200.00
G01 X97.3080 Y12.9059
G01 X97.2910 Y12.8977
G01 X97.2056 Y12.8463
G01 X97.1286 Y12.7891
G01 X97.0557 Y12.7231
G01 X96.9897 Y12.6502
G01 X96.9325 Y12.5732
G01 X96.8805 Y12.4868
G01 X96.8384 Y12.3978
G01 X96.8060 Y12.3075
G01 X96.7814 Y12.2098
G01 X96.7669 Y12.1125
G01 X96.7622 Y12.0167
G01 X96.7669 Y11.9159
G01 X96.7814 Y11.8186
G01 X96.8053 Y11.7232
G01 X96.8384 Y11.6306
G01 X96.8805 Y11.5416
G01 X96.9311 Y11.4572
G01 X96.9897 Y11.3782
G01 X97.0557 Y11.3053
G01 X97.1286 Y11.2393
G01 X97.2076 Y11.1807
G01 X97.2920 Y11.1301
G01 X97.3810 Y11.0880
G01 X97.4736 Y11.0549
G01 X97.5690 Y11.0310
G01 X97.6663 Y11.0165
G01 X97.7646 Y11.0117
G01 X97.8629 Y11.0165
G01 X97.9602 Y11.0310
G01 X98.0556 Y11.0549
G01 X98.1482 Y11.0880
G01 X98.2350 Y11.1290
G01 X98.3236 Y11.1821
G01 X98.4006 Y11.2393
G01 X98.4735 Y11.3053
G01 X98.5395 Y11.3782
G01 X98.5981 Y11.4572
G01 X98.6487 Y11.5416
G01 X98.6898 Y11.6283
G01 X98.7239 Y11.7232
G01 X98.7473 Y11.8162
G01 X98.7625 Y11.9184
G01 X98.7671 Y12.0142
G01 X98.7625 Y12.1100
G01 X98.7478 Y12.2098
G01 X98.7232 Y12.3075
G01 X98.6908 Y12.3978
G01 X98.6487 Y12.4868
G01 X98.5967 Y12.5732
G01 X98.5395 Y12.6502
G01 X98.4735 Y12.7231
G01 X98.4006 Y12.7891
G01 X98.3236 Y12.8463
G01 X98.2382 Y12.8977
G01 X98.2212 Y12.9059
G01 X98.2212 Y16.2744
G01 X98.2863 Y16.3135
G01 X98.3584 Y16.3668
G01 X98.4286 Y16.4302
G01 X98.4920 Y16.5004
G01 X98.5453 Y16.5725
G01 X98.5915 Y16.6494
G01 X98.6321 Y16.7349
G01 X98.6638 Y16.8240
G01 X98.6856 Y16.9110
G01 X98.6988 Y16.9997
G01 X98.7036 Y17.0942
G01 X98.6988 Y17.1887
G01 X98.6856 Y17.2774
G01 X98.6638 Y17.3644
G01 X98.6321 Y17.4535
G01 X98.5915 Y17.5390
G01 X98.5453 Y17.6159
G01 X98.4920 Y17.6880
G01 X98.4286 Y17.7582
G01 X98.3584 Y17.8216
G01 X98.2863 Y17.8749
G01 X98.2072 Y17.9223
G01 X98.1239 Y17.9617
G01 X98.0372 Y17.9928
G01 X97.9478 Y18.0152
G01 X97.8566 Y18.0287
G01 X97.7646 Y18.0332
G01 X97.6726 Y18.0287
G01 X97.5814 Y18.0152
G01 X97.4920 Y17.9928
G01 X97.4053 Y17.9617
G01 X97.3220 Y17.9223
G01 X97.2429 Y17.8749
G01 X97.1689 Y17.8201
G01 X97.1006 Y17.7582
G01 X97.0387 Y17.6899
G01 X96.9839 Y17.6159
G01 X96.9365 Y17.5368
G01 X96.8971 Y17.4535
G01 X96.8660 Y17.3668
G01 X96.8436 Y17.2774
G01 X96.8301 Y17.1862
G01 X96.8256 Y17.0942
G01 X96.8301 Y17.0022
G01 X96.8436 Y16.9110
G01 X96.8660 Y16.8216
G01 X96.8971 Y16.7349
G01 X96.9365 Y16.6516
G01 X96.9839 Y16.5725
G01 X97.0387 Y16.4985
G01 X97.1006 Y16.4302
G01 X97.1689 Y16.3683
G01 X97.2429 Y16.3135
G01 X97.3080 Y16.2744
G00 Z2.0000
G00 X99.8480 Y16.2744
G01 F150.00
G01 Z0.0000
G01 F200.00
G01 X99.8480 Y10.3659
G01 X99.8310 Y10.3577
G01 X99.7456 Y10.3063
G01 X99.6686 Y10.2491
G01 X99.5957 Y10.1831
G01 X99.5297 Y10.1102
G01 X99.4725 Y10.0332
G01 X99.4205 Y9.9468
G01 X99.3775 Y9.8555
G01 X99.3453 Y9.7652
G01 X99.3214 Y9.6698
G01 X99.3067 Y9.5700
G01 X99.3021 Y9.4742
G01 X99.3068 Y9.3772
G01 X99.3214 Y9.2786
G01 X99.3453 Y9.1832
G01 X99.3784 Y9.0906
G01 X99.4205 Y9.0016
G01 X99.4711 Y8.9172
G01 X99.5297 Y8.8382
G01 X99.5957 Y8.7653
G01 X99.6686 Y8.6993
G01 X99.7476 Y8.6407
G01 X99.8320 Y8.5901
G01 X99.9210 Y8.5480
G01 X100.0136 Y8.5149
G01 X100.1090 Y8.4910
G01 X100.2063 Y8.4765
G01 X100.3046 Y8.4717
G01 X100.4016 Y8.4764
G01 X100.5002 Y8.4910
G01 X100.5956 Y8.5149
G01 X100.6882 Y8.5480
G01 X100.7750 Y8.5890
G01 X100.8616 Y8.6407
G01 X100.9386 Y8.6977
G01 X101.0152 Y8.7671
G01 X101.0795 Y8.8382
G01 X101.1381 Y8.9172
G01 X101.1887 Y9.0016
G01 X101.2308 Y9.0906
G01 X101.2639 Y9.1832
G01 X101.2878 Y9.2786
G01 X101.3023 Y9.3759
G01 X101.3071 Y9.4730
G01 X101.3020 Y9.5749
G01 X101.2878 Y9.6698
G01 X101.2639 Y9.7652
G01 X101.2298 Y9.8601
G01 X101.1887 Y9.9468
G01 X101.1395 Y10.0291
G01 X101.0779 Y10.1120
G01 X101.0135 Y10.1831
G01 X100.9424 Y10.2475
G01 X100.8616 Y10.3077
G01 X100.7782 Y10.3577
G01 X100.7612 Y10.3659
G01 X100.7612 Y16.2744
G01 X100.8263 Y16.3135
G01 X100.8984 Y16.3668
G01 X100.9686 Y16.4302
G01 X101.0320 Y16.5004
G01 X101.0853 Y16.5725
G01 X101.1315 Y16.6494
G01 X101.1721 Y16.7349
G01 X101.2038 Y16.8240
G01 X101.2256 Y16.9110
G01 X101.2388 Y16.9997
G01 X101.2436 Y17.0942
G01 X101.2388 Y17.1887
G01 X101.2256 Y17.2774
G01 X101.2038 Y17.3644
G01 X101.1721 Y17.4535
G01 X101.1315 Y17.5390
G01 X101.0853 Y17.6159
G01 X101.0320 Y17.6880
G01 X100.9686 Y17.7582
G01 X100.8984 Y17.8216
G01 X100.8263 Y17.8749
G01 X100.7472 Y17.9223
G01 X100.6639 Y17.9617
G01 X100.5772 Y17.9928
G01 X100.4878 Y18.0152
G01 X100.3966 Y18.0287
G01 X100.3046 Y18.0332
G01 X100.2126 Y18.0287
G01 X100.1214 Y18.0152
G01 X100.0320 Y17.9928
G01 X99.9453 Y17.9617
G01 X99.8620 Y17.9223
G01 X99.7829 Y17.8749
G01 X99.7089 Y17.8201
G01 X99.6406 Y17.7582
G01 X99.5787 Y17.6899
G01 X99.5239 Y17.6159
G01 X99.4765 Y17.5368
G01 X99.4371 Y17.4535
G01 X99.4060 Y17.3668
G01 X99.3836 Y17.2774
G01 X99.3701 Y17.1862
G01 X99.3656 Y17.0942
G01 X99.3701 Y17.0022
G01 X99.3836 Y16.9110
G01 X99.4060 Y16.8216
G01 X99.4371 Y16.7349
G01 X99.4765 Y16.6516
G01 X99.5239 Y16.5725
G01 X99.5787 Y16.4985
G01 X99.6406 Y16.4302
G01 X99.7089 Y16.3683
G01 X99.7829 Y16.3135
G01 X99.8480 Y16.2744
G00 Z2.0000
G00 X102.3880 Y17.9140
G01 F150.00
G01 Z0.0000
G01 F200.00
G01 X102.3229 Y17.8749
G01 X102.2489 Y17.8201
G01 X102.1806 Y17.7582
G01 X102.1187 Y17.6899
G01 X102.0639 Y17.6159
G01 X102.0165 Y17.5368
G01 X101.9771 Y17.4535
G01 X101.9460 Y17.3668
G01 X101.9236 Y17.2774
G01 X101.9101 Y17.1862
G01 X101.9056 Y17.0942
G01 X101.9101 Y17.0022
G01 X101.9236 Y16.9110
G01 X101.9460 Y16.8216
G01 X101.9771 Y16.7349
G01 X102.0165 Y16.6516
G01 X102.0639 Y16.5725
G01 X102.1187 Y16.4985
G01 X102.1806 Y16.4302
G01 X102.2489 Y16.3683
G01 X102.3229 Y16.3135
G01 X102.4020 Y16.2661
G01 X102.4853 Y16.2267
G01 X102.5720 Y16.1956
G01 X102.6614 Y16.1732
G01 X102.7526 Y16.1597
G01 X102.8446 Y16.1552
G01 X102.9366 Y16.1597
G01 X103.0278 Y16.1732
G01 X103.1172 Y16.1956
G01 X103.2039 Y16.2267
G01 X103.2872 Y16.2661
G01 X103.3683 Y16.3149
G01 X103.4403 Y16.3683
G01 X103.5086 Y16.4302
G01 X103.5720 Y16.5004
G01 X103.6253 Y16.5725
G01 X103.6715 Y16.6494
G01 X103.7121 Y16.7349
G01 X103.7438 Y16.8240
G01 X103.7656 Y16.9110
G01 X103.7788 Y16.9997
G01 X103.7836 Y17.0942
G01 X103.7788 Y17.1887
G01 X103.7656 Y17.2774
G01 X103.7438 Y17.3644
G01 X103.7121 Y17.4535
G01 X103.6715 Y17.5390
G01 X103.6253 Y17.6159
G01 X103.5720 Y17.6880
G01 X103.5086 Y17.7582
G01 X103.4384 Y17.8216
G01 X103.3663 Y17.8749
G01 X103.3012 Y17.9140
G01 X103.3012 Y21.7176
G01 X125.6792 Y21.7176
G01 X125.7240 Y21.7198
G01 X125.7707 Y21.7269
G01 X125.8117 Y21.7373
G01 X125.8516 Y21.7515
G01 X125.8944 Y21.7715
G01 X125.9329 Y21.7946
G01 X125.9707 Y21.8228
G01 X126.0021 Y21.8513
G01 X126.0306 Y21.8827
G01 X126.0582 Y21.9195
G01 X126.0830 Y21.9612
G01 X126.1010 Y21.9995
G01 X126.1161 Y22.0417
G01 X126.1270 Y22.0851
G01 X126.1333 Y22.1270
G01 X126.1358 Y22.1742
G01 X126.1358 Y50.1423
G01 X126.1338 Y50.1819
G01 X126.1330 Y50.1895
G01 X126.1270 Y50.2287
G01 X126.1168 Y50.2698
G01 X126.1146 Y50.2771
G01 X126.1010 Y50.3143
G01 X126.0819 Y50.3548
G01 X126.0573 Y50.3955
G01 X126.0337 Y50.4273
G01 X126.0288 Y50.4332
G01 X126.0021 Y50.4625
G01 X125.9707 Y50.4910
G01 X125.9648 Y50.4958
G01 X125.9339 Y50.5186
G01 X125.8966 Y50.5411
G01 X125.8899 Y50.5446
G01 X125.8514 Y50.5625
G01 X125.8117 Y50.5765
G01 X125.7707 Y50.5869
G01 X125.7632 Y50.5884
G01 X125.7213 Y50.5943
G01 X125.6792 Y50.5962
G01 X121.5580 Y50.5718
G01 X121.5417 Y50.6058
G01 X121.4891 Y50.6933
G01 X121.4290 Y50.7743
G01 X121.3613 Y50.8491
G01 X121.2828 Y50.9201
G01 X121.2027 Y50.9794
G01 X121.1162 Y51.0313
G01 X121.0205 Y51.0765
G01 X120.9267 Y51.1100
G01 X120.8276 Y51.1348
G01 X120.7241 Y51.1500
G01 X120.6246 Y51.1548
G01 X120.5238 Y51.1499
G01 X120.4216 Y51.1348
G01 X120.3225 Y51.1100
G01 X120.2264 Y51.0756
G01 X120.1363 Y51.0330
G01 X120.0465 Y50.9794
G01 X119.9664 Y50.9201
G01 X119.8871 Y50.8482
G01 X119.8202 Y50.7743
G01 X119.7594 Y50.6923
G01 X119.7069 Y50.6047
G01 X119.6632 Y50.5124
G01 X119.6288 Y50.4163
G01 X119.6040 Y50.3172
G01 X119.5890 Y50.2162
G01 X119.5840 Y50.1154
G01 X119.5890 Y50.0122
G01 X119.6040 Y49.9112
G01 X119.6288 Y49.8121
G01 X119.6632 Y49.7160
G01 X119.7069 Y49.6237
G01 X119.7594 Y49.5361
G01 X119.8202 Y49.4541
G01 X119.8871 Y49.3802
G01 X119.9645 Y49.3098
G01 X120.0445 Y49.2504
G01 X120.1363 Y49.1954
G01 X120.2264 Y49.1528
G01 X120.3225 Y49.1184
G01 X120.4216 Y49.0936
G01 X120.5238 Y49.0785
G01 X120.6246 Y49.0736
G01 X120.7241 Y49.0784
G01 X120.8276 Y49.0936
G01 X120.9267 Y49.1184
G01 X121.0205 Y49.1519
G01 X121.1162 Y49.1971
G01 X121.2027 Y49.2490
G01 X121.2828 Y49.3083
G01 X121.3613 Y49.3793
G01 X121.4290 Y49.4541
G01 X121.4891 Y49.5351
G01 X121.5417 Y49.6226
G01 X121.5589 Y49.6586
G01 X125.2226 Y49.6803
G01 X125.2226 Y22.6308
G01 X102.8446 Y22.6308
G01 X102.7998 Y22.6286
G01 X102.7555 Y22.6220
G01 X102.7121 Y22.6111
G01 X102.6722 Y22.5969
G01 X102.6272 Y22.5757
G01 X102.5909 Y22.5538
G01 X102.5549 Y22.5272
G01 X102.5217 Y22.4971
G01 X102.4932 Y22.4657
G01 X102.4636 Y22.4258
G01 X102.4419 Y22.3894
G01 X102.4228 Y22.3489
G01 X102.4077 Y22.3067
G01 X102.3973 Y22.2657
G01 X102.3901 Y22.2177
G01 X102.3880 Y22.1742
G01 X102.3880 Y17.9140
G00 Z2.0000
G00 X104.9278 Y16.2745
G01 F150.00
G01 Z0.0000
G01 F200.00
G01 X104.9038 Y7.3654
G01 X34.6958 Y7.3654
G01 X34.6958 Y26.8090
G01 X52.1122 Y29.3680
G01 X52.1349 Y29.3720
G01 X52.1549 Y29.3765
G01 X52.1760 Y29.3823
G01 X52.1978 Y29.3895
G01 X52.2205 Y29.3982
G01 X52.2393 Y29.4066
G01 X52.2588 Y29.4163
G01 X52.2788 Y29.4276
G01 X52.2993 Y29.4406
G01 X52.3161 Y29.4525
G01 X52.3333 Y29.4659
G01 X52.3508 Y29.4809
G01 X52.3683 Y29.4976
G01 X52.3825 Y29.5125
G01 X52.3968 Y29.5290
G01 X52.4110 Y29.5471
G01 X52.4249 Y29.5670
G01 X52.4359 Y29.5843
G01 X52.4467 Y29.6033
G01 X52.4571 Y29.6238
G01 X52.4669 Y29.6460
G01 X52.4743 Y29.6652
G01 X52.4815 Y29.6871
G01 X52.4874 Y29.7080
G01 X52.4924 Y29.7305
G01 X52.4962 Y29.7520
G01 X52.4990 Y29.7748
G01 X52.5006 Y29.7966
G01 X52.5012 Y29.8196
G01 X52.5012 Y54.7122
G01 X59.6920 Y54.7122
G01 X59.7348 Y54.7144
G01 X59.7767 Y54.7206
G01 X59.7823 Y54.7217
G01 X59.8233 Y54.7321
G01 X59.8648 Y54.7470
G01 X59.9030 Y54.7650
G01 X59.9081 Y54.7677
G01 X59.9443 Y54.7896
G01 X59.9797 Y54.8159
G01 X60.0111 Y54.8442
G01 X60.0151 Y54.8483
G01 X60.0430 Y54.8792
G01 X60.0682 Y54.9131
G01 X60.0714 Y54.9179
G01 X60.0930 Y54.9542
G01 X60.1114 Y54.9930
G01 X60.1270 Y55.0363
G01 X60.1378 Y55.0798
G01 X60.1444 Y55.1241
G01 X60.1466 Y55.1688
G01 X60.1213 Y69.5472
G01 X60.1363 Y69.5544
G01 X60.2192 Y69.6042
G01 X60.2998 Y69.6641
G01 X60.3705 Y69.7283
G01 X60.4347 Y69.7990
G01 X60.4959 Y69.8817
G01 X60.5450 Y69.9636
G01 X60.5859 Y70.0499
G01 X60.6199 Y70.1444
G01 X60.6437 Y70.2394
G01 X60.6578 Y70.3339
G01 X60.6629 Y70.4354
G01 X60.6581 Y70.5320
G01 X60.6437 Y70.6290
G01 X60.6199 Y70.7240
G01 X60.5878 Y70.8139
G01 X60.5438 Y70.9069
G01 X60.4946 Y70.9888
G01 X60.4363 Y71.0675
G01 X60.3705 Y71.1401
G01 X60.2979 Y71.2059
G01 X60.2192 Y71.2642
G01 X60.1373 Y71.3134
G01 X60.0443 Y71.3574
G01 X59.9544 Y71.3895
G01 X59.8569 Y71.4137
G01 X59.7624 Y71.4277
G01 X59.6621 Y71.4324
G01 X59.5668 Y71.4277
G01 X59.4723 Y71.4137
G01 X59.3772 Y71.3901
G01 X59.2826 Y71.3565
G01 X59.1940 Y71.3146
G01 X59.1100 Y71.2642
G01 X59.0313 Y71.2059
G01 X58.9587 Y71.1401
G01 X58.8929 Y71.0675
G01 X58.8346 Y70.9888
G01 X58.7831 Y70.9026
G01 X58.7414 Y70.8139
G01 X58.7093 Y70.7240
G01 X58.6861 Y70.6313
G01 X58.6711 Y70.5320
G01 X58.6664 Y70.4367
G01 X58.6714 Y70.3339
G01 X58.6855 Y70.2394
G01 X58.7093 Y70.1444
G01 X58.7433 Y70.0499
G01 X58.7842 Y69.9636
G01 X58.8333 Y69.8817
G01 X58.8945 Y69.7990
G01 X58.9587 Y69.7283
G01 X59.0294 Y69.6641
G01 X59.1100 Y69.6042
G01 X59.1929 Y69.5544
G01 X59.2081 Y69.5471
G01 X59.2326 Y55.6254
G01 X52.0421 Y55.6253
G01 X51.9998 Y55.6232
G01 X51.9555 Y55.6166
G01 X51.9121 Y55.6057
G01 X51.8722 Y55.5915
G01 X51.8272 Y55.5703
G01 X51.7909 Y55.5484
G01 X51.7549 Y55.5218
G01 X51.7217 Y55.4917
G01 X51.6916 Y55.4585
G01 X51.6650 Y55.4225
G01 X51.6431 Y55.3862
G01 X51.6219 Y55.3412
G01 X51.6077 Y55.3013
G01 X51.5968 Y55.2579
G01 X51.5902 Y55.2136
G01 X51.5880 Y55.1688
G01 X51.5880 Y30.2140
G01 X34.1716 Y27.6550
G01 X34.1501 Y27.6512
G01 X34.1301 Y27.6468
G01 X34.1055 Y27.6400
G01 X34.0860 Y27.6335
G01 X34.0645 Y27.6252
G01 X34.0445 Y27.6164
G01 X34.0250 Y27.6067
G01 X34.0040 Y27.5947
G01 X33.9855 Y27.5830
G01 X33.9677 Y27.5705
G01 X33.9495 Y27.5564
G01 X33.9340 Y27.5430
G01 X33.9163 Y27.5263
G01 X33.9013 Y27.5105
G01 X33.8870 Y27.4940
G01 X33.8721 Y27.4749
G01 X33.8596 Y27.4571
G01 X33.8479 Y27.4387
G01 X33.8365 Y27.4186
G01 X33.8272 Y27.4003
G01 X33.8169 Y27.3770
G01 X33.8095 Y27.3578
G01 X33.8023 Y27.3359
G01 X33.7964 Y27.3150
G01 X33.7916 Y27.2937
G01 X33.7876 Y27.2710
G01 X33.7848 Y27.2482
G01 X33.7833 Y27.2277
G01 X33.7826 Y27.2034
G01 X33.7826 Y6.9076
G01 X33.7848 Y6.8640
G01 X33.7914 Y6.8197
G01 X33.8023 Y6.7763
G01 X33.8165 Y6.7364
G01 X33.8377 Y6.6914
G01 X33.8596 Y6.6551
G01 X33.8862 Y6.6191
G01 X33.9163 Y6.5859
G01 X33.9495 Y6.5558
G01 X33.9855 Y6.5292
G01 X34.0218 Y6.5073
G01 X34.0645 Y6.4870
G01 X34.1043 Y6.4726
G01 X34.1525 Y6.4606
G01 X34.1944 Y6.4544
G01 X34.2392 Y6.4522
G01 X105.3592 Y6.4522
G01 X105.4003 Y6.4541
G01 X105.4064 Y6.4547
G01 X105.4483 Y6.4610
G01 X105.4917 Y6.4719
G01 X105.5328 Y6.4865
G01 X105.5734 Y6.5055
G01 X105.6119 Y6.5285
G01 X105.6479 Y6.5551
G01 X105.6812 Y6.5851
G01 X105.7098 Y6.6163
G01 X105.7137 Y6.6211
G01 X105.7367 Y6.6521
G01 X105.7402 Y6.6572
G01 X105.7619 Y6.6936
G01 X105.7796 Y6.7307
G01 X105.7819 Y6.7364
G01 X105.7961 Y6.7763
G01 X105.8068 Y6.8185
G01 X105.8135 Y6.8628
G01 X105.8157 Y6.9051
G01 X105.8410 Y16.2742
G01 X105.9063 Y16.3135
G01 X105.9784 Y16.3668
G01 X106.0486 Y16.4302
G01 X106.1120 Y16.5004
G01 X106.1653 Y16.5725
G01 X106.2115 Y16.6494
G01 X106.2521 Y16.7349
G01 X106.2838 Y16.8240
G01 X106.3056 Y16.9110
G01 X106.3188 Y16.9997
G01 X106.3236 Y17.0930
G01 X106.3188 Y17.1887
G01 X106.3056 Y17.2774
G01 X106.2838 Y17.3644
G01 X106.2521 Y17.4535
G01 X106.2115 Y17.5390
G01 X106.1653 Y17.6159
G01 X106.1120 Y17.6880
G01 X106.0486 Y17.7582
G01 X105.9803 Y17.8201
G01 X105.9083 Y17.8735
G01 X105.8272 Y17.9223
G01 X105.7439 Y17.9617
G01 X105.6572 Y17.9928
G01 X105.5678 Y18.0152
G01 X105.4766 Y18.0287
G01 X105.3846 Y18.0332
G01 X105.2926 Y18.0287
G01 X105.2014 Y18.0152
G01 X105.1120 Y17.9928
G01 X105.0253 Y17.9617
G01 X104.9420 Y17.9223
G01 X104.8629 Y17.8749
G01 X104.7889 Y17.8201
G01 X104.7206 Y17.7582
G01 X104.6587 Y17.6899
G01 X104.6039 Y17.6159
G01 X104.5565 Y17.5368
G01 X104.5171 Y17.4535
G01 X104.4860 Y17.3668
G01 X104.4636 Y17.2774
G01 X104.4501 Y17.1862
G01 X104.4456 Y17.0942
G01 X104.4501 Y17.0022
G01 X104.4636 Y16.9110
G01 X104.4860 Y16.8216
G01 X104.5171 Y16.7349
G01 X104.5565 Y16.6516
G01 X104.6039 Y16.5725
G01 X104.6587 Y16.4985
G01 X104.7206 Y16.4302
G01 X104.7889 Y16.3683
G01 X104.8629 Y16.3135
G01 X104.9278 Y16.2745
G00 Z2.0000
G00 X106.9857 Y17.0967
G01 F150.00
G01 Z0.0000
G01 F200.00
G01 X106.9901 Y17.0022
G01 X107.0036 Y16.9110
G01 X107.0260 Y16.8216
G01 X107.0571 Y16.7349
G01 X107.0965 Y16.6516
G01 X107.1439 Y16.5725
G01 X107.1987 Y16.4985
G01 X107.2606 Y16.4302
G01 X107.3289 Y16.3683
G01 X107.4029 Y16.3135
G01 X107.4820 Y16.2661
G01 X107.5653 Y16.2267
G01 X107.6520 Y16.1956
G01 X107.7414 Y16.1732
G01 X107.8326 Y16.1597
G01 X107.9246 Y16.1552
G01 X108.0166 Y16.1597
G01 X108.1078 Y16.1732
G01 X108.1972 Y16.1956
G01 X108.2839 Y16.2267
G01 X108.3672 Y16.2661
G01 X108.4463 Y16.3135
G01 X108.5203 Y16.3683
G01 X108.5886 Y16.4302
G01 X108.6505 Y16.4985
G01 X108.7053 Y16.5725
G01 X108.7527 Y16.6516
G01 X108.7921 Y16.7349
G01 X108.8232 Y16.8216
G01 X108.8456 Y16.9110
G01 X108.8591 Y17.0022
G01 X108.8636 Y17.0942
G01 X108.8591 Y17.1862
G01 X108.8456 Y17.2774
G01 X108.8232 Y17.3668
G01 X108.7921 Y17.4535
G01 X108.7527 Y17.5368
G01 X108.7053 Y17.6159
G01 X108.6505 Y17.6899
G01 X108.5886 Y17.7582
G01 X108.5203 Y17.8201
G01 X108.4463 Y17.8749
G01 X108.3672 Y17.9223
G01 X108.2839 Y17.9617
G01 X108.1972 Y17.9928
G01 X108.1078 Y18.0152
G01 X108.0166 Y18.0287
G01 X107.9246 Y18.0332
G01 X107.8326 Y18.0287
G01 X107.7414 Y18.0152
G01 X107.6520 Y17.9928
G01 X107.5653 Y17.9617
G01 X107.4820 Y17.9223
G01 X107.4029 Y17.8749
G01 X107.3289 Y17.8201
G01 X107.2606 Y17.7582
G01 X107.1987 Y17.6899
G01 X107.1439 Y17.6159
G01 X107.0965 Y17.5368
G01 X107.0571 Y17.4535
G01 X107.0260 Y17.3668
G01 X107.0036 Y17.2774
G01 X106.9901 Y17.1862
G01 X106.9857 Y17.0967
G00 Z2.0000
G00 X109.5257 Y17.0967
G01 F150.00
G01 Z0.0000
G01 F200.00
G01 X109.5301 Y17.0022
G01 X109.5436 Y16.9110
G01 X109.5660 Y16.8216
G01 X109.5971 Y16.7349
G01 X109.6365 Y16.6516
G01 X109.6839 Y16.5725
G01 X109.7387 Y16.4985
G01 X109.8006 Y16.4302
G01 X109.8689 Y16.3683
G01 X109.9429 Y16.3135
G01 X110.0220 Y16.2661
G01 X110.1053 Y16.2267
G01 X110.1920 Y16.1956
G01 X110.2814 Y16.1732
G01 X110.3726 Y16.1597
G01 X110.4646 Y16.1552
G01 X110.5566 Y16.1597
G01 X110.6478 Y16.1732
G01 X110.7372 Y16.1956
G01 X110.8239 Y16.2267
G01 X110.9072 Y16.2661
G01 X110.9863 Y16.3135
G01 X111.0603 Y16.3683
G01 X111.1286 Y16.4302
G01 X111.1905 Y16.4985
G01 X111.2453 Y16.5725
G01 X111.2927 Y16.6516
G01 X111.3321 Y16.7349
G01 X111.3632 Y16.8216
G01 X111.3856 Y16.9110
G01 X111.3991 Y17.0022
G01 X111.4036 Y17.0942
G01 X111.3991 Y17.1862
G01 X111.3856 Y17.2774
G01 X111.3632 Y17.3668
G01 X111.3321 Y17.4535
G01 X111.2927 Y17.5368
G01 X111.2453 Y17.6159
G01 X111.1905 Y17.6899
G01 X111.1286 Y17.7582
G01 X111.0603 Y17.8201
G01 X110.9863 Y17.8749
G01 X110.9072 Y17.9223
G01 X110.8239 Y17.9617
G01 X110.7372 Y17.9928
G01 X110.6478 Y18.0152
G01 X110.5566 Y18.0287
G01 X110.4646 Y18.0332
G01 X110.3726 Y18.0287
G01 X110.2814 Y18.0152
G01 X110.1920 Y17.9928
G01 X110.1053 Y17.9617
G01 X110.0220 Y17.9223
G01 X109.9429 Y17.8749
G01 X109.8689 Y17.8201
G01 X109.8006 Y17.7582
G01 X109.7387 Y17.6899
G01 X109.6839 Y17.6159
G01 X109.6365 Y17.5368
G01 X109.5971 Y17.4535
G01 X109.5660 Y17.3668
G01 X109.5436 Y17.2774
G01 X109.5301 Y17.1862
G01 X109.5257 Y17.0967
G00 Z2.0000
G00 X112.0657 Y17.0967
G01 F150.00
G01 Z0.0000
G01 F200.00
G01 X112.0701 Y17.0022
G01 X112.0836 Y16.9110
G01 X112.1060 Y16.8216
G01 X112.1371 Y16.7349
G01 X112.1765 Y16.6516
G01 X112.2239 Y16.5725
G01 X112.2787 Y16.4985
G01 X112.3406 Y16.4302
G01 X112.4089 Y16.3683
G01 X112.4829 Y16.3135
G01 X112.5620 Y16.2661
G01 X112.6453 Y16.2267
G01 X112.7320 Y16.1956
G01 X112.8214 Y16.1732
G01 X112.9126 Y16.1597
G01 X113.0046 Y16.1552
G01 X113.0966 Y16.1597
G01 X113.1878 Y16.1732
G01 X113.2772 Y16.1956
G01 X113.3639 Y16.2267
G01 X113.4472 Y16.2661
G01 X113.5263 Y16.3135
G01 X113.6003 Y16.3683
G01 X113.6686 Y16.4302
G01 X113.7305 Y16.4985
G01 X113.7853 Y16.5725
G01 X113.8327 Y16.6516
G01 X113.8721 Y16.7349
G01 X113.9032 Y16.8216
G01 X113.9256 Y16.9110
G01 X113.9391 Y17.0022
G01 X113.9436 Y17.0942
G01 X113.9391 Y17.1862
G01 X113.9256 Y17.2774
G01 X113.9032 Y17.3668
G01 X113.8721 Y17.4535
G01 X113.8327 Y17.5368
G01 X113.7853 Y17.6159
G01 X113.7305 Y17.6899
G01 X113.6686 Y17.7582
G01 X113.6003 Y17.8201
G01 X113.5263 Y17.8749
G01 X113.4472 Y17.9223
G01 X113.3639 Y17.9617
G01 X113.2772 Y17.9928
G01 X113.1878 Y18.0152
G01 X113.0966 Y18.0287
G01 X113.0046 Y18.0332
G01 X112.9126 Y18.0287
G01 X112.8214 Y18.0152
G01 X112.7320 Y17.9928
G01 X112.6453 Y17.9617
G01 X112.5620 Y17.9223
G01 X112.4829 Y17.8749
G01 X112.4089 Y17.8201
G01 X112.3406 Y17.7582
G01 X112.2787 Y17.6899
G01 X112.2239 Y17.6159
G01 X112.1765 Y17.5368
G01 X112.1371 Y17.4535
G01 X112.1060 Y17.3668
G01 X112.0836 Y17.2774
G01 X112.0701 Y17.1862
G01 X112.0657 Y17.0967
G00 Z2.0000
G00 X115.0902 Y17.9154
G01 F150.00
G01 Z0.0000
G01 F200.00
G01 X115.0229 Y17.8749
G01 X114.9489 Y17.8201
G01 X114.8806 Y17.7582
G01 X114.8203 Y17.6918
G01 X114.7625 Y17.6138
G01 X114.7165 Y17.5368
G01 X114.6771 Y17.4535
G01 X114.6460 Y17.3668
G01 X114.6242 Y17.2798
G01 X114.6099 Y17.1838
G01 X114.6056 Y17.0942
G01 X114.6101 Y17.0022
G01 X114.6236 Y16.9110
G01 X114.6460 Y16.8216
G01 X114.6771 Y16.7349
G01 X114.7154 Y16.6538
G01 X114.7653 Y16.5705
G01 X114.8187 Y16.4985
G01 X114.8806 Y16.4302
G01 X114.9489 Y16.3683
G01 X115.0229 Y16.3135
G01 X115.1020 Y16.2661
G01 X115.1853 Y16.2267
G01 X115.2720 Y16.1956
G01 X115.3590 Y16.1738
G01 X115.4550 Y16.1595
G01 X115.5446 Y16.1552
G01 X115.6379 Y16.1599
G01 X115.7278 Y16.1732
G01 X115.8172 Y16.1956
G01 X115.9039 Y16.2267
G01 X115.9850 Y16.2650
G01 X116.0683 Y16.3149
G01 X116.1403 Y16.3683
G01 X116.2086 Y16.4302
G01 X116.2705 Y16.4985
G01 X116.3239 Y16.5705
G01 X116.3738 Y16.6538
G01 X116.4121 Y16.7349
G01 X116.4432 Y16.8216
G01 X116.4656 Y16.9110
G01 X116.4789 Y17.0009
G01 X116.4835 Y17.0967
G01 X116.4791 Y17.1862
G01 X116.4656 Y17.2774
G01 X116.4424 Y17.3691
G01 X116.4121 Y17.4535
G01 X116.3727 Y17.5368
G01 X116.3239 Y17.6179
G01 X116.2705 Y17.6899
G01 X116.2086 Y17.7582
G01 X116.1384 Y17.8216
G01 X116.0663 Y17.8749
G01 X116.0037 Y17.9125
G01 X116.0392 Y19.1540
G01 X128.1969 Y19.2030
G01 X128.2404 Y19.2054
G01 X128.2829 Y19.2118
G01 X128.3263 Y19.2227
G01 X128.3662 Y19.2369
G01 X128.3725 Y19.2395
G01 X128.4068 Y19.2558
G01 X128.4128 Y19.2590
G01 X128.4490 Y19.2810
G01 X128.4835 Y19.3066
G01 X128.5167 Y19.3367
G01 X128.5452 Y19.3681
G01 X128.5494 Y19.3733
G01 X128.5720 Y19.4039
G01 X128.5758 Y19.4095
G01 X128.5974 Y19.4460
G01 X128.6163 Y19.4866
G01 X128.6307 Y19.5271
G01 X128.6414 Y19.5693
G01 X128.6482 Y19.6148
G01 X128.6504 Y19.6596
G01 X128.6504 Y78.0034
G01 X128.6479 Y78.0506
G01 X128.6416 Y78.0925
G01 X128.6307 Y78.1359
G01 X128.6165 Y78.1758
G01 X128.6141 Y78.1816
G01 X128.5965 Y78.2186
G01 X128.5734 Y78.2571
G01 X128.5468 Y78.2931
G01 X128.5149 Y78.3280
G01 X128.4835 Y78.3564
G01 X128.4495 Y78.3816
G01 X128.4090 Y78.4061
G01 X128.3662 Y78.4261
G01 X128.3263 Y78.4403
G01 X128.2853 Y78.4507
G01 X128.2386 Y78.4578
G01 X128.1938 Y78.4600
G01 X93.1412 Y78.4600
G01 X93.1411 Y85.6513
G01 X93.1390 Y85.6936
G01 X93.1328 Y85.7355
G01 X93.1208 Y85.7837
G01 X93.1064 Y85.8235
G01 X93.0873 Y85.8640
G01 X93.0642 Y85.9025
G01 X93.0391 Y85.9365
G01 X93.0057 Y85.9734
G01 X92.9743 Y86.0018
G01 X92.9383 Y86.0284
G01 X92.8976 Y86.0526
G01 X92.8593 Y86.0706
G01 X92.8183 Y86.0854
G01 X92.7713 Y86.0970
G01 X92.7294 Y86.1032
G01 X92.6846 Y86.1054
G01 X69.8500 Y86.1054
G01 X69.8375 Y86.1052
G01 X69.8065 Y86.1033
G01 X69.7929 Y86.1018
G01 X69.7621 Y86.0969
G01 X69.7499 Y86.0943
G01 X69.7175 Y86.0857
G01 X69.7056 Y86.0819
G01 X69.6764 Y86.0711
G01 X69.6638 Y86.0657
G01 X69.6358 Y86.0521
G01 X69.6249 Y86.0461
G01 X69.5963 Y86.0284
G01 X69.5861 Y86.0214
G01 X69.5603 Y86.0018
G01 X69.5508 Y85.9937
G01 X69.5280 Y85.9725
G01 X69.5201 Y85.9645
G01 X69.4978 Y85.9394
G01 X69.4900 Y85.9297
G01 X69.4710 Y85.9035
G01 X69.4642 Y85.8930
G01 X69.4479 Y85.8651
G01 X69.4421 Y85.8541
G01 X69.4286 Y85.8247
G01 X69.4240 Y85.8131
G01 X69.4134 Y85.7825
G01 X69.4099 Y85.7705
G01 X69.4024 Y85.7391
G01 X69.3999 Y85.7256
G01 X69.3957 Y85.6948
G01 X69.3946 Y85.6824
G01 X69.2217 Y83.3357
G01 X69.2162 Y83.3335
G01 X69.1288 Y83.2919
G01 X69.0479 Y83.2433
G01 X68.9701 Y83.1857
G01 X68.8984 Y83.1206
G01 X68.8349 Y83.0508
G01 X68.7757 Y82.9711
G01 X68.7248 Y82.8859
G01 X68.6845 Y82.8006
G01 X68.6519 Y82.7094
G01 X68.6283 Y82.6155
G01 X68.6144 Y82.5221
G01 X68.6094 Y82.4230
G01 X68.6141 Y82.3263
G01 X68.6283 Y82.2305
G01 X68.6519 Y82.1366
G01 X68.6845 Y82.0454
G01 X68.7259 Y81.9579
G01 X68.7757 Y81.8749
G01 X68.8333 Y81.7971
G01 X68.8984 Y81.7254
G01 X68.9701 Y81.6603
G01 X69.0479 Y81.6027
G01 X69.1309 Y81.5529
G01 X69.2184 Y81.5115
G01 X69.3096 Y81.4789
G01 X69.4035 Y81.4553
G01 X69.4993 Y81.4411
G01 X69.5935 Y81.4365
G01 X69.6951 Y81.4414
G01 X69.7885 Y81.4553
G01 X69.8847 Y81.4796
G01 X69.9736 Y81.5115
G01 X70.0611 Y81.5529
G01 X70.1441 Y81.6027
G01 X70.2219 Y81.6603
G01 X70.2936 Y81.7254
G01 X70.3587 Y81.7971
G01 X70.4163 Y81.8749
G01 X70.4649 Y81.9558
G01 X70.5084 Y82.0477
G01 X70.5401 Y82.1366
G01 X70.5639 Y82.2317
G01 X70.5779 Y82.3263
G01 X70.5825 Y82.4205
G01 X70.5779 Y82.5197
G01 X70.5637 Y82.6155
G01 X70.5408 Y82.7070
G01 X70.5075 Y82.8006
G01 X70.4661 Y82.8881
G01 X70.4176 Y82.9691
G01 X70.3587 Y83.0489
G01 X70.2936 Y83.1206
G01 X70.2238 Y83.1841
G01 X70.1461 Y83.2419
G01 X70.1312 Y83.2512
G01 X70.2742 Y85.1922
G01 X92.2280 Y85.1922
G01 X92.2280 Y78.0034
G01 X92.2300 Y77.9611
G01 X92.2368 Y77.9143
G01 X92.2470 Y77.8732
G01 X92.2638 Y77.8264
G01 X92.2819 Y77.7882
G01 X92.3050 Y77.7497
G01 X92.3316 Y77.7137
G01 X92.3617 Y77.6805
G01 X92.3949 Y77.6504
G01 X92.4289 Y77.6252
G01 X92.4716 Y77.5996
G01 X92.5099 Y77.5816
G01 X92.5521 Y77.5665
G01 X92.5955 Y77.5556
G01 X92.6374 Y77.5493
G01 X92.6846 Y77.5468
G01 X127.7372 Y77.5468
G01 X127.7372 Y20.1144
G01 X115.5936 Y20.0654
G01 X115.5649 Y20.0644
G01 X115.5500 Y20.0631
G01 X115.5191 Y20.0590
G01 X115.5033 Y20.0560
G01 X115.4766 Y20.0497
G01 X115.4599 Y20.0448
G01 X115.4339 Y20.0359
G01 X115.4201 Y20.0304
G01 X115.3907 Y20.0169
G01 X115.3775 Y20.0100
G01 X115.3527 Y19.9955
G01 X115.3392 Y19.9867
G01 X115.3169 Y19.9706
G01 X115.3034 Y19.9598
G01 X115.2828 Y19.9416
G01 X115.2721 Y19.9312
G01 X115.2501 Y19.9075
G01 X115.2405 Y19.8961
G01 X115.2239 Y19.8742
G01 X115.2141 Y19.8599
G01 X115.1996 Y19.8365
G01 X115.1918 Y19.8224
G01 X115.1782 Y19.7944
G01 X115.1724 Y19.7807
G01 X115.1628 Y19.7549
G01 X115.1576 Y19.7384
G01 X115.1506 Y19.7118
G01 X115.1472 Y19.6961
G01 X115.1426 Y19.6677
G01 X115.1410 Y19.6529
G01 X115.1390 Y19.6218
G01 X115.0902 Y17.9154
G00 Z2.0000
G00 X117.1457 Y17.0967
G01 F150.00
G01 Z0.0000
G01 F200.00
G01 X117.1501 Y17.0022
G01 X117.1636 Y16.9110
G01 X117.1860 Y16.8216
G01 X117.2171 Y16.7349
G01 X117.2565 Y16.6516
G01 X117.3039 Y16.5725
G01 X117.3587 Y16.4985
G01 X117.4206 Y16.4302
G01 X117.4889 Y16.3683
G01 X117.5629 Y16.3135
G01 X117.6420 Y16.2661
G01 X117.7253 Y16.2267
G01 X117.8120 Y16.1956
G01 X117.9014 Y16.1732
G01 X117.9926 Y16.1597
G01 X118.0846 Y16.1552
G01 X118.1766 Y16.1597
G01 X118.2678 Y16.1732
G01 X118.3572 Y16.1956
G01 X118.4439 Y16.2267
G01 X118.5272 Y16.2661
G01 X118.6063 Y16.3135
G01 X118.6803 Y16.3683
G01 X118.7486 Y16.4302
G01 X118.8105 Y16.4985
G01 X118.8653 Y16.5725
G01 X118.9127 Y16.6516
G01 X118.9521 Y16.7349
G01 X118.9832 Y16.8216
G01 X119.0056 Y16.9110
G01 X119.0191 Y17.0022
G01 X119.0236 Y17.0942
G01 X119.0191 Y17.1862
G01 X119.0056 Y17.2774
G01 X118.9832 Y17.3668
G01 X118.9521 Y17.4535
G01 X118.9127 Y17.5368
G01 X118.8653 Y17.6159
G01 X118.8105 Y17.6899
G01 X118.7486 Y17.7582
G01 X118.6803 Y17.8201
G01 X118.6063 Y17.8749
G01 X118.5272 Y17.9223
G01 X118.4439 Y17.9617
G01 X118.3572 Y17.9928
G01 X118.2678 Y18.0152
G01 X118.1766 Y18.0287
G01 X118.0846 Y18.0332
G01 X117.9926 Y18.0287
G01 X117.9014 Y18.0152
G01 X117.8120 Y17.9928
G01 X117.7253 Y17.9617
G01 X117.6420 Y17.9223
G01 X117.5629 Y17.8749
G01 X117.4889 Y17.8201
G01 X117.4206 Y17.7582
G01 X117.3587 Y17.6899
G01 X117.3039 Y17.6159
G01 X117.2565 Y17.5368
G01 X117.2171 Y17.4535
G01 X117.1860 Y17.3668
G01 X117.1636 Y17.2774
G01 X117.1501 Y17.1862
G01 X117.1457 Y17.0967
G00 Z2.0000
G00 X120.2585 Y29.4069
G01 F150.00
G01 Z0.0000
G01 F200.00
G01 X120.2834 Y29.3696
G01 X120.3135 Y29.3332
G01 X120.3454 Y29.3017
G01 X120.3782 Y29.2749
G01 X120.4134 Y29.2514
G01 X120.4550 Y29.2289
G01 X120.4964 Y29.2118
G01 X120.5393 Y29.1988
G01 X120.5856 Y29.1898
G01 X120.6278 Y29.1857
G01 X120.6702 Y29.1857
G01 X120.7148 Y29.1899
G01 X120.7611 Y29.1989
G01 X120.8040 Y29.2120
G01 X120.8476 Y29.2302
G01 X120.8849 Y29.2503
G01 X120.9202 Y29.2738
G01 X120.9568 Y29.3036
G01 X120.9885 Y29.3353
G01 X121.0169 Y29.3700
G01 X121.0417 Y29.4072
G01 X121.0629 Y29.4468
G01 X121.0807 Y29.4905
G01 X121.0930 Y29.5311
G01 X121.1013 Y29.5726
G01 X121.1059 Y29.6172
G01 X121.1060 Y29.6644
G01 X121.1016 Y29.7090
G01 X121.0929 Y29.7529
G01 X121.0798 Y29.7958
G01 X121.0627 Y29.8372
G01 X121.0422 Y29.8757
G01 X120.9653 Y30.0037
G01 X120.9411 Y30.0400
G01 X120.9120 Y30.0756
G01 X120.8803 Y30.1073
G01 X120.8456 Y30.1357
G01 X120.8084 Y30.1605
G01 X120.7688 Y30.1817
G01 X120.7274 Y30.1988
G01 X120.6845 Y30.2118
G01 X120.6406 Y30.2205
G01 X120.5960 Y30.2249
G01 X120.5512 Y30.2248
G01 X120.5066 Y30.2204
G01 X120.4627 Y30.2117
G01 X120.4198 Y30.1986
G01 X120.3784 Y30.1815
G01 X120.3389 Y30.1603
G01 X120.3016 Y30.1354
G01 X120.2670 Y30.1070
G01 X120.2353 Y30.0753
G01 X120.2069 Y30.0406
G01 X120.1821 Y30.0034
G01 X120.1609 Y29.9638
G01 X120.1438 Y29.9224
G01 X120.1308 Y29.8795
G01 X120.1221 Y29.8356
G01 X120.1177 Y29.7910
G01 X120.1177 Y29.7474
G01 X120.1222 Y29.7016
G01 X120.1304 Y29.6600
G01 X120.1448 Y29.6125
G01 X120.1611 Y29.5734
G01 X120.1816 Y29.5349
G01 X120.2585 Y29.4069
G00 Z2.0000
G00 X117.1457 Y32.3367
G01 F150.00
G01 Z0.0000
G01 F200.00
G01 X117.1501 Y32.2422
G01 X117.1636 Y32.1510
G01 X117.1860 Y32.0616
G01 X117.2171 Y31.9749
G01 X117.2565 Y31.8916
G01 X117.3039 Y31.8125
G01 X117.3587 Y31.7385
G01 X117.4206 Y31.6702
G01 X117.4889 Y31.6083
G01 X117.5629 Y31.5535
G01 X117.6420 Y31.5061
G01 X117.7253 Y31.4667
G01 X117.8120 Y31.4356
G01 X117.9014 Y31.4132
G01 X117.9926 Y31.3997
G01 X118.0846 Y31.3952
G01 X118.1766 Y31.3997
G01 X118.2678 Y31.4132
G01 X118.3572 Y31.4356
G01 X118.4439 Y31.4667
G01 X118.5272 Y31.5061
G01 X118.6063 Y31.5535
G01 X118.6803 Y31.6083
G01 X118.7486 Y31.6702
G01 X118.8105 Y31.7385
G01 X118.8653 Y31.8125
G01 X118.9127 Y31.8916
G01 X118.9521 Y31.9749
G01 X118.9832 Y32.0616
G01 X119.0056 Y32.1510
G01 X119.0191 Y32.2422
G01 X119.0236 Y32.3342
G01 X119.0191 Y32.4262
G01 X119.0056 Y32.5174
G01 X118.9832 Y32.6068
G01 X118.9521 Y32.6935
G01 X118.9127 Y32.7768
G01 X118.8653 Y32.8559
G01 X118.8105 Y32.9299
G01 X118.7486 Y32.9982
G01 X118.6803 Y33.0601
G01 X118.6063 Y33.1149
G01 X118.5272 Y33.1623
G01 X118.4439 Y33.2017
G01 X118.3572 Y33.2328
G01 X118.2678 Y33.2552
G01 X118.1766 Y33.2687
G01 X118.0846 Y33.2732
G01 X117.9926 Y33.2687
G01 X117.9014 Y33.2552
G01 X117.8120 Y33.2328
G01 X117.7253 Y33.2017
G01 X117.6420 Y33.1623
G01 X117.5629 Y33.1149
G01 X117.4889 Y33.0601
G01 X117.4206 Y32.9982
G01 X117.3587 Y32.9299
G01 X117.3039 Y32.8559
G01 X117.2565 Y32.7768
G01 X117.2171 Y32.6935
G01 X117.1860 Y32.6068
G01 X117.1636 Y32.5174
G01 X117.1501 Y32.4262
G01 X117.1457 Y32.3367
G00 Z2.0000
G00 X115.0880 Y33.1540
G01 F150.00
G01 Z0.0000
G01 F200.00
G01 X115.0229 Y33.1149
G01 X114.9489 Y33.0601
G01 X114.8806 Y32.9982
G01 X114.8187 Y32.9299
G01 X114.7639 Y32.8559
G01 X114.7165 Y32.7768
G01 X114.6771 Y32.6935
G01 X114.6460 Y32.6068
G01 X114.6236 Y32.5174
G01 X114.6101 Y32.4262
G01 X114.6056 Y32.3342
G01 X114.6101 Y32.2422
G01 X114.6236 Y32.1510
G01 X114.6460 Y32.0616
G01 X114.6771 Y31.9749
G01 X114.7165 Y31.8916
G01 X114.7639 Y31.8125
G01 X114.8187 Y31.7385
G01 X114.8806 Y31.6702
G01 X114.9489 Y31.6083
G01 X115.0229 Y31.5535
G01 X115.1020 Y31.5061
G01 X115.1853 Y31.4667
G01 X115.2720 Y31.4356
G01 X115.3614 Y31.4132
G01 X115.4526 Y31.3997
G01 X115.5446 Y31.3952
G01 X115.6366 Y31.3997
G01 X115.7278 Y31.4132
G01 X115.8172 Y31.4356
G01 X115.9039 Y31.4667
G01 X115.9872 Y31.5061
G01 X116.0683 Y31.5549
G01 X116.1403 Y31.6083
G01 X116.2068 Y31.6685
G01 X116.2705 Y31.7385
G01 X116.3267 Y31.8146
G01 X116.3727 Y31.8916
G01 X116.4111 Y31.9726
G01 X116.4432 Y32.0616
G01 X116.4660 Y32.1534
G01 X116.4791 Y32.2422
G01 X116.4836 Y32.3342
G01 X116.4788 Y32.4287
G01 X116.4656 Y32.5174
G01 X116.4438 Y32.6044
G01 X116.4121 Y32.6935
G01 X116.3715 Y32.7790
G01 X116.3253 Y32.8559
G01 X116.2720 Y32.9280
G01 X116.2086 Y32.9982
G01 X116.1384 Y33.0616
G01 X116.0663 Y33.1149
G01 X116.0012 Y33.1540
G01 X116.0012 Y39.0625
G01 X116.0182 Y39.0707
G01 X116.1016 Y39.1207
G01 X116.1824 Y39.1809
G01 X116.2535 Y39.2453
G01 X116.3179 Y39.3164
G01 X116.3795 Y39.3993
G01 X116.4287 Y39.4816
G01 X116.4698 Y39.5683
G01 X116.5039 Y39.6632
G01 X116.5278 Y39.7586
G01 X116.5420 Y39.8535
G01 X116.5471 Y39.9554
G01 X116.5423 Y40.0525
G01 X116.5278 Y40.1498
G01 X116.5039 Y40.2452
G01 X116.4708 Y40.3378
G01 X116.4287 Y40.4268
G01 X116.3781 Y40.5112
G01 X116.3195 Y40.5902
G01 X116.2552 Y40.6613
G01 X116.1806 Y40.7291
G01 X116.1036 Y40.7863
G01 X116.0150 Y40.8394
G01 X115.9282 Y40.8804
G01 X115.8356 Y40.9135
G01 X115.7402 Y40.9374
G01 X115.6416 Y40.9520
G01 X115.5446 Y40.9567
G01 X115.4463 Y40.9519
G01 X115.3490 Y40.9374
G01 X115.2536 Y40.9135
G01 X115.1610 Y40.8804
G01 X115.0720 Y40.8383
G01 X114.9876 Y40.7877
G01 X114.9086 Y40.7291
G01 X114.8357 Y40.6631
G01 X114.7697 Y40.5902
G01 X114.7111 Y40.5112
G01 X114.6605 Y40.4268
G01 X114.6184 Y40.3378
G01 X114.5853 Y40.2452
G01 X114.5614 Y40.1498
G01 X114.5468 Y40.0512
G01 X114.5421 Y39.9542
G01 X114.5467 Y39.8584
G01 X114.5614 Y39.7586
G01 X114.5853 Y39.6632
G01 X114.6175 Y39.5729
G01 X114.6605 Y39.4816
G01 X114.7111 Y39.3972
G01 X114.7681 Y39.3202
G01 X114.8357 Y39.2453
G01 X114.9086 Y39.1793
G01 X114.9856 Y39.1221
G01 X115.0710 Y39.0707
G01 X115.0880 Y39.0625
G01 X115.0880 Y33.1540
G00 Z2.0000
G00 X112.5480 Y33.1540
G01 F150.00
G01 Z0.0000
G01 F200.00
G01 X112.4829 Y33.1149
G01 X112.4089 Y33.0601
G01 X112.3406 Y32.9982
G01 X112.2787 Y32.9299
G01 X112.2239 Y32.8559
G01 X112.1765 Y32.7768
G01 X112.1371 Y32.6935
G01 X112.1060 Y32.6068
G01 X112.0836 Y32.5174
G01 X112.0701 Y32.4262
G01 X112.0656 Y32.3342
G01 X112.0701 Y32.2422
G01 X112.0836 Y32.1510
G01 X112.1060 Y32.0616
G01 X112.1371 Y31.9749
G01 X112.1765 Y31.8916
G01 X112.2239 Y31.8125
G01 X112.2787 Y31.7385
G01 X112.3406 Y31.6702
G01 X112.4089 Y31.6083
G01 X112.4829 Y31.5535
G01 X112.5620 Y31.5061
G01 X112.6453 Y31.4667
G01 X112.7320 Y31.4356
G01 X112.8214 Y31.4132
G01 X112.9126 Y31.3997
G01 X113.0046 Y31.3952
G01 X113.0966 Y31.3997
G01 X113.1878 Y31.4132
G01 X113.2772 Y31.4356
G01 X113.3639 Y31.4667
G01 X113.4472 Y31.5061
G01 X113.5263 Y31.5535
G01 X113.5984 Y31.6068
G01 X113.6686 Y31.6702
G01 X113.7320 Y31.7404
G01 X113.7853 Y31.8125
G01 X113.8315 Y31.8894
G01 X113.8721 Y31.9749
G01 X113.9038 Y32.0640
G01 X113.9256 Y32.1510
G01 X113.9388 Y32.2397
G01 X113.9436 Y32.3342
G01 X113.9388 Y32.4287
G01 X113.9256 Y32.5174
G01 X113.9032 Y32.6068
G01 X113.8721 Y32.6935
G01 X113.8338 Y32.7746
G01 X113.7860 Y32.8549
G01 X113.7742 Y32.8709
G01 X113.7758 Y32.8764
G01 X113.7852 Y32.9202
G01 X113.7903 Y32.9622
G01 X113.7911 Y33.0095
G01 X113.7878 Y33.0517
G01 X113.7800 Y33.0958
G01 X113.7680 Y33.1390
G01 X113.7517 Y33.1808
G01 X113.7315 Y33.2207
G01 X113.7074 Y33.2585
G01 X113.6797 Y33.2938
G01 X113.6469 Y33.3278
G01 X113.6147 Y33.3553
G01 X113.5759 Y33.3823
G01 X113.5368 Y33.4040
G01 X113.4980 Y33.4210
G01 X113.4612 Y33.4331
G01 X113.4612 Y36.5225
G01 X113.4782 Y36.5307
G01 X113.5636 Y36.5821
G01 X113.6406 Y36.6393
G01 X113.7135 Y36.7053
G01 X113.7811 Y36.7802
G01 X113.8381 Y36.8572
G01 X113.8887 Y36.9416
G01 X113.9308 Y37.0306
G01 X113.9632 Y37.1209
G01 X113.9878 Y37.2186
G01 X114.0025 Y37.3184
G01 X114.0071 Y37.4142
G01 X114.0025 Y37.5100
G01 X113.9873 Y37.6122
G01 X113.9639 Y37.7052
G01 X113.9298 Y37.8001
G01 X113.8887 Y37.8868
G01 X113.8381 Y37.9712
G01 X113.7795 Y38.0502
G01 X113.7135 Y38.1231
G01 X113.6406 Y38.1891
G01 X113.5636 Y38.2463
G01 X113.4750 Y38.2994
G01 X113.3882 Y38.3404
G01 X113.2956 Y38.3735
G01 X113.2002 Y38.3974
G01 X113.1029 Y38.4119
G01 X113.0046 Y38.4167
G01 X112.9063 Y38.4119
G01 X112.8090 Y38.3974
G01 X112.7136 Y38.3735
G01 X112.6210 Y38.3404
G01 X112.5320 Y38.2983
G01 X112.4476 Y38.2477
G01 X112.3686 Y38.1891
G01 X112.2957 Y38.1231
G01 X112.2297 Y38.0502
G01 X112.1711 Y37.9712
G01 X112.1205 Y37.8868
G01 X112.0784 Y37.7978
G01 X112.0453 Y37.7052
G01 X112.0214 Y37.6098
G01 X112.0069 Y37.5125
G01 X112.0022 Y37.4117
G01 X112.0069 Y37.3159
G01 X112.0214 Y37.2186
G01 X112.0460 Y37.1209
G01 X112.0784 Y37.0306
G01 X112.1205 Y36.9416
G01 X112.1725 Y36.8552
G01 X112.2297 Y36.7782
G01 X112.2957 Y36.7053
G01 X112.3686 Y36.6393
G01 X112.4456 Y36.5821
G01 X112.5310 Y36.5307
G01 X112.5480 Y36.5225
G01 X112.5480 Y33.1540
G00 Z2.0000
G00 X110.0080 Y33.1540
G01 F150.00
G01 Z0.0000
G01 F200.00
G01 X109.9429 Y33.1149
G01 X109.8689 Y33.0601
G01 X109.8006 Y32.9982
G01 X109.7387 Y32.9299
G01 X109.6839 Y32.8559
G01 X109.6365 Y32.7768
G01 X109.5971 Y32.6935
G01 X109.5660 Y32.6068
G01 X109.5436 Y32.5174
G01 X109.5301 Y32.4262
G01 X109.5256 Y32.3342
G01 X109.5301 Y32.2422
G01 X109.5436 Y32.1510
G01 X109.5660 Y32.0616
G01 X109.5971 Y31.9749
G01 X109.6365 Y31.8916
G01 X109.6839 Y31.8125
G01 X109.7387 Y31.7385
G01 X109.8006 Y31.6702
G01 X109.8689 Y31.6083
G01 X109.9429 Y31.5535
G01 X110.0220 Y31.5061
G01 X110.1053 Y31.4667
G01 X110.1920 Y31.4356
G01 X110.2814 Y31.4132
G01 X110.3726 Y31.3997
G01 X110.4646 Y31.3952
G01 X110.5566 Y31.3997
G01 X110.6478 Y31.4132
G01 X110.7372 Y31.4356
G01 X110.8239 Y31.4667
G01 X110.9072 Y31.5061
G01 X110.9863 Y31.5535
G01 X111.0584 Y31.6068
G01 X111.1286 Y31.6702
G01 X111.1920 Y31.7404
G01 X111.2453 Y31.8125
G01 X111.2915 Y31.8894
G01 X111.3321 Y31.9749
G01 X111.3638 Y32.0640
G01 X111.3856 Y32.1510
G01 X111.3988 Y32.2397
G01 X111.4036 Y32.3342
G01 X111.3988 Y32.4287
G01 X111.3856 Y32.5174
G01 X111.3638 Y32.6044
G01 X111.3321 Y32.6935
G01 X111.2915 Y32.7790
G01 X111.2453 Y32.8559
G01 X111.1920 Y32.9280
G01 X111.1286 Y32.9982
G01 X111.0584 Y33.0616
G01 X110.9863 Y33.1149
G01 X110.9212 Y33.1540
G01 X110.9212 Y54.3025
G01 X110.9382 Y54.3107
G01 X111.0216 Y54.3607
G01 X111.1024 Y54.4209
G01 X111.1735 Y54.4853
G01 X111.2379 Y54.5564
G01 X111.2995 Y54.6393
G01 X111.3487 Y54.7216
G01 X111.3898 Y54.8083
G01 X111.4239 Y54.9032
G01 X111.4478 Y54.9986
G01 X111.4620 Y55.0935
G01 X111.4671 Y55.1954
G01 X111.4623 Y55.2925
G01 X111.4478 Y55.3898
G01 X111.4239 Y55.4852
G01 X111.3908 Y55.5778
G01 X111.3487 Y55.6668
G01 X111.2981 Y55.7512
G01 X111.2395 Y55.8302
G01 X111.1735 Y55.9031
G01 X111.1006 Y55.9691
G01 X111.0216 Y56.0277
G01 X110.9372 Y56.0783
G01 X110.8482 Y56.1204
G01 X110.7556 Y56.1535
G01 X110.6602 Y56.1774
G01 X110.5629 Y56.1919
G01 X110.4658 Y56.1967
G01 X110.3663 Y56.1919
G01 X110.2690 Y56.1774
G01 X110.1736 Y56.1535
G01 X110.0810 Y56.1204
G01 X109.9920 Y56.0783
G01 X109.9076 Y56.0277
G01 X109.8286 Y55.9691
G01 X109.7557 Y55.9031
G01 X109.6897 Y55.8302
G01 X109.6311 Y55.7512
G01 X109.5805 Y55.6668
G01 X109.5384 Y55.5778
G01 X109.5053 Y55.4852
G01 X109.4814 Y55.3898
G01 X109.4669 Y55.2925
G01 X109.4621 Y55.1954
G01 X109.4672 Y55.0935
G01 X109.4814 Y54.9986
G01 X109.5053 Y54.9032
G01 X109.5394 Y54.8083
G01 X109.5805 Y54.7216
G01 X109.6297 Y54.6393
G01 X109.6913 Y54.5564
G01 X109.7557 Y54.4853
G01 X109.8268 Y54.4209
G01 X109.9076 Y54.3607
G01 X109.9910 Y54.3107
G01 X110.0080 Y54.3025
G01 X110.0080 Y33.1540
G00 Z2.0000
G00 X107.4679 Y33.1540
G01 F150.00
G01 Z0.0000
G01 F200.00
G01 X107.4029 Y33.1149
G01 X107.3289 Y33.0601
G01 X107.2606 Y32.9982
G01 X107.1987 Y32.9299
G01 X107.1439 Y32.8559
G01 X107.0965 Y32.7768
G01 X107.0571 Y32.6935
G01 X107.0260 Y32.6068
G01 X107.0036 Y32.5174
G01 X106.9901 Y32.4262
G01 X106.9856 Y32.3342
G01 X106.9901 Y32.2422
G01 X107.0036 Y32.1510
G01 X107.0260 Y32.0616
G01 X107.0571 Y31.9749
G01 X107.0965 Y31.8916
G01 X107.1439 Y31.8125
G01 X107.1987 Y31.7385
G01 X107.2606 Y31.6702
G01 X107.3289 Y31.6083
G01 X107.4029 Y31.5535
G01 X107.4820 Y31.5061
G01 X107.5653 Y31.4667
G01 X107.6520 Y31.4356
G01 X107.7414 Y31.4132
G01 X107.8326 Y31.3997
G01 X107.9246 Y31.3952
G01 X108.0166 Y31.3997
G01 X108.1078 Y31.4132
G01 X108.1972 Y31.4356
G01 X108.2839 Y31.4667
G01 X108.3672 Y31.5061
G01 X108.4463 Y31.5535
G01 X108.5184 Y31.6068
G01 X108.5886 Y31.6702
G01 X108.6520 Y31.7404
G01 X108.7053 Y31.8125
G01 X108.7515 Y31.8894
G01 X108.7921 Y31.9749
G01 X108.8238 Y32.0640
G01 X108.8456 Y32.1510
G01 X108.8588 Y32.2397
G01 X108.8636 Y32.3342
G01 X108.8588 Y32.4287
G01 X108.8456 Y32.5174
G01 X108.8238 Y32.6044
G01 X108.7921 Y32.6935
G01 X108.7515 Y32.7790
G01 X108.7053 Y32.8559
G01 X108.6520 Y32.9280
G01 X108.5886 Y32.9982
G01 X108.5184 Y33.0616
G01 X108.4463 Y33.1149
G01 X108.3811 Y33.1541
G01 X108.3558 Y55.2208
G01 X108.3535 Y55.2655
G01 X108.3468 Y55.3098
G01 X108.3358 Y55.3533
G01 X108.3201 Y55.3966
G01 X108.3016 Y55.4353
G01 X108.2799 Y55.4716
G01 X108.2767 Y55.4763
G01 X108.2514 Y55.5102
G01 X108.2217 Y55.5429
G01 X108.1903 Y55.5713
G01 X108.1524 Y55.5996
G01 X108.1161 Y55.6213
G01 X108.1112 Y55.6240
G01 X108.0728 Y55.6419
G01 X108.0312 Y55.6567
G01 X107.9902 Y55.6670
G01 X107.9847 Y55.6681
G01 X107.9428 Y55.6741
G01 X107.8999 Y55.6762
G01 X98.6561 Y55.6513
G01 X98.6475 Y55.6689
G01 X98.5967 Y55.7532
G01 X98.5395 Y55.8302
G01 X98.4717 Y55.9048
G01 X98.4006 Y55.9691
G01 X98.3216 Y56.0277
G01 X98.2372 Y56.0783
G01 X98.1459 Y56.1213
G01 X98.0556 Y56.1535
G01 X97.9602 Y56.1774
G01 X97.8629 Y56.1919
G01 X97.7646 Y56.1967
G01 X97.6663 Y56.1919
G01 X97.5690 Y56.1774
G01 X97.4736 Y56.1535
G01 X97.3798 Y56.1199
G01 X97.2920 Y56.0783
G01 X97.2076 Y56.0277
G01 X97.1286 Y55.9691
G01 X97.0575 Y55.9048
G01 X96.9881 Y55.8282
G01 X96.9311 Y55.7512
G01 X96.8805 Y55.6668
G01 X96.8384 Y55.5778
G01 X96.8060 Y55.4875
G01 X96.7809 Y55.3874
G01 X96.7669 Y55.2925
G01 X96.7621 Y55.1942
G01 X96.7669 Y55.0959
G01 X96.7809 Y55.0010
G01 X96.8060 Y54.9009
G01 X96.8384 Y54.8106
G01 X96.8805 Y54.7216
G01 X96.9311 Y54.6372
G01 X96.9881 Y54.5602
G01 X97.0575 Y54.4836
G01 X97.1286 Y54.4193
G01 X97.2076 Y54.3607
G01 X97.2920 Y54.3101
G01 X97.3787 Y54.2690
G01 X97.4760 Y54.2342
G01 X97.5690 Y54.2110
G01 X97.6651 Y54.1967
G01 X97.7671 Y54.1918
G01 X97.8629 Y54.1965
G01 X97.9602 Y54.2110
G01 X98.0579 Y54.2356
G01 X98.1482 Y54.2680
G01 X98.2372 Y54.3101
G01 X98.3236 Y54.3621
G01 X98.4006 Y54.4193
G01 X98.4735 Y54.4853
G01 X98.5395 Y54.5582
G01 X98.5967 Y54.6352
G01 X98.6481 Y54.7206
G01 X98.6566 Y54.7381
G01 X107.4431 Y54.7618
G01 X107.4679 Y33.1540
G00 Z2.0000
G00 X102.3880 Y33.1540
G01 F150.00
G01 Z0.0000
G01 F200.00
G01 X102.3229 Y33.1149
G01 X102.2489 Y33.0601
G01 X102.1806 Y32.9982
G01 X102.1187 Y32.9299
G01 X102.0639 Y32.8559
G01 X102.0165 Y32.7768
G01 X101.9771 Y32.6935
G01 X101.9460 Y32.6068
G01 X101.9236 Y32.5174
G01 X101.9101 Y32.4262
G01 X101.9056 Y32.3342
G01 X101.9101 Y32.2422
G01 X101.9236 Y32.1510
G01 X101.9460 Y32.0616
G01 X101.9771 Y31.9749
G01 X102.0165 Y31.8916
G01 X102.0639 Y31.8125
G01 X102.1187 Y31.7385
G01 X102.1806 Y31.6702
G01 X102.2489 Y31.6083
G01 X102.3229 Y31.5535
G01 X102.4020 Y31.5061
G01 X102.4853 Y31.4667
G01 X102.5720 Y31.4356
G01 X102.6614 Y31.4132
G01 X102.7526 Y31.3997
G01 X102.8446 Y31.3952
G01 X102.9366 Y31.3997
G01 X103.0278 Y31.4132
G01 X103.1172 Y31.4356
G01 X103.2039 Y31.4667
G01 X103.2872 Y31.5061
G01 X103.3663 Y31.5535
G01 X103.4384 Y31.6068
G01 X103.5086 Y31.6702
G01 X103.5720 Y31.7404
G01 X103.6253 Y31.8125
G01 X103.6715 Y31.8894
G01 X103.7121 Y31.9749
G01 X103.7438 Y32.0640
G01 X103.7656 Y32.1510
G01 X103.7788 Y32.2397
G01 X103.7836 Y32.3342
G01 X103.7788 Y32.4287
G01 X103.7656 Y32.5174
G01 X103.7438 Y32.6044
G01 X103.7121 Y32.6935
G01 X103.6715 Y32.7790
G01 X103.6253 Y32.8559
G01 X103.5720 Y32.9280
G01 X103.5086 Y32.9982
G01 X103.4384 Y33.0616
G01 X103.3663 Y33.1149
G01 X103.3012 Y33.1540
G01 X103.3012 Y41.4676
G01 X103.3227 Y41.4911
G01 X103.3482 Y41.5249
G01 X103.3729 Y41.5652
G01 X103.3928 Y41.6067
G01 X103.4073 Y41.6465
G01 X103.4133 Y41.6693
G01 X103.4806 Y41.7193
G01 X103.5517 Y41.7836
G01 X103.6179 Y41.8564
G01 X103.6781 Y41.9372
G01 X103.7287 Y42.0216
G01 X103.7717 Y42.1129
G01 X103.8039 Y42.2032
G01 X103.8273 Y42.2962
G01 X103.8423 Y42.3959
G01 X103.8471 Y42.4954
G01 X103.8423 Y42.5925
G01 X103.8278 Y42.6898
G01 X103.8039 Y42.7852
G01 X103.7708 Y42.8778
G01 X103.7287 Y42.9668
G01 X103.6781 Y43.0512
G01 X103.6195 Y43.1302
G01 X103.5535 Y43.2031
G01 X103.4806 Y43.2691
G01 X103.4016 Y43.3277
G01 X103.3172 Y43.3783
G01 X103.2282 Y43.4204
G01 X103.1356 Y43.4535
G01 X103.0402 Y43.4774
G01 X102.9429 Y43.4919
G01 X102.8471 Y43.4966
G01 X102.7463 Y43.4919
G01 X102.6490 Y43.4774
G01 X102.5536 Y43.4535
G01 X102.4610 Y43.4204
G01 X102.3720 Y43.3783
G01 X102.2876 Y43.3277
G01 X102.2086 Y43.2691
G01 X102.1357 Y43.2031
G01 X102.0697 Y43.1302
G01 X102.0111 Y43.0512
G01 X101.9605 Y42.9668
G01 X101.9184 Y42.8778
G01 X101.8853 Y42.7852
G01 X101.8614 Y42.6898
G01 X101.8469 Y42.5925
G01 X101.8422 Y42.4967
G01 X101.8472 Y42.3935
G01 X101.8614 Y42.2986
G01 X101.8853 Y42.2032
G01 X101.9194 Y42.1083
G01 X101.9605 Y42.0216
G01 X102.0097 Y41.9393
G01 X102.0713 Y41.8564
G01 X102.1357 Y41.7853
G01 X102.2068 Y41.7209
G01 X102.2876 Y41.6607
G01 X102.3710 Y41.6107
G01 X102.3880 Y41.6025
G01 X102.3880 Y33.1540
G00 Z2.0000
G00 X92.2280 Y31.5144
G01 F150.00
G01 Z0.0000
G01 F200.00
G01 X92.2280 Y27.2034
G01 X92.2301 Y27.1599
G01 X92.2368 Y27.1143
G01 X92.2470 Y27.0732
G01 X92.2638 Y27.0264
G01 X92.2819 Y26.9882
G01 X92.3050 Y26.9497
G01 X92.3316 Y26.9137
G01 X92.3600 Y26.8823
G01 X92.3969 Y26.8489
G01 X92.4309 Y26.8238
G01 X92.4694 Y26.8007
G01 X92.5099 Y26.7816
G01 X92.5497 Y26.7672
G01 X92.5979 Y26.7552
G01 X92.6398 Y26.7490
G01 X92.6846 Y26.7468
G01 X123.1646 Y26.7468
G01 X123.2094 Y26.7490
G01 X123.2537 Y26.7556
G01 X123.2971 Y26.7665
G01 X123.3405 Y26.7820
G01 X123.3798 Y26.8007
G01 X123.4162 Y26.8224
G01 X123.4543 Y26.8504
G01 X123.4875 Y26.8805
G01 X123.5160 Y26.9119
G01 X123.5442 Y26.9497
G01 X123.5684 Y26.9904
G01 X123.5864 Y27.0287
G01 X123.6015 Y27.0709
G01 X123.6128 Y27.1167
G01 X123.6190 Y27.1586
G01 X123.6212 Y27.2022
G01 X123.6212 Y45.0088
G01 X123.6197 Y45.0458
G01 X123.6190 Y45.0536
G01 X123.6139 Y45.0903
G01 X123.6124 Y45.0979
G01 X123.6037 Y45.1339
G01 X123.6015 Y45.1413
G01 X123.5893 Y45.1763
G01 X123.5860 Y45.1847
G01 X123.5703 Y45.2183
G01 X123.5667 Y45.2251
G01 X123.5491 Y45.2549
G01 X123.5436 Y45.2635
G01 X123.5217 Y45.2934
G01 X123.5168 Y45.2994
G01 X123.4937 Y45.3252
G01 X123.4866 Y45.3325
G01 X123.4593 Y45.3576
G01 X123.4533 Y45.3625
G01 X123.4257 Y45.3833
G01 X123.4172 Y45.3891
G01 X123.3856 Y45.4084
G01 X123.3788 Y45.4121
G01 X123.3476 Y45.4271
G01 X123.3382 Y45.4311
G01 X123.3034 Y45.4438
G01 X123.2960 Y45.4461
G01 X123.2625 Y45.4547
G01 X123.2525 Y45.4569
G01 X123.2171 Y45.4624
G01 X123.2081 Y45.4633
G01 X123.1711 Y45.4654
G01 X121.5596 Y45.4884
G01 X121.5417 Y45.5258
G01 X121.4905 Y45.6113
G01 X121.4282 Y45.6953
G01 X121.3604 Y45.7700
G01 X121.2866 Y45.8370
G01 X121.2017 Y45.9001
G01 X121.1151 Y45.9519
G01 X121.0251 Y45.9946
G01 X120.9267 Y46.0300
G01 X120.8276 Y46.0548
G01 X120.7290 Y46.0695
G01 X120.6234 Y46.0748
G01 X120.5226 Y46.0698
G01 X120.4216 Y46.0548
G01 X120.3225 Y46.0300
G01 X120.2264 Y45.9956
G01 X120.1341 Y45.9519
G01 X120.0465 Y45.8994
G01 X119.9645 Y45.8386
G01 X119.8906 Y45.7717
G01 X119.8202 Y45.6943
G01 X119.7594 Y45.6123
G01 X119.7069 Y45.5247
G01 X119.6642 Y45.4347
G01 X119.6288 Y45.3363
G01 X119.6045 Y45.2396
G01 X119.5888 Y45.1337
G01 X119.5840 Y45.0342
G01 X119.5890 Y44.9322
G01 X119.6040 Y44.8312
G01 X119.6288 Y44.7321
G01 X119.6632 Y44.6360
G01 X119.7069 Y44.5437
G01 X119.7594 Y44.4561
G01 X119.8187 Y44.3760
G01 X119.8906 Y44.2967
G01 X119.9645 Y44.2298
G01 X120.0485 Y44.1677
G01 X120.1341 Y44.1165
G01 X120.2264 Y44.0728
G01 X120.3225 Y44.0384
G01 X120.4228 Y44.0134
G01 X120.5226 Y43.9986
G01 X120.6221 Y43.9937
G01 X120.7290 Y43.9989
G01 X120.8276 Y44.0136
G01 X120.9267 Y44.0384
G01 X121.0228 Y44.0728
G01 X121.1140 Y44.1159
G01 X121.2047 Y44.1704
G01 X121.2847 Y44.2298
G01 X121.3613 Y44.2993
G01 X121.4290 Y44.3741
G01 X121.4891 Y44.4551
G01 X121.5417 Y44.5426
G01 X121.5573 Y44.5751
G01 X122.7080 Y44.5587
G01 X122.7080 Y27.6600
G01 X93.1412 Y27.6600
G01 X93.1412 Y31.5144
G01 X93.2063 Y31.5535
G01 X93.2784 Y31.6068
G01 X93.3486 Y31.6702
G01 X93.4120 Y31.7404
G01 X93.4653 Y31.8125
G01 X93.5115 Y31.8894
G01 X93.5521 Y31.9749
G01 X93.5838 Y32.0640
G01 X93.6056 Y32.1510
G01 X93.6188 Y32.2397
G01 X93.6236 Y32.3342
G01 X93.6188 Y32.4287
G01 X93.6056 Y32.5174
G01 X93.5838 Y32.6044
G01 X93.5521 Y32.6935
G01 X93.5115 Y32.7790
G01 X93.4653 Y32.8559
G01 X93.4120 Y32.9280
G01 X93.3486 Y32.9982
G01 X93.2803 Y33.0601
G01 X93.2083 Y33.1135
G01 X93.1272 Y33.1623
G01 X93.0439 Y33.2017
G01 X92.9572 Y33.2328
G01 X92.8678 Y33.2552
G01 X92.7766 Y33.2687
G01 X92.6846 Y33.2732
G01 X92.5926 Y33.2687
G01 X92.5014 Y33.2552
G01 X92.4120 Y33.2328
G01 X92.3253 Y33.2017
G01 X92.2420 Y33.1623
G01 X92.1629 Y33.1149
G01 X92.0889 Y33.0601
G01 X92.0206 Y32.9982
G01 X91.9587 Y32.9299
G01 X91.9039 Y32.8559
G01 X91.8565 Y32.7768
G01 X91.8171 Y32.6935
G01 X91.7860 Y32.6068
G01 X91.7636 Y32.5174
G01 X91.7501 Y32.4262
G01 X91.7456 Y32.3342
G01 X91.7501 Y32.2422
G01 X91.7636 Y32.1510
G01 X91.7860 Y32.0616
G01 X91.8171 Y31.9749
G01 X91.8565 Y31.8916
G01 X91.9039 Y31.8125
G01 X91.9587 Y31.7385
G01 X92.0206 Y31.6702
G01 X92.0889 Y31.6083
G01 X92.1629 Y31.5535
G01 X92.2280 Y31.5144
G00 Z2.0000
G00 X89.2057 Y32.3367
G01 F150.00
G01 Z0.0000
G01 F200.00
G01 X89.2101 Y32.2422
G01 X89.2236 Y32.1510
G01 X89.2460 Y32.0616
G01 X89.2771 Y31.9749
G01 X89.3165 Y31.8916
G01 X89.3639 Y31.8125
G01 X89.4187 Y31.7385
G01 X89.4806 Y31.6702
G01 X89.5489 Y31.6083
G01 X89.6229 Y31.5535
G01 X89.7020 Y31.5061
G01 X89.7853 Y31.4667
G01 X89.8720 Y31.4356
G01 X89.9614 Y31.4132
G01 X90.0526 Y31.3997
G01 X90.1446 Y31.3952
G01 X90.2366 Y31.3997
G01 X90.3278 Y31.4132
G01 X90.4172 Y31.4356
G01 X90.5039 Y31.4667
G01 X90.5872 Y31.5061
G01 X90.6663 Y31.5535
G01 X90.7403 Y31.6083
G01 X90.8086 Y31.6702
G01 X90.8705 Y31.7385
G01 X90.9253 Y31.8125
G01 X90.9727 Y31.8916
G01 X91.0121 Y31.9749
G01 X91.0432 Y32.0616
G01 X91.0656 Y32.1510
G01 X91.0791 Y32.2422
G01 X91.0836 Y32.3342
G01 X91.0791 Y32.4262
G01 X91.0656 Y32.5174
G01 X91.0432 Y32.6068
G01 X91.0121 Y32.6935
G01 X90.9727 Y32.7768
G01 X90.9253 Y32.8559
G01 X90.8705 Y32.9299
G01 X90.8086 Y32.9982
G01 X90.7403 Y33.0601
G01 X90.6663 Y33.1149
G01 X90.5872 Y33.1623
G01 X90.5039 Y33.2017
G01 X90.4172 Y33.2328
G01 X90.3278 Y33.2552
G01 X90.2366 Y33.2687
G01 X90.1446 Y33.2732
G01 X90.0526 Y33.2687
G01 X89.9614 Y33.2552
G01 X89.8720 Y33.2328
G01 X89.7853 Y33.2017
G01 X89.7020 Y33.1623
G01 X89.6229 Y33.1149
G01 X89.5489 Y33.0601
G01 X89.4806 Y32.9982
G01 X89.4187 Y32.9299
G01 X89.3639 Y32.8559
G01 X89.3165 Y32.7768
G01 X89.2771 Y32.6935
G01 X89.2460 Y32.6068
G01 X89.2236 Y32.5174
G01 X89.2101 Y32.4262
G01 X89.2057 Y32.3367
G00 Z2.0000
G00 X86.6657 Y32.3367
G01 F150.00
G01 Z0.0000
G01 F200.00
G01 X86.6701 Y32.2422
G01 X86.6836 Y32.1510
G01 X86.7060 Y32.0616
G01 X86.7371 Y31.9749
G01 X86.7765 Y31.8916
G01 X86.8239 Y31.8125
G01 X86.8787 Y31.7385
G01 X86.9406 Y31.6702
G01 X87.0089 Y31.6083
G01 X87.0829 Y31.5535
G01 X87.1620 Y31.5061
G01 X87.2453 Y31.4667
G01 X87.3320 Y31.4356
G01 X87.4214 Y31.4132
G01 X87.5126 Y31.3997
G01 X87.6046 Y31.3952
G01 X87.6966 Y31.3997
G01 X87.7878 Y31.4132
G01 X87.8772 Y31.4356
G01 X87.9639 Y31.4667
G01 X88.0472 Y31.5061
G01 X88.1263 Y31.5535
G01 X88.2003 Y31.6083
G01 X88.2686 Y31.6702
G01 X88.3305 Y31.7385
G01 X88.3853 Y31.8125
G01 X88.4327 Y31.8916
G01 X88.4721 Y31.9749
G01 X88.5032 Y32.0616
G01 X88.5256 Y32.1510
G01 X88.5391 Y32.2422
G01 X88.5436 Y32.3342
G01 X88.5391 Y32.4262
G01 X88.5256 Y32.5174
G01 X88.5032 Y32.6068
G01 X88.4721 Y32.6935
G01 X88.4327 Y32.7768
G01 X88.3853 Y32.8559
G01 X88.3305 Y32.9299
G01 X88.2686 Y32.9982
G01 X88.2003 Y33.0601
G01 X88.1263 Y33.1149
G01 X88.0472 Y33.1623
G01 X87.9639 Y33.2017
G01 X87.8772 Y33.2328
G01 X87.7878 Y33.2552
G01 X87.6966 Y33.2687
G01 X87.6046 Y33.2732
G01 X87.5126 Y33.2687
G01 X87.4214 Y33.2552
G01 X87.3320 Y33.2328
G01 X87.2453 Y33.2017
G01 X87.1620 Y33.1623
G01 X87.0829 Y33.1149
G01 X87.0089 Y33.0601
G01 X86.9406 Y32.9982
G01 X86.8787 Y32.9299
G01 X86.8239 Y32.8559
G01 X86.7765 Y32.7768
G01 X86.7371 Y32.6935
G01 X86.7060 Y32.6068
G01 X86.6836 Y32.5174
G01 X86.6701 Y32.4262
G01 X86.6657 Y32.3367
G00 Z2.0000
G00 X84.1257 Y32.3367
G01 F150.00
G01 Z0.0000
G01 F200.00
G01 X84.1301 Y32.2422
G01 X84.1436 Y32.1510
G01 X84.1660 Y32.0616
G01 X84.1971 Y31.9749
G01 X84.2365 Y31.8916
G01 X84.2839 Y31.8125
G01 X84.3387 Y31.7385
G01 X84.4006 Y31.6702
G01 X84.4689 Y31.6083
G01 X84.5429 Y31.5535
G01 X84.6220 Y31.5061
G01 X84.7053 Y31.4667
G01 X84.7920 Y31.4356
G01 X84.8814 Y31.4132
G01 X84.9726 Y31.3997
G01 X85.0646 Y31.3952
G01 X85.1566 Y31.3997
G01 X85.2478 Y31.4132
G01 X85.3372 Y31.4356
G01 X85.4239 Y31.4667
G01 X85.5072 Y31.5061
G01 X85.5863 Y31.5535
G01 X85.6603 Y31.6083
G01 X85.7286 Y31.6702
G01 X85.7905 Y31.7385
G01 X85.8453 Y31.8125
G01 X85.8927 Y31.8916
G01 X85.9321 Y31.9749
G01 X85.9632 Y32.0616
G01 X85.9856 Y32.1510
G01 X85.9991 Y32.2422
G01 X86.0036 Y32.3342
G01 X85.9991 Y32.4262
G01 X85.9856 Y32.5174
G01 X85.9632 Y32.6068
G01 X85.9321 Y32.6935
G01 X85.8927 Y32.7768
G01 X85.8453 Y32.8559
G01 X85.7905 Y32.9299
G01 X85.7286 Y32.9982
G01 X85.6603 Y33.0601
G01 X85.5863 Y33.1149
G01 X85.5072 Y33.1623
G01 X85.4239 Y33.2017
G01 X85.3372 Y33.2328
G01 X85.2478 Y33.2552
G01 X85.1566 Y33.2687
G01 X85.0646 Y33.2732
G01 X84.9726 Y33.2687
G01 X84.8814 Y33.2552
G01 X84.7920 Y33.2328
G01 X84.7053 Y33.2017
G01 X84.6220 Y33.1623
G01 X84.5429 Y33.1149
G01 X84.4689 Y33.0601
G01 X84.4006 Y32.9982
G01 X84.3387 Y32.9299
G01 X84.2839 Y32.8559
G01 X84.2365 Y32.7768
G01 X84.1971 Y32.6935
G01 X84.1660 Y32.6068
G01 X84.1436 Y32.5174
G01 X84.1301 Y32.4262
G01 X84.1257 Y32.3367
G00 Z2.0000
G00 X83.4136 Y31.3957
G01 F150.00
G01 Z0.0000
G01 F200.00
G01 X83.4221 Y31.3965
G01 X83.4316 Y31.3991
G01 X83.4403 Y31.4035
G01 X83.4481 Y31.4095
G01 X83.4545 Y31.4169
G01 X83.4593 Y31.4255
G01 X83.4624 Y31.4348
G01 X83.4636 Y31.4445
G01 X83.4636 Y33.2227
G01 X83.4629 Y33.2312
G01 X83.4602 Y33.2407
G01 X83.4558 Y33.2494
G01 X83.4498 Y33.2571
G01 X83.4463 Y33.2605
G01 X83.4414 Y33.2642
G01 X83.4327 Y33.2689
G01 X83.4234 Y33.2717
G01 X83.4136 Y33.2727
G01 X82.5367 Y33.2727
G01 X82.5246 Y33.2732
G01 X82.5125 Y33.2727
G01 X81.6356 Y33.2727
G01 X81.6258 Y33.2717
G01 X81.6165 Y33.2689
G01 X81.6078 Y33.2642
G01 X81.6011 Y33.2589
G01 X81.5947 Y33.2515
G01 X81.5899 Y33.2429
G01 X81.5868 Y33.2336
G01 X81.5858 Y33.2276
G01 X81.5856 Y33.2227
G01 X81.5856 Y31.4457
G01 X81.5866 Y31.4360
G01 X81.5890 Y31.4277
G01 X81.5934 Y31.4190
G01 X81.5994 Y31.4113
G01 X81.6029 Y31.4079
G01 X81.6078 Y31.4042
G01 X81.6165 Y31.3995
G01 X81.6258 Y31.3967
G01 X81.6356 Y31.3957
G01 X82.5125 Y31.3957
G01 X82.5246 Y31.3952
G01 X82.5367 Y31.3957
G01 X83.4136 Y31.3957
G00 Z2.0000
G00 X70.2811 Y35.7660
G01 F150.00
G01 Z0.0000
G01 F200.00
G01 X70.2558 Y70.4345
G01 X70.2536 Y70.4793
G01 X70.2467 Y70.5248
G01 X70.2361 Y70.5668
G01 X70.2219 Y70.6066
G01 X70.2199 Y70.6115
G01 X70.2005 Y70.6519
G01 X70.1787 Y70.6881
G01 X70.1521 Y70.7239
G01 X70.1221 Y70.7571
G01 X70.0907 Y70.7856
G01 X70.0867 Y70.7889
G01 X70.0505 Y70.8153
G01 X70.0142 Y70.8370
G01 X69.9739 Y70.8561
G01 X69.9317 Y70.8711
G01 X69.8907 Y70.8815
G01 X69.8855 Y70.8825
G01 X69.8412 Y70.8888
G01 X69.7992 Y70.8908
G01 X63.0921 Y70.8908
G01 X63.0841 Y70.9071
G01 X63.0335 Y70.9910
G01 X62.9765 Y71.0677
G01 X62.9107 Y71.1403
G01 X62.8381 Y71.2061
G01 X62.7614 Y71.2631
G01 X62.6732 Y71.3160
G01 X62.5868 Y71.3568
G01 X62.4945 Y71.3898
G01 X62.3994 Y71.4136
G01 X62.3049 Y71.4277
G01 X62.2021 Y71.4328
G01 X62.1067 Y71.4280
G01 X62.0086 Y71.4134
G01 X61.9147 Y71.3898
G01 X61.8224 Y71.3568
G01 X61.7339 Y71.3149
G01 X61.6519 Y71.2658
G01 X61.5692 Y71.2045
G01 X61.4985 Y71.1403
G01 X61.4327 Y71.0677
G01 X61.3743 Y70.9890
G01 X61.3239 Y70.9049
G01 X61.2820 Y70.8164
G01 X61.2497 Y70.7264
G01 X61.2247 Y70.6266
G01 X61.2108 Y70.5321
G01 X61.2060 Y70.4342
G01 X61.2108 Y70.3363
G01 X61.2252 Y70.2394
G01 X61.2490 Y70.1443
G01 X61.2811 Y70.0543
G01 X61.3251 Y69.9613
G01 X61.3743 Y69.8794
G01 X61.4327 Y69.8007
G01 X61.4985 Y69.7281
G01 X61.5692 Y69.6639
G01 X61.6519 Y69.6026
G01 X61.7339 Y69.5535
G01 X61.8224 Y69.5116
G01 X61.9147 Y69.4786
G01 X62.0098 Y69.4548
G01 X62.1067 Y69.4404
G01 X62.2021 Y69.4356
G01 X62.3049 Y69.4407
G01 X62.3994 Y69.4548
G01 X62.4945 Y69.4786
G01 X62.5868 Y69.5116
G01 X62.6732 Y69.5524
G01 X62.7614 Y69.6053
G01 X62.8381 Y69.6623
G01 X62.9107 Y69.7281
G01 X62.9765 Y69.8007
G01 X63.0335 Y69.8774
G01 X63.0841 Y69.9613
G01 X63.0921 Y69.9776
G01 X69.3429 Y69.9776
G01 X69.3679 Y35.7659
G01 X69.3510 Y35.7577
G01 X69.2676 Y35.7077
G01 X69.1868 Y35.6475
G01 X69.1157 Y35.5831
G01 X69.0513 Y35.5120
G01 X68.9897 Y35.4291
G01 X68.9405 Y35.3468
G01 X68.8994 Y35.2601
G01 X68.8653 Y35.1652
G01 X68.8414 Y35.0698
G01 X68.8272 Y34.9749
G01 X68.8221 Y34.8742
G01 X68.8269 Y34.7759
G01 X68.8409 Y34.6810
G01 X68.8653 Y34.5832
G01 X68.8994 Y34.4883
G01 X68.9405 Y34.4016
G01 X68.9897 Y34.3193
G01 X69.0497 Y34.2382
G01 X69.1175 Y34.1636
G01 X69.1886 Y34.0993
G01 X69.2656 Y34.0421
G01 X69.3520 Y33.9901
G01 X69.4410 Y33.9480
G01 X69.5336 Y33.9149
G01 X69.6290 Y33.8910
G01 X69.7263 Y33.8765
G01 X69.8246 Y33.8717
G01 X69.9229 Y33.8765
G01 X70.0202 Y33.8910
G01 X70.1156 Y33.9149
G01 X70.2082 Y33.9480
G01 X70.2972 Y33.9901
G01 X70.3816 Y34.0407
G01 X70.4606 Y34.0993
G01 X70.5335 Y34.1653
G01 X70.5995 Y34.2382
G01 X70.6581 Y34.3172
G01 X70.7087 Y34.4016
G01 X70.7508 Y34.4906
G01 X70.7839 Y34.5832
G01 X70.8078 Y34.6786
G01 X70.8223 Y34.7759
G01 X70.8271 Y34.8742
G01 X70.8223 Y34.9725
G01 X70.8078 Y35.0698
G01 X70.7839 Y35.1652
G01 X70.7508 Y35.2578
G01 X70.7087 Y35.3468
G01 X70.6581 Y35.4312
G01 X70.5995 Y35.5102
G01 X70.5335 Y35.5831
G01 X70.4606 Y35.6491
G01 X70.3816 Y35.7077
G01 X70.2982 Y35.7577
G01 X70.2811 Y35.7660
G00 Z2.0000
G00 X62.0770 Y39.7283
G01 F150.00
G01 Z0.0000
G01 F200.00
G01 X62.0770 Y44.1425
G01 X62.0940 Y44.1507
G01 X62.1794 Y44.2021
G01 X62.2564 Y44.2593
G01 X62.3293 Y44.3253
G01 X62.3969 Y44.4002
G01 X62.4539 Y44.4772
G01 X62.5045 Y44.5616
G01 X62.5475 Y44.6529
G01 X62.5797 Y44.7432
G01 X62.6036 Y44.8386
G01 X62.6183 Y44.9384
G01 X62.6229 Y45.0342
G01 X62.6181 Y45.1325
G01 X62.6036 Y45.2298
G01 X62.5797 Y45.3252
G01 X62.5466 Y45.4178
G01 X62.5045 Y45.5068
G01 X62.4539 Y45.5912
G01 X62.3953 Y45.6702
G01 X62.3293 Y45.7431
G01 X62.2564 Y45.8091
G01 X62.1774 Y45.8677
G01 X62.0930 Y45.9183
G01 X62.0040 Y45.9604
G01 X61.9114 Y45.9935
G01 X61.8160 Y46.0174
G01 X61.7187 Y46.0319
G01 X61.6204 Y46.0367
G01 X61.5221 Y46.0319
G01 X61.4248 Y46.0174
G01 X61.3294 Y45.9935
G01 X61.2368 Y45.9604
G01 X61.1500 Y45.9194
G01 X61.0634 Y45.8677
G01 X60.9864 Y45.8107
G01 X60.9098 Y45.7413
G01 X60.8455 Y45.6702
G01 X60.7869 Y45.5912
G01 X60.7363 Y45.5068
G01 X60.6942 Y45.4178
G01 X60.6611 Y45.3252
G01 X60.6372 Y45.2298
G01 X60.6227 Y45.1325
G01 X60.6180 Y45.0367
G01 X60.6230 Y44.9335
G01 X60.6372 Y44.8386
G01 X60.6611 Y44.7432
G01 X60.6952 Y44.6483
G01 X60.7363 Y44.5616
G01 X60.7855 Y44.4793
G01 X60.8471 Y44.3964
G01 X60.9115 Y44.3253
G01 X60.9826 Y44.2609
G01 X61.0634 Y44.2007
G01 X61.1468 Y44.1507
G01 X61.1638 Y44.1425
G01 X61.1638 Y39.7283
G01 X61.1468 Y39.7201
G01 X61.0634 Y39.6701
G01 X60.9826 Y39.6099
G01 X60.9115 Y39.5455
G01 X60.8471 Y39.4744
G01 X60.7855 Y39.3915
G01 X60.7363 Y39.3092
G01 X60.6952 Y39.2225
G01 X60.6611 Y39.1276
G01 X60.6372 Y39.0322
G01 X60.6230 Y38.9373
G01 X60.6179 Y38.8366
G01 X60.6227 Y38.7383
G01 X60.6367 Y38.6434
G01 X60.6611 Y38.5456
G01 X60.6952 Y38.4507
G01 X60.7363 Y38.3640
G01 X60.7855 Y38.2817
G01 X60.8455 Y38.2006
G01 X60.9133 Y38.1260
G01 X60.9844 Y38.0617
G01 X61.0614 Y38.0045
G01 X61.1478 Y37.9525
G01 X61.2368 Y37.9104
G01 X61.3294 Y37.8773
G01 X61.4248 Y37.8534
G01 X61.5221 Y37.8389
G01 X61.6204 Y37.8341
G01 X61.7187 Y37.8389
G01 X61.8160 Y37.8534
G01 X61.9114 Y37.8773
G01 X62.0040 Y37.9104
G01 X62.0930 Y37.9525
G01 X62.1774 Y38.0031
G01 X62.2564 Y38.0617
G01 X62.3293 Y38.1277
G01 X62.3953 Y38.2006
G01 X62.4539 Y38.2796
G01 X62.5045 Y38.3640
G01 X62.5466 Y38.4530
G01 X62.5797 Y38.5456
G01 X62.6036 Y38.6410
G01 X62.6181 Y38.7383
G01 X62.6229 Y38.8366
G01 X62.6181 Y38.9349
G01 X62.6036 Y39.0322
G01 X62.5797 Y39.1276
G01 X62.5466 Y39.2202
G01 X62.5045 Y39.3092
G01 X62.4539 Y39.3936
G01 X62.3953 Y39.4726
G01 X62.3293 Y39.5455
G01 X62.2564 Y39.6115
G01 X62.1774 Y39.6701
G01 X62.0940 Y39.7201
G01 X62.0770 Y39.7283
G00 Z2.0000
G00 X57.5812 Y43.3859
G01 F150.00
G01 Z0.0000
G01 F200.00
G01 X57.5812 Y44.1425
G01 X57.5982 Y44.1507
G01 X57.6836 Y44.2021
G01 X57.7606 Y44.2593
G01 X57.8352 Y44.3271
G01 X57.8995 Y44.3982
G01 X57.9581 Y44.4772
G01 X58.0087 Y44.5616
G01 X58.0508 Y44.6506
G01 X58.0839 Y44.7432
G01 X58.1073 Y44.8362
G01 X58.1225 Y44.9384
G01 X58.1271 Y45.0342
G01 X58.1223 Y45.1325
G01 X58.1078 Y45.2298
G01 X58.0843 Y45.3240
G01 X58.0508 Y45.4178
G01 X58.0087 Y45.5068
G01 X57.9581 Y45.5912
G01 X57.8995 Y45.6702
G01 X57.8335 Y45.7431
G01 X57.7606 Y45.8091
G01 X57.6816 Y45.8677
G01 X57.5972 Y45.9183
G01 X57.5082 Y45.9604
G01 X57.4156 Y45.9935
G01 X57.3202 Y46.0174
G01 X57.2229 Y46.0319
G01 X57.1246 Y46.0367
G01 X57.0263 Y46.0319
G01 X56.9290 Y46.0174
G01 X56.8348 Y45.9939
G01 X56.7387 Y45.9594
G01 X56.6520 Y45.9183
G01 X56.5676 Y45.8677
G01 X56.4886 Y45.8091
G01 X56.4175 Y45.7448
G01 X56.3481 Y45.6682
G01 X56.2911 Y45.5912
G01 X56.2405 Y45.5068
G01 X56.1984 Y45.4178
G01 X56.1660 Y45.3275
G01 X56.1409 Y45.2274
G01 X56.1269 Y45.1325
G01 X56.1222 Y45.0367
G01 X56.1272 Y44.9335
G01 X56.1414 Y44.8386
G01 X56.1653 Y44.7432
G01 X56.1994 Y44.6483
G01 X56.2405 Y44.5616
G01 X56.2897 Y44.4793
G01 X56.3513 Y44.3964
G01 X56.4157 Y44.3253
G01 X56.4868 Y44.2609
G01 X56.5676 Y44.2007
G01 X56.6510 Y44.1507
G01 X56.6680 Y44.1425
G01 X56.6680 Y43.3859
G01 X56.6510 Y43.3777
G01 X56.5676 Y43.3277
G01 X56.4868 Y43.2675
G01 X56.4157 Y43.2031
G01 X56.3513 Y43.1320
G01 X56.2897 Y43.0491
G01 X56.2405 Y42.9668
G01 X56.1994 Y42.8801
G01 X56.1653 Y42.7852
G01 X56.1414 Y42.6898
G01 X56.1272 Y42.5949
G01 X56.1221 Y42.4942
G01 X56.1269 Y42.3959
G01 X56.1409 Y42.3010
G01 X56.1653 Y42.2032
G01 X56.1994 Y42.1083
G01 X56.2405 Y42.0216
G01 X56.2897 Y41.9393
G01 X56.3497 Y41.8582
G01 X56.4175 Y41.7836
G01 X56.4886 Y41.7193
G01 X56.5656 Y41.6621
G01 X56.6520 Y41.6101
G01 X56.7410 Y41.5680
G01 X56.8336 Y41.5349
G01 X56.9290 Y41.5110
G01 X57.0263 Y41.4965
G01 X57.1246 Y41.4917
G01 X57.2229 Y41.4965
G01 X57.3202 Y41.5110
G01 X57.4156 Y41.5349
G01 X57.5082 Y41.5680
G01 X57.5972 Y41.6101
G01 X57.6816 Y41.6607
G01 X57.7606 Y41.7193
G01 X57.8335 Y41.7853
G01 X57.8995 Y41.8582
G01 X57.9581 Y41.9372
G01 X58.0087 Y42.0216
G01 X58.0508 Y42.1106
G01 X58.0839 Y42.2032
G01 X58.1078 Y42.2986
G01 X58.1223 Y42.3959
G01 X58.1271 Y42.4942
G01 X58.1223 Y42.5925
G01 X58.1078 Y42.6898
G01 X58.0839 Y42.7852
G01 X58.0508 Y42.8778
G01 X58.0087 Y42.9668
G01 X57.9581 Y43.0512
G01 X57.8995 Y43.1302
G01 X57.8335 Y43.2031
G01 X57.7606 Y43.2691
G01 X57.6816 Y43.3277
G01 X57.5982 Y43.3777
G01 X57.5812 Y43.3859
G00 Z2.0000
G00 X56.1222 Y38.8391
G01 F150.00
G01 Z0.0000
G01 F200.00
G01 X56.1269 Y38.7383
G01 X56.1414 Y38.6410
G01 X56.1653 Y38.5456
G01 X56.1984 Y38.4530
G01 X56.2405 Y38.3640
G01 X56.2911 Y38.2796
G01 X56.3497 Y38.2006
G01 X56.4157 Y38.1277
G01 X56.4886 Y38.0617
G01 X56.5676 Y38.0031
G01 X56.6520 Y37.9525
G01 X56.7410 Y37.9104
G01 X56.8336 Y37.8773
G01 X56.9290 Y37.8534
G01 X57.0263 Y37.8389
G01 X57.1246 Y37.8341
G01 X57.2229 Y37.8389
G01 X57.3202 Y37.8534
G01 X57.4156 Y37.8773
G01 X57.5082 Y37.9104
G01 X57.5972 Y37.9525
G01 X57.6816 Y38.0031
G01 X57.7606 Y38.0617
G01 X57.8335 Y38.1277
G01 X57.8995 Y38.2006
G01 X57.9581 Y38.2796
G01 X58.0087 Y38.3640
G01 X58.0508 Y38.4530
G01 X58.0839 Y38.5456
G01 X58.1078 Y38.6410
G01 X58.1223 Y38.7383
G01 X58.1271 Y38.8366
G01 X58.1223 Y38.9349
G01 X58.1078 Y39.0322
G01 X58.0839 Y39.1276
G01 X58.0508 Y39.2202
G01 X58.0087 Y39.3092
G01 X57.9581 Y39.3936
G01 X57.8995 Y39.4726
G01 X57.8335 Y39.5455
G01 X57.7606 Y39.6115
G01 X57.6816 Y39.6701
G01 X57.5972 Y39.7207
G01 X57.5082 Y39.7628
G01 X57.4156 Y39.7959
G01 X57.3202 Y39.8198
G01 X57.2229 Y39.8343
G01 X57.1246 Y39.8391
G01 X57.0263 Y39.8343
G01 X56.9290 Y39.8198
G01 X56.8336 Y39.7959
G01 X56.7410 Y39.7628
G01 X56.6520 Y39.7207
G01 X56.5676 Y39.6701
G01 X56.4886 Y39.6115
G01 X56.4157 Y39.5455
G01 X56.3497 Y39.4726
G01 X56.2911 Y39.3936
G01 X56.2405 Y39.3092
G01 X56.1984 Y39.2202
G01 X56.1653 Y39.1276
G01 X56.1414 Y39.0322
G01 X56.1269 Y38.9349
G01 X56.1222 Y38.8391
G00 Z2.0000
G00 X56.1222 Y51.5391
G01 F150.00
G01 Z0.0000
G01 F200.00
G01 X56.1269 Y51.4383
G01 X56.1414 Y51.3410
G01 X56.1653 Y51.2456
G01 X56.1984 Y51.1530
G01 X56.2405 Y51.0640
G01 X56.2911 Y50.9796
G01 X56.3497 Y50.9006
G01 X56.4157 Y50.8277
G01 X56.4886 Y50.7617
G01 X56.5676 Y50.7031
G01 X56.6520 Y50.6525
G01 X56.7410 Y50.6104
G01 X56.8336 Y50.5773
G01 X56.9290 Y50.5534
G01 X57.0263 Y50.5389
G01 X57.1246 Y50.5341
G01 X57.2229 Y50.5389
G01 X57.3202 Y50.5534
G01 X57.4156 Y50.5773
G01 X57.5082 Y50.6104
G01 X57.5972 Y50.6525
G01 X57.6816 Y50.7031
G01 X57.7606 Y50.7617
G01 X57.8335 Y50.8277
G01 X57.8995 Y50.9006
G01 X57.9581 Y50.9796
G01 X58.0087 Y51.0640
G01 X58.0508 Y51.1530
G01 X58.0839 Y51.2456
G01 X58.1078 Y51.3410
G01 X58.1223 Y51.4383
G01 X58.1271 Y51.5366
G01 X58.1223 Y51.6349
G01 X58.1078 Y51.7322
G01 X58.0839 Y51.8276
G01 X58.0508 Y51.9202
G01 X58.0087 Y52.0092
G01 X57.9581 Y52.0936
G01 X57.8995 Y52.1726
G01 X57.8335 Y52.2455
G01 X57.7606 Y52.3115
G01 X57.6816 Y52.3701
G01 X57.5972 Y52.4207
G01 X57.5082 Y52.4628
G01 X57.4156 Y52.4959
G01 X57.3202 Y52.5198
G01 X57.2229 Y52.5343
G01 X57.1246 Y52.5391
G01 X57.0263 Y52.5343
G01 X56.9290 Y52.5198
G01 X56.8336 Y52.4959
G01 X56.7410 Y52.4628
G01 X56.6520 Y52.4207
G01 X56.5676 Y52.3701
G01 X56.4886 Y52.3115
G01 X56.4157 Y52.2455
G01 X56.3497 Y52.1726
G01 X56.2911 Y52.0936
G01 X56.2405 Y52.0092
G01 X56.1984 Y51.9202
G01 X56.1653 Y51.8276
G01 X56.1414 Y51.7322
G01 X56.1269 Y51.6349
G01 X56.1222 Y51.5391
G00 Z2.0000
G00 X60.6180 Y51.5391
G01 F150.00
G01 Z0.0000
G01 F200.00
G01 X60.6227 Y51.4383
G01 X60.6372 Y51.3410
G01 X60.6611 Y51.2456
G01 X60.6942 Y51.1530
G01 X60.7363 Y51.0640
G01 X60.7869 Y50.9796
G01 X60.8455 Y50.9006
G01 X60.9115 Y50.8277
G01 X60.9844 Y50.7617
G01 X61.0634 Y50.7031
G01 X61.1478 Y50.6525
G01 X61.2368 Y50.6104
G01 X61.3294 Y50.5773
G01 X61.4248 Y50.5534
G01 X61.5221 Y50.5389
G01 X61.6204 Y50.5341
G01 X61.7187 Y50.5389
G01 X61.8160 Y50.5534
G01 X61.9114 Y50.5773
G01 X62.0040 Y50.6104
G01 X62.0930 Y50.6525
G01 X62.1774 Y50.7031
G01 X62.2564 Y50.7617
G01 X62.3293 Y50.8277
G01 X62.3953 Y50.9006
G01 X62.4539 Y50.9796
G01 X62.5045 Y51.0640
G01 X62.5466 Y51.1530
G01 X62.5797 Y51.2456
G01 X62.6036 Y51.3410
G01 X62.6181 Y51.4383
G01 X62.6229 Y51.5366
G01 X62.6181 Y51.6349
G01 X62.6036 Y51.7322
G01 X62.5797 Y51.8276
G01 X62.5466 Y51.9202
G01 X62.5045 Y52.0092
G01 X62.4539 Y52.0936
G01 X62.3953 Y52.1726
G01 X62.3293 Y52.2455
