(G-CODE GENERATED BY FLATCAM v8.994 - www.flatcam.org - Version Date: 2020/11/7)

(Name: Commande Aspi_contour.gm1_cutout_cnc)
(Type: G-code from Geometry)
(Units: MM)

(Created on Monday, 22 March 2021 at 23:17)

(This preprocessor is the default preprocessor used by FlatCAM.)
(It is made to work with MACH3 compatible motion controllers.)

(TOOL DIAMETER: 3.2 mm)
(Feedrate_XY: 200.0 mm/min)
(Feedrate_Z: 150.0 mm/min)
(Feedrate rapids 1500.0 mm/min)

(Z_Cut: -1.8 mm)
(DepthPerCut: 0.6 mm <=>3 passes)
(Z_Move: 2.0 mm)
(Z Start: None mm)
(Z End: 15.0 mm)
(X,Y End: None mm)
(Steps per circle: 64)
(Preprocessor Geometry: default)

(X range:   -1.2000 ...  131.1972  mm)
(Y range:   -1.2000 ...   91.1922  mm)

(Spindle Speed: 0.0 RPM)
G21
G90
G94

G01 F200.00

M5
G00 Z15.0000
G00 X0.0000 Y0.0000
T1
M6    
(MSG, Change to Tool Dia = 3.2000)
M0
G00 Z15.0000

M03
G01 F200.00
G00 X-1.2000 Y19.6980
G01 F150.00
G01 Z-0.6000
G01 F200.00
G01 X-1.2000 Y0.1016
G01 X-1.1986 Y0.0427
G01 X-1.1981 Y0.0328
G01 X-1.1866 Y-0.0844
G01 X-1.1851 Y-0.0943
G01 X-1.1621 Y-0.2098
G01 X-1.1597 Y-0.2195
G01 X-1.1255 Y-0.3322
G01 X-1.1222 Y-0.3416
G01 X-1.0771 Y-0.4504
G01 X-1.0728 Y-0.4594
G01 X-1.0173 Y-0.5632
G01 X-1.0122 Y-0.5718
G01 X-0.9468 Y-0.6697
G01 X-0.9408 Y-0.6777
G01 X-0.8661 Y-0.7688
G01 X-0.8594 Y-0.7761
G01 X-0.7761 Y-0.8594
G01 X-0.7688 Y-0.8661
G01 X-0.6777 Y-0.9408
G01 X-0.6697 Y-0.9468
G01 X-0.5718 Y-1.0122
G01 X-0.5632 Y-1.0173
G01 X-0.4594 Y-1.0728
G01 X-0.4504 Y-1.0771
G01 X-0.3416 Y-1.1222
G01 X-0.3322 Y-1.1255
G01 X-0.2195 Y-1.1597
G01 X-0.2098 Y-1.1621
G01 X-0.0943 Y-1.1851
G01 X-0.0844 Y-1.1866
G01 X0.0328 Y-1.1981
G01 X0.1016 Y-1.2000
G01 X29.6993 Y-1.2000
G00 X29.6993 Y-1.2000
G01 F150.00
G01 Z-1.2000
G01 F200.00
G01 X0.1016 Y-1.2000
G01 X0.0328 Y-1.1981
G01 X-0.0844 Y-1.1866
G01 X-0.0943 Y-1.1851
G01 X-0.2098 Y-1.1621
G01 X-0.2195 Y-1.1597
G01 X-0.3322 Y-1.1255
G01 X-0.3416 Y-1.1222
G01 X-0.4504 Y-1.0771
G01 X-0.4594 Y-1.0728
G01 X-0.5632 Y-1.0173
G01 X-0.5718 Y-1.0122
G01 X-0.6697 Y-0.9468
G01 X-0.6777 Y-0.9408
G01 X-0.7688 Y-0.8661
G01 X-0.7761 Y-0.8594
G01 X-0.8594 Y-0.7761
G01 X-0.8661 Y-0.7688
G01 X-0.9408 Y-0.6777
G01 X-0.9468 Y-0.6697
G01 X-1.0122 Y-0.5718
G01 X-1.0173 Y-0.5632
G01 X-1.0728 Y-0.4594
G01 X-1.0771 Y-0.4504
G01 X-1.1222 Y-0.3416
G01 X-1.1255 Y-0.3322
G01 X-1.1597 Y-0.2195
G01 X-1.1621 Y-0.2098
G01 X-1.1851 Y-0.0943
G01 X-1.1866 Y-0.0844
G01 X-1.1981 Y0.0328
G01 X-1.1986 Y0.0427
G01 X-1.2000 Y0.1016
G01 X-1.2000 Y19.6980
G00 X-1.2000 Y19.6980
G01 F150.00
G01 Z-1.8000
G01 F200.00
G01 X-1.2000 Y0.1016
G01 X-1.1986 Y0.0427
G01 X-1.1981 Y0.0328
G01 X-1.1866 Y-0.0844
G01 X-1.1851 Y-0.0943
G01 X-1.1621 Y-0.2098
G01 X-1.1597 Y-0.2195
G01 X-1.1255 Y-0.3322
G01 X-1.1222 Y-0.3416
G01 X-1.0771 Y-0.4504
G01 X-1.0728 Y-0.4594
G01 X-1.0173 Y-0.5632
G01 X-1.0122 Y-0.5718
G01 X-0.9468 Y-0.6697
G01 X-0.9408 Y-0.6777
G01 X-0.8661 Y-0.7688
G01 X-0.8594 Y-0.7761
G01 X-0.7761 Y-0.8594
G01 X-0.7688 Y-0.8661
G01 X-0.6777 Y-0.9408
G01 X-0.6697 Y-0.9468
G01 X-0.5718 Y-1.0122
G01 X-0.5632 Y-1.0173
G01 X-0.4594 Y-1.0728
G01 X-0.4504 Y-1.0771
G01 X-0.3416 Y-1.1222
G01 X-0.3322 Y-1.1255
G01 X-0.2195 Y-1.1597
G01 X-0.2098 Y-1.1621
G01 X-0.0943 Y-1.1851
G01 X-0.0844 Y-1.1866
G01 X0.0328 Y-1.1981
G01 X0.1016 Y-1.2000
G01 X29.6993 Y-1.2000
G00 Z2.0000
G00 X-1.2000 Y24.0980
G01 F150.00
G01 Z-0.6000
G01 F200.00
G01 X-1.2000 Y65.8942
G00 X-1.2000 Y65.8942
G01 F150.00
G01 Z-1.2000
G01 F200.00
G01 X-1.2000 Y24.0980
G00 X-1.2000 Y24.0980
G01 F150.00
G01 Z-1.8000
G01 F200.00
G01 X-1.2000 Y65.8942
G00 Z2.0000
G00 X-1.2000 Y70.2942
G01 F150.00
G01 Z-0.6000
G01 F200.00
G01 X-1.2000 Y89.8906
G01 X-1.1986 Y89.9495
G01 X-1.1981 Y89.9594
G01 X-1.1866 Y90.0766
G01 X-1.1851 Y90.0865
G01 X-1.1621 Y90.2020
G01 X-1.1597 Y90.2117
G01 X-1.1255 Y90.3244
G01 X-1.1222 Y90.3338
G01 X-1.0771 Y90.4426
G01 X-1.0728 Y90.4516
G01 X-1.0173 Y90.5554
G01 X-1.0122 Y90.5640
G01 X-0.9468 Y90.6619
G01 X-0.9408 Y90.6699
G01 X-0.8661 Y90.7610
G01 X-0.8594 Y90.7683
G01 X-0.7761 Y90.8516
G01 X-0.7688 Y90.8583
G01 X-0.6777 Y90.9330
G01 X-0.6697 Y90.9390
G01 X-0.5718 Y91.0044
G01 X-0.5632 Y91.0095
G01 X-0.4594 Y91.0650
G01 X-0.4504 Y91.0693
G01 X-0.3416 Y91.1144
G01 X-0.3322 Y91.1177
G01 X-0.2195 Y91.1519
G01 X-0.2098 Y91.1543
G01 X-0.0943 Y91.1773
G01 X-0.0844 Y91.1788
G01 X0.0328 Y91.1903
G01 X0.1016 Y91.1922
G01 X29.6993 Y91.1922
G00 X29.6993 Y91.1922
G01 F150.00
G01 Z-1.2000
G01 F200.00
G01 X0.1016 Y91.1922
G01 X0.0328 Y91.1903
G01 X-0.0844 Y91.1788
G01 X-0.0943 Y91.1773
G01 X-0.2098 Y91.1543
G01 X-0.2195 Y91.1519
G01 X-0.3322 Y91.1177
G01 X-0.3416 Y91.1144
G01 X-0.4504 Y91.0693
G01 X-0.4594 Y91.0650
G01 X-0.5632 Y91.0095
G01 X-0.5718 Y91.0044
G01 X-0.6697 Y90.9390
G01 X-0.6777 Y90.9330
G01 X-0.7688 Y90.8583
G01 X-0.7761 Y90.8516
G01 X-0.8594 Y90.7683
G01 X-0.8661 Y90.7610
G01 X-0.9408 Y90.6699
G01 X-0.9468 Y90.6619
G01 X-1.0122 Y90.5640
G01 X-1.0173 Y90.5554
G01 X-1.0728 Y90.4516
G01 X-1.0771 Y90.4426
G01 X-1.1222 Y90.3338
G01 X-1.1255 Y90.3244
G01 X-1.1597 Y90.2117
G01 X-1.1621 Y90.2020
G01 X-1.1851 Y90.0865
G01 X-1.1866 Y90.0766
G01 X-1.1981 Y89.9594
G01 X-1.1986 Y89.9495
G01 X-1.2000 Y89.8906
G01 X-1.2000 Y70.2942
G00 X-1.2000 Y70.2942
G01 F150.00
G01 Z-1.8000
G01 F200.00
G01 X-1.2000 Y89.8906
G01 X-1.1986 Y89.9495
G01 X-1.1981 Y89.9594
G01 X-1.1866 Y90.0766
G01 X-1.1851 Y90.0865
G01 X-1.1621 Y90.2020
G01 X-1.1597 Y90.2117
G01 X-1.1255 Y90.3244
G01 X-1.1222 Y90.3338
G01 X-1.0771 Y90.4426
G01 X-1.0728 Y90.4516
G01 X-1.0173 Y90.5554
G01 X-1.0122 Y90.5640
G01 X-0.9468 Y90.6619
G01 X-0.9408 Y90.6699
G01 X-0.8661 Y90.7610
G01 X-0.8594 Y90.7683
G01 X-0.7761 Y90.8516
G01 X-0.7688 Y90.8583
G01 X-0.6777 Y90.9330
G01 X-0.6697 Y90.9390
G01 X-0.5718 Y91.0044
G01 X-0.5632 Y91.0095
G01 X-0.4594 Y91.0650
G01 X-0.4504 Y91.0693
G01 X-0.3416 Y91.1144
G01 X-0.3322 Y91.1177
G01 X-0.2195 Y91.1519
G01 X-0.2098 Y91.1543
G01 X-0.0943 Y91.1773
G01 X-0.0844 Y91.1788
G01 X0.0328 Y91.1903
G01 X0.1016 Y91.1922
G01 X29.6993 Y91.1922
G00 Z2.0000
G00 X34.0993 Y91.1922
G01 F150.00
G01 Z-0.6000
G01 F200.00
G01 X95.8979 Y91.1922
G00 X95.8979 Y91.1922
G01 F150.00
G01 Z-1.2000
G01 F200.00
G01 X34.0993 Y91.1922
G00 X34.0993 Y91.1922
G01 F150.00
G01 Z-1.8000
G01 F200.00
G01 X95.8979 Y91.1922
G00 Z2.0000
G00 X100.2979 Y91.1922
G01 F150.00
G01 Z-0.6000
G01 F200.00
G01 X129.8956 Y91.1922
G01 X129.9644 Y91.1903
G01 X130.0816 Y91.1788
G01 X130.0915 Y91.1773
G01 X130.2070 Y91.1543
G01 X130.2167 Y91.1519
G01 X130.3294 Y91.1177
G01 X130.3388 Y91.1144
G01 X130.4476 Y91.0693
G01 X130.4566 Y91.0650
G01 X130.5604 Y91.0095
G01 X130.5690 Y91.0044
G01 X130.6669 Y90.9390
G01 X130.6749 Y90.9330
G01 X130.7660 Y90.8583
G01 X130.7733 Y90.8516
G01 X130.8566 Y90.7683
G01 X130.8633 Y90.7610
G01 X130.9380 Y90.6699
G01 X130.9440 Y90.6619
G01 X131.0094 Y90.5640
G01 X131.0145 Y90.5554
G01 X131.0700 Y90.4516
G01 X131.0743 Y90.4426
G01 X131.1194 Y90.3338
G01 X131.1227 Y90.3244
G01 X131.1569 Y90.2117
G01 X131.1593 Y90.2020
G01 X131.1823 Y90.0865
G01 X131.1837 Y90.0769
G01 X131.1953 Y89.9594
G01 X131.1958 Y89.9495
G01 X131.1972 Y89.8906
G01 X131.1972 Y70.2942
G00 X131.1972 Y70.2942
G01 F150.00
G01 Z-1.2000
G01 F200.00
G01 X131.1972 Y89.8906
G01 X131.1958 Y89.9495
G01 X131.1953 Y89.9594
G01 X131.1837 Y90.0769
G01 X131.1823 Y90.0865
G01 X131.1593 Y90.2020
G01 X131.1569 Y90.2117
G01 X131.1227 Y90.3244
G01 X131.1194 Y90.3338
G01 X131.0743 Y90.4426
G01 X131.0700 Y90.4516
G01 X131.0145 Y90.5554
G01 X131.0094 Y90.5640
G01 X130.9440 Y90.6619
G01 X130.9380 Y90.6699
G01 X130.8633 Y90.7610
G01 X130.8566 Y90.7683
G01 X130.7733 Y90.8516
G01 X130.7660 Y90.8583
G01 X130.6749 Y90.9330
G01 X130.6669 Y90.9390
G01 X130.5690 Y91.0044
G01 X130.5604 Y91.0095
G01 X130.4566 Y91.0650
G01 X130.4476 Y91.0693
G01 X130.3388 Y91.1144
G01 X130.3294 Y91.1177
G01 X130.2167 Y91.1519
G01 X130.2070 Y91.1543
G01 X130.0915 Y91.1773
G01 X130.0816 Y91.1788
G01 X129.9644 Y91.1903
G01 X129.8956 Y91.1922
G01 X100.2979 Y91.1922
G00 X100.2979 Y91.1922
G01 F150.00
G01 Z-1.8000
G01 F200.00
G01 X129.8956 Y91.1922
G01 X129.9644 Y91.1903
G01 X130.0816 Y91.1788
G01 X130.0915 Y91.1773
G01 X130.2070 Y91.1543
G01 X130.2167 Y91.1519
G01 X130.3294 Y91.1177
G01 X130.3388 Y91.1144
G01 X130.4476 Y91.0693
G01 X130.4566 Y91.0650
G01 X130.5604 Y91.0095
G01 X130.5690 Y91.0044
G01 X130.6669 Y90.9390
G01 X130.6749 Y90.9330
G01 X130.7660 Y90.8583
G01 X130.7733 Y90.8516
G01 X130.8566 Y90.7683
G01 X130.8633 Y90.7610
G01 X130.9380 Y90.6699
G01 X130.9440 Y90.6619
G01 X131.0094 Y90.5640
G01 X131.0145 Y90.5554
G01 X131.0700 Y90.4516
G01 X131.0743 Y90.4426
G01 X131.1194 Y90.3338
G01 X131.1227 Y90.3244
G01 X131.1569 Y90.2117
G01 X131.1593 Y90.2020
G01 X131.1823 Y90.0865
G01 X131.1837 Y90.0769
G01 X131.1953 Y89.9594
G01 X131.1958 Y89.9495
G01 X131.1972 Y89.8906
G01 X131.1972 Y70.2942
G00 Z2.0000
G00 X131.1972 Y65.8942
G01 F150.00
G01 Z-0.6000
G01 F200.00
G01 X131.1972 Y24.0980
G00 X131.1972 Y24.0980
G01 F150.00
G01 Z-1.2000
G01 F200.00
G01 X131.1972 Y65.8942
G00 X131.1972 Y65.8942
G01 F150.00
G01 Z-1.8000
G01 F200.00
G01 X131.1972 Y24.0980
G00 Z2.0000
G00 X131.1972 Y19.6980
G01 F150.00
G01 Z-0.6000
G01 F200.00
G01 X131.1972 Y0.1016
G01 X131.1958 Y0.0427
G01 X131.1953 Y0.0328
G01 X131.1838 Y-0.0844
G01 X131.1823 Y-0.0943
G01 X131.1593 Y-0.2098
G01 X131.1569 Y-0.2195
G01 X131.1227 Y-0.3322
G01 X131.1194 Y-0.3416
G01 X131.0743 Y-0.4504
G01 X131.0700 Y-0.4594
G01 X131.0145 Y-0.5632
G01 X131.0094 Y-0.5718
G01 X130.9440 Y-0.6697
G01 X130.9380 Y-0.6777
G01 X130.8633 Y-0.7688
G01 X130.8566 Y-0.7761
G01 X130.7733 Y-0.8594
G01 X130.7660 Y-0.8661
G01 X130.6749 Y-0.9408
G01 X130.6669 Y-0.9468
G01 X130.5690 Y-1.0122
G01 X130.5604 Y-1.0173
G01 X130.4566 Y-1.0728
G01 X130.4476 Y-1.0771
G01 X130.3388 Y-1.1222
G01 X130.3294 Y-1.1255
G01 X130.2167 Y-1.1597
G01 X130.2070 Y-1.1621
G01 X130.0915 Y-1.1851
G01 X130.0816 Y-1.1866
G01 X129.9644 Y-1.1981
G01 X129.8956 Y-1.2000
G01 X100.2979 Y-1.2000
G00 X100.2979 Y-1.2000
G01 F150.00
G01 Z-1.2000
G01 F200.00
G01 X129.8956 Y-1.2000
G01 X129.9644 Y-1.1981
G01 X130.0816 Y-1.1866
G01 X130.0915 Y-1.1851
G01 X130.2070 Y-1.1621
G01 X130.2167 Y-1.1597
G01 X130.3294 Y-1.1255
G01 X130.3388 Y-1.1222
G01 X130.4476 Y-1.0771
G01 X130.4566 Y-1.0728
G01 X130.5604 Y-1.0173
G01 X130.5690 Y-1.0122
G01 X130.6669 Y-0.9468
G01 X130.6749 Y-0.9408
G01 X130.7660 Y-0.8661
G01 X130.7733 Y-0.8594
G01 X130.8566 Y-0.7761
G01 X130.8633 Y-0.7688
G01 X130.9380 Y-0.6777
G01 X130.9440 Y-0.6697
G01 X131.0094 Y-0.5718
G01 X131.0145 Y-0.5632
G01 X131.0700 Y-0.4594
G01 X131.0743 Y-0.4504
G01 X131.1194 Y-0.3416
G01 X131.1227 Y-0.3322
G01 X131.1569 Y-0.2195
G01 X131.1593 Y-0.2098
G01 X131.1823 Y-0.0943
G01 X131.1838 Y-0.0844
G01 X131.1953 Y0.0328
G01 X131.1958 Y0.0427
G01 X131.1972 Y0.1016
G01 X131.1972 Y19.6980
G00 X131.1972 Y19.6980
G01 F150.00
G01 Z-1.8000
G01 F200.00
G01 X131.1972 Y0.1016
G01 X131.1958 Y0.0427
G01 X131.1953 Y0.0328
G01 X131.1838 Y-0.0844
G01 X131.1823 Y-0.0943
G01 X131.1593 Y-0.2098
G01 X131.1569 Y-0.2195
G01 X131.1227 Y-0.3322
G01 X131.1194 Y-0.3416
G01 X131.0743 Y-0.4504
G01 X131.0700 Y-0.4594
G01 X131.0145 Y-0.5632
G01 X131.0094 Y-0.5718
G01 X130.9440 Y-0.6697
G01 X130.9380 Y-0.6777
G01 X130.8633 Y-0.7688
G01 X130.8566 Y-0.7761
G01 X130.7733 Y-0.8594
G01 X130.7660 Y-0.8661
G01 X130.6749 Y-0.9408
G01 X130.6669 Y-0.9468
G01 X130.5690 Y-1.0122
G01 X130.5604 Y-1.0173
G01 X130.4566 Y-1.0728
G01 X130.4476 Y-1.0771
G01 X130.3388 Y-1.1222
G01 X130.3294 Y-1.1255
G01 X130.2167 Y-1.1597
G01 X130.2070 Y-1.1621
G01 X130.0915 Y-1.1851
G01 X130.0816 Y-1.1866
G01 X129.9644 Y-1.1981
G01 X129.8956 Y-1.2000
G01 X100.2979 Y-1.2000
G00 Z2.0000
G00 X95.8979 Y-1.2000
G01 F150.00
G01 Z-0.6000
G01 F200.00
G01 X34.0993 Y-1.2000
G00 X34.0993 Y-1.2000
G01 F150.00
G01 Z-1.2000
G01 F200.00
G01 X95.8979 Y-1.2000
G00 X95.8979 Y-1.2000
G01 F150.00
G01 Z-1.8000
G01 F200.00
G01 X34.0993 Y-1.2000
G00 Z2.0000
M05
G00 Z2.0000
G00 Z15.00


